EASYMMMM/IGEvolution/isaacgymenvs/run_data/srl_policy_outputs_env0.csv
episode,step,time_sec,action_0,action_1,action_2,action_3,action_4,action_5,pd_target_0,pd_target_1,pd_target_2,pd_target_3,pd_target_4,pd_target_5,torque_0,torque_1,torque_2,torque_3,torque_4,torque_5,joint_pos_0,joint_pos_1,joint_pos_2,joint_pos_3,joint_pos_4,joint_pos_5
1,0,0.0,0.01344266626983881,-0.008740229532122612,-0.0070994761772453785,0.007191463839262724,-0.0025326618924736977,0.005012895446270704,0.009502061642706394,-0.10617810487747192,0.34498167037963867,0.005083346739411354,-0.10179023444652557,0.35354340076446533,1.1402473449707031,-1.2974016666412354,-1.4051306247711182,0.6100015640258789,-0.3759489059448242,0.9921538829803467,0.014069616794586182,-0.10320338606834412,0.35176053643226624,-0.013751466758549213,-0.09919632971286774,0.3453955352306366
1,1,0.015,0.06921268254518509,-0.03244098648428917,-0.04383459687232971,0.04160350188612938,-0.0074887024238705635,0.012821657583117485,0.048923566937446594,-0.12293118238449097,0.31901514530181885,0.029407784342765808,-0.10529345273971558,0.3590630888938904,-22.873605728149414,1.0787906646728516,-15.649062156677246,31.36983299255371,-8.4049654006958,21.47511100769043,0.01912095583975315,-0.10228922218084335,0.33688169717788696,-0.016714230179786682,-0.10157802700996399,0.36213552951812744
1,2,0.03,0.1726353019475937,-0.05312377214431763,-0.13309139013290405,0.10725293308496475,-0.014622076414525509,0.013233745470643044,0.12202871590852737,-0.1375509798526764,0.25592324137687683,0.07581263780593872,-0.11033573746681213,0.3593543767929077,16.16568374633789,-13.368074417114258,47.725006103515625,3.1076860427856445,9.22938346862793,-87.49373626708984,0.017310280352830887,-0.11000394821166992,0.3567419946193695,-0.007783067878335714,-0.08688487112522125,0.3132099509239197
1,3,0.045,0.28915712237358093,-0.06844089180231094,-0.2695035934448242,0.17940516769886017,-0.009159653447568417,-0.01674479991197586,0.20439313352108002,-0.14837801456451416,0.1594991534948349,0.12681405246257782,-0.10647457838058472,0.3381637930870056,25.310630798339844,18.230724334716797,-150.0,0.18230152130126953,-53.04928207397461,150.0,0.020799310877919197,-0.09014438837766647,0.2669183909893036,0.0032659058924764395,-0.10542397946119308,0.3580852746963501
1,4,0.06,0.3786628246307373,-0.07106611132621765,-0.42530471086502075,0.2378654181957245,0.008849174715578556,-0.08647648245096207,0.2676610052585602,-0.1502336710691452,0.04936985671520233,0.16813716292381287,-0.09374488890171051,0.2888733744621277,17.456390380859375,-89.83938598632812,150.0,8.04952621459961,86.98224639892578,-150.0,0.030322153121232986,-0.10008225589990616,0.23615555465221405,0.016275983303785324,-0.10292547941207886,0.35523080825805664
1,5,0.075,0.4338172972202301,-0.04946700856089592,-0.5783066153526306,0.2750771939754486,0.02341216243803501,-0.17541252076625824,0.306647390127182,-0.1349661648273468,-0.05878080427646637,0.19444063305854797,-0.08345092087984085,0.22600820660591125,23.222822189331055,73.80918884277344,-150.0,-3.1600189208984375,-60.33561325073242,150.0,0.037430472671985626,-0.10652725398540497,0.22177931666374207,0.0306511539965868,-0.10634231567382812,0.3926381468772888
1,6,0.09,0.4721803069114685,-0.04635632038116455,-0.7150994539260864,0.29302629828453064,0.04297042265534401,-0.2615470588207245,0.33376461267471313,-0.13276734948158264,-0.1554740071296692,0.20712810754776,-0.06962600350379944,0.16512328386306763,44.889060974121094,25.555307388305664,-150.0,2.9936885833740234,58.92151641845703,-150.0,0.030108116567134857,-0.10382330417633057,0.24234849214553833,0.04575774073600769,-0.08437428623437881,0.3836135268211365
1,7,0.105,0.5028709173202515,-0.08338668197393417,-0.8271349668502808,0.2917546331882477,0.07838215678930283,-0.33145391941070557,0.355458527803421,-0.1589425653219223,-0.23466722667217255,0.20622920989990234,-0.04459492489695549,0.11570905148983002,46.80816650390625,-23.308982849121094,-150.0,1.3386726379394531,-86.65390014648438,150.0,0.026629695668816566,-0.10277170687913895,0.25951066613197327,0.051651306450366974,-0.08919926732778549,0.41709715127944946
1,8,0.12,0.5305561423301697,-0.14795264601707458,-0.9066169857978821,0.26948311924934387,0.13251902163028717,-0.37954267859458923,0.3750280439853668,-0.20458155870437622,-0.2908497452735901,0.19048640131950378,-0.006327837705612183,0.0817170962691307,45.067440032958984,-13.734145164489746,-150.0,16.502180099487305,92.1054458618164,-150.0,0.028176238760352135,-0.09803415089845657,0.2720215618610382,0.05292212963104248,-0.07262969017028809,0.40000924468040466
1,9,0.135,0.5548617839813232,-0.23063135147094727,-0.950947105884552,0.2442721128463745,0.19373340904712677,-0.40496373176574707,0.39220869541168213,-0.2630236744880676,-0.32218486070632935,0.1726657897233963,0.03694205358624458,0.06374802440404892,40.64711380004883,-49.24748992919922,-150.0,10.262296676635742,-74.5162124633789,150.0,0.03575790673494339,-0.09500599652528763,0.28539755940437317,0.0481853224337101,-0.0644015446305275,0.4181027114391327
1,10,0.15,0.5549874305725098,-0.30844712257385254,-0.962613582611084,0.24366311728954315,0.24740713834762573,-0.41396763920783997,0.39229750633239746,-0.31802839040756226,-0.33043134212493896,0.17223532497882843,0.07488179206848145,0.057383548468351364,24.98189926147461,-42.800289154052734,-150.0,31.642213821411133,68.69031524658203,-150.0,0.047060515731573105,-0.09149190783500671,0.29751649498939514,0.04535002261400223,-0.03760833665728569,0.3895956873893738
1,11,0.16499999999999998,0.5164138674736023,-0.3663618266582489,-0.943913996219635,0.2665729820728302,0.2902645170688629,-0.4120524525642395,0.36503148078918457,-0.3589658737182617,-0.3172134757041931,0.1884293556213379,0.10517588257789612,0.05873729661107063,26.015636444091797,-67.20315551757812,-150.0,11.470996856689453,-72.87106323242188,150.0,0.04525718465447426,-0.08925235271453857,0.29972678422927856,0.05858154594898224,-0.03486153483390808,0.40559354424476624
1,12,0.18,0.44410592317581177,-0.4063447415828705,-0.9071046710014343,0.29283010959625244,0.3247906267642975,-0.40206778049468994,0.3139199912548065,-0.3872281312942505,-0.29119446873664856,0.20698942244052887,0.12958094477653503,0.06579506397247314,42.29155349731445,-60.768463134765625,-150.0,-4.888608932495117,92.43406677246094,-150.0,0.04177688807249069,-0.08532877266407013,0.2961973249912262,0.0728638619184494,-0.009093200787901878,0.37120065093040466
1,13,0.195,0.3481300473213196,-0.42858853936195374,-0.8681795001029968,0.3246318995952606,0.35427942872047424,-0.3865852355957031,0.24607865512371063,-0.40295135974884033,-0.2636798918247223,0.22946877777576447,0.15042532980442047,0.07673901319503784,25.84221649169922,-77.53553009033203,-146.88670349121094,3.333524703979492,-81.33226013183594,150.0,0.036890801042318344,-0.08704070001840591,0.291225790977478,0.08518200367689133,-0.0012710023438557982,0.37665024399757385
1,14,0.21,0.2466070055961609,-0.429202675819397,-0.8331427574157715,0.3643781840801239,0.3760201632976532,-0.3761477470397949,0.17431622743606567,-0.4033854603767395,-0.2389138638973236,0.2575637698173523,0.16579297184944153,0.0841168463230133,24.75143814086914,-60.57082748413086,-149.0883026123047,6.459806442260742,83.94840240478516,-150.0,0.034113120287656784,-0.0816522017121315,0.28596195578575134,0.09552144259214401,0.02903054654598236,0.33565524220466614
1,15,0.22499999999999998,0.15788821876049042,-0.40920254588127136,-0.8013679385185242,0.4026828110218048,0.38848480582237244,-0.37638089060783386,0.11160461604595184,-0.38924819231033325,-0.21645361185073853,0.28463971614837646,0.17460370063781738,0.08395205438137054,12.372340202331543,-81.90132904052734,-125.4486083984375,7.750959396362305,-88.2824935913086,150.0,0.039121728390455246,-0.08274731785058975,0.2889598608016968,0.09713904559612274,0.03807026147842407,0.33716145157814026
1,16,0.24,0.08912954479455948,-0.37892666459083557,-0.7683250308036804,0.4329717457294464,0.3985140025615692,-0.38661977648735046,0.06300196796655655,-0.3678474426269531,-0.19309690594673157,0.3060497045516968,0.1816929280757904,0.07671461999416351,-10.443072319030762,-49.78810501098633,-150.0,32.362403869628906,79.20425415039062,-150.0,0.04454515501856804,-0.08370409160852432,0.2910737097263336,0.10392752289772034,0.06313707679510117,0.29213374853134155
1,17,0.255,0.024783339351415634,-0.3540883958339691,-0.7278653383255005,0.44580498337745667,0.4101187586784363,-0.4053591191768646,0.017518311738967896,-0.35029029846191406,-0.16449762880802155,0.31512099504470825,0.1898958384990692,0.06346853822469711,-6.897322654724121,-59.37211227416992,-125.89847564697266,6.351865768432617,-77.82978057861328,150.0,0.041795093566179276,-0.08649550378322601,0.28818365931510925,0.1215583086013794,0.06704657524824142,0.2920238971710205
1,18,0.27,-0.04516599327325821,-0.33638080954551697,-0.6845089197158813,0.4205607771873474,0.41747424006462097,-0.42974919080734253,-0.03192596137523651,-0.33777356147766113,-0.1338508129119873,0.29727691411972046,0.19509512186050415,0.046228229999542236,-3.757753372192383,-43.36484146118164,-122.3906478881836,-1.4216690063476562,81.76048278808594,-150.0,0.045705653727054596,-0.08765523880720139,0.2885074317455292,0.13140015304088593,0.09510759264230728,0.24165083467960358
1,19,0.285,-0.11886284500360489,-0.3172212839126587,-0.6440444588661194,0.34394291043281555,0.4184608459472656,-0.4574875831604004,-0.08401919901371002,-0.32423049211502075,-0.10524814575910568,0.24311894178390503,0.1957925260066986,0.02662111073732376,-25.180814743041992,-52.919715881347656,-115.31103515625,4.670598030090332,-95.21724700927734,150.0,0.049385182559490204,-0.09071047604084015,0.2902630865573883,0.13934342563152313,0.10307721793651581,0.23923657834529877
1,20,0.3,-0.21592266857624054,-0.2967311441898346,-0.6007195711135864,0.23960720002651215,0.4170202314853668,-0.4842301905155182,-0.15262675285339355,-0.3097468614578247,-0.07462362945079803,0.16936835646629333,0.19477419555187225,0.007717879489064217,-31.919513702392578,-34.58412170410156,-125.13294982910156,-1.8195948600769043,70.33776092529297,-150.0,0.055956028401851654,-0.09522584825754166,0.2923426926136017,0.142707958817482,0.12571081519126892,0.19146931171417236
1,21,0.315,-0.34132954478263855,-0.27783048152923584,-0.5511881709098816,0.13432174921035767,0.41268935799598694,-0.5075383186340332,-0.24127164483070374,-0.2963867783546448,-0.03961193189024925,0.09494645893573761,0.191712886095047,-0.00875764712691307,-44.4601936340332,-36.29365539550781,-97.8900375366211,-10.3195219039917,-84.91194915771484,150.0,0.06776011735200882,-0.10512583702802658,0.2991829514503479,0.1358681321144104,0.12349751591682434,0.19106698036193848
1,22,0.32999999999999996,-0.4782813787460327,-0.2638040781021118,-0.49629390239715576,0.025749074295163155,0.4031146764755249,-0.5323558449745178,-0.33807721734046936,-0.2864720821380615,-0.0008094608783721924,0.01820094883441925,0.18494495749473572,-0.02630014345049858,-69.6612777709961,-15.549846649169922,-122.11068725585938,4.921309471130371,82.06138610839844,-150.0,0.07907690852880478,-0.11012008041143417,0.3028411567211151,0.1270485371351242,0.1460113674402237,0.1417640745639801
1,23,0.345,-0.6141223311424255,-0.25950559973716736,-0.43503883481025696,-0.08537133038043976,0.3853946030139923,-0.5614163279533386,-0.4340975284576416,-0.2834336757659912,0.04248921573162079,-0.06034544110298157,0.17241936922073364,-0.04684180021286011,-76.40240478515625,-31.392486572265625,-79.17454528808594,-8.507755279541016,-106.5785903930664,150.0,0.0821116715669632,-0.1052258238196373,0.29581108689308167,0.12109553068876266,0.10024484246969223,0.2595735788345337
1,24,0.36,-0.7357361316680908,-0.2584485113620758,-0.37325119972229004,-0.17845840752124786,0.35041946172714233,-0.5896093845367432,-0.5200612545013428,-0.2826864719390869,0.08616428822278976,-0.12614482641220093,0.14769691228866577,-0.0667702779173851,-67.77257537841797,-45.54817199707031,-39.628013610839844,-27.38057518005371,150.0,-150.0,0.08256026357412338,-0.10181549936532974,0.29136601090431213,0.10948590189218521,0.09418085962533951,0.291535347700119
1,25,0.375,-0.8192082643508911,-0.2516269385814667,-0.32053089141845703,-0.22932134568691254,0.29122868180274963,-0.6140322089195251,-0.5790642499923706,-0.27786457538604736,0.12343007326126099,-0.1620977222919464,0.10585740208625793,-0.08403374999761581,-84.70719909667969,-38.30747604370117,-40.913421630859375,-9.169242858886719,-71.61482238769531,142.3343963623047,0.07757765799760818,-0.1045495793223381,0.28765869140625,0.09987945109605789,0.08155763149261475,0.3497970700263977
1,26,0.39,-0.8402999639511108,-0.23739896714687347,-0.28312569856643677,-0.23993563652038574,0.22065016627311707,-0.6368268728256226,-0.5939731001853943,-0.2678074240684509,0.14987024664878845,-0.16960051655769348,0.05596838891506195,-0.1001463532447815,-70.86243438720703,-26.153873443603516,-35.015254974365234,-20.765378952026367,75.0518569946289,-150.0,0.07251680642366409,-0.10883928835391998,0.28751978278160095,0.08649975061416626,0.08730870485305786,0.35851189494132996
1,27,0.40499999999999997,-0.7926909327507019,-0.21711398661136627,-0.26515719294548035,-0.2440272569656372,0.15529033541679382,-0.6594319939613342,-0.560320258140564,-0.2534688115119934,0.16257143020629883,-0.17249271273612976,0.009768255054950714,-0.11612498760223389,-70.91040802001953,-23.80152130126953,-35.56902313232422,-10.630359649658203,-84.430908203125,135.2803497314453,0.06609394401311874,-0.12152567505836487,0.29321029782295227,0.0696755200624466,0.07115831971168518,0.39945727586746216
1,28,0.42,-0.679618775844574,-0.19913089275360107,-0.2616044580936432,-0.23691491782665253,0.10505205392837524,-0.6883656978607178,-0.48039424419403076,-0.24075733125209808,0.16508272290229797,-0.16746529936790466,-0.025743089616298676,-0.13657698035240173,-57.18388366699219,3.1909141540527344,-65.42070770263672,-2.215595245361328,67.10889434814453,-150.0,0.057655464857816696,-0.1334301233291626,0.29894906282424927,0.05228842422366142,0.07135561108589172,0.3893759250640869
1,29,0.435,-0.5163218379020691,-0.19291602075099945,-0.2619660198688507,-0.19046255946159363,0.07299727201461792,-0.7267481088638306,-0.36496642231941223,-0.23636429011821747,0.1648271381855011,-0.13463005423545837,-0.048401277512311935,-0.1637079268693924,-40.50709533691406,-1.7674579620361328,-50.936092376708984,0.49361228942871094,-82.38954162597656,150.0,0.0495927594602108,-0.15117520093917847,0.3079836070537567,0.032810866832733154,0.04960881173610687,0.4230034351348877
1,30,0.44999999999999996,-0.3312542736530304,-0.1964043825864792,-0.25955894589424133,-0.10873764753341675,0.05688491836190224,-0.7674718499183655,-0.23414987325668335,-0.2388300746679306,0.1665286123752594,-0.07686211913824081,-0.05979042500257492,-0.19249382615089417,-25.520278930664062,19.03664207458496,-80.41513061523438,18.09902000427246,74.0429458618164,-150.0,0.04219389334321022,-0.16516731679439545,0.3161752223968506,0.014321544207632542,0.04720086604356766,0.4111689031124115
1,31,0.46499999999999997,-0.1471792459487915,-0.20570136606693268,-0.2499244213104248,0.006828027777373791,0.061494939029216766,-0.8061044216156006,-0.10403488576412201,-0.24540171027183533,0.1733388453722,0.004826448857784271,-0.056531794369220734,-0.21980157494544983,-9.238544464111328,4.661436080932617,-59.40996551513672,20.7059383392334,-79.43048095703125,147.37705993652344,0.032676372677087784,-0.18067900836467743,0.3240697383880615,0.0021084481850266457,0.03057294338941574,0.4379118084907532
1,32,0.48,0.025785796344280243,-0.22597654163837433,-0.23167194426059723,0.14516907930374146,0.09181691706180573,-0.8416116833686829,0.018226906657218933,-0.2597333788871765,0.1862407624721527,0.10261398553848267,-0.03509845212101936,-0.2449001967906952,11.665460586547852,14.503459930419922,-73.06148529052734,27.55410385131836,70.83434295654297,-150.0,0.02678357996046543,-0.1954786479473114,0.33398428559303284,-0.007243045140057802,0.030282430350780487,0.4179556965827942
1,33,0.495,0.19219312071800232,-0.25963300466537476,-0.20384351909160614,0.2824239134788513,0.14443182945251465,-0.8737350702285767,0.13585332036018372,-0.2835237383842468,0.2059115171432495,0.19963371753692627,0.0020928289741277695,-0.26760685443878174,19.113866806030273,6.720193862915039,-62.803955078125,32.74044418334961,-59.042762756347656,148.51324462890625,0.019810285419225693,-0.21376967430114746,0.34470272064208984,-0.007440492976456881,0.014229663647711277,0.43544766306877136
1,34,0.51,0.356059730052948,-0.2985983192920685,-0.16507185995578766,0.41011500358581543,0.20558875799179077,-0.9034761190414429,0.2516838014125824,-0.3110666871070862,0.23331758379936218,0.289893239736557,0.04532212018966675,-0.28862959146499634,37.3360481262207,17.197458267211914,-73.58268737792969,33.60114669799805,87.34158325195312,-150.0,0.007492484990507364,-0.22672609984874725,0.3501702845096588,0.00745399808511138,0.021781058982014656,0.40325865149497986
1,35,0.525,0.4980678856372833,-0.332750529050827,-0.1196465864777565,0.5158174633979797,0.26361238956451416,-0.9316883087158203,0.35206347703933716,-0.335207462310791,0.2654268145561218,0.36460989713668823,0.08633659780025482,-0.30857157707214355,60.66133117675781,-4.272611618041992,-31.439102172851562,13.202066421508789,-61.65538024902344,150.0,0.0104100676253438,-0.24659697711467743,0.3646793067455292,-2.749306440819055e-05,-0.005569934379309416,0.4894743859767914
1,36,0.54,0.6015772819519043,-0.3616234362125397,-0.06738762557506561,0.5839796662330627,0.30494871735572815,-0.9558591246604919,0.4252299666404724,-0.3556165099143982,0.3023664951324463,0.4127909243106842,0.11555550992488861,-0.3256569504737854,35.1788330078125,26.33768081665039,-83.39962768554688,72.73551940917969,128.88491821289062,-150.0,0.018102774396538734,-0.2669137716293335,0.38054609298706055,0.0013273603981360793,-0.0004893355653621256,0.5263196229934692
1,37,0.5549999999999999,0.6643336415290833,-0.38684722781181335,-0.000887966831214726,0.6200774312019348,0.30612385272979736,-0.9749645590782166,0.46958982944488525,-0.37344616651535034,0.34937232732772827,0.43830692768096924,0.11638617515563965,-0.33916175365448,47.59213638305664,8.313671112060547,-41.78150939941406,31.436864852905273,-52.36293029785156,-42.151702880859375,0.017535483464598656,-0.28566479682922363,0.3893006145954132,0.027840815484523773,0.036699142307043076,0.42296895384788513
1,38,0.57,0.6814206838607788,-0.415340781211853,0.07289764285087585,0.6171742677688599,0.30471450090408325,-0.9889678359031677,0.4816679358482361,-0.39358705282211304,0.4015282988548279,0.4362547993659973,0.11538996547460556,-0.3490601181983948,60.721092224121094,10.632646560668945,-23.495361328125,5.598003387451172,-40.1583251953125,115.51118469238281,0.015472781844437122,-0.3068509101867676,0.4027569591999054,0.05798188969492912,0.03629258647561073,0.41001656651496887
1,39,0.585,0.6570495963096619,-0.4524209499359131,0.14527422189712524,0.5728249549865723,0.3317454755306244,-0.9984161257743835,0.4644410312175751,-0.41979748010635376,0.4526882767677307,0.40490612387657166,0.1344970464706421,-0.35573872923851013,56.758270263671875,17.0506534576416,-34.410552978515625,2.709148406982422,64.70063781738281,-150.0,0.010929269716143608,-0.31694495677948,0.4115096628665924,0.07767138630151749,0.0339723601937294,0.4086802303791046
1,40,0.6,0.6226991415023804,-0.48550525307655334,0.21233724057674408,0.5300266742706299,0.3460097014904022,-1.0,0.4401600956916809,-0.44318339228630066,0.5000923275947571,0.37465378642082214,0.14457982778549194,-0.3597833514213562,59.79258346557617,-24.48611831665039,20.4149112701416,27.082359313964844,39.344459533691406,-150.0,0.01826016791164875,-0.32963067293167114,0.4329621195793152,0.07877325266599655,0.026053350418806076,0.41789621114730835
1,41,0.615,0.6022628545761108,-0.5090826153755188,0.27371105551719666,0.5111854076385498,0.3234712481498718,-1.0,0.42571455240249634,-0.4598492383956909,0.5434749126434326,0.3613356947898865,0.12864834070205688,-0.3618312478065491,29.070167541503906,5.650615692138672,-60.242759704589844,33.79543685913086,44.62120056152344,-150.0,0.04002167284488678,-0.32934847474098206,0.4088424742221832,0.0770660787820816,0.02324843220412731,0.41683217883110046
1,42,0.63,0.5836785435676575,-0.5212913155555725,0.3202786147594452,0.46828117966651917,0.25608915090560913,-1.0,0.4125780761241913,-0.46847906708717346,0.5763915777206421,0.3310084939002991,0.08101874589920044,-0.362479031085968,11.540130615234375,-56.194454193115234,150.0,32.85878372192383,12.507634162902832,-150.0,0.06426402181386948,-0.35739776492118835,0.48673221468925476,0.07042546570301056,0.027739593759179115,0.4085121750831604
1,43,0.645,0.5563730597496033,-0.528785765171051,0.3543882369995117,0.36293745040893555,0.15039241313934326,-1.0,0.39327698945999146,-0.47377657890319824,0.6005022525787354,0.25654539465904236,0.00630611926317215,-0.36130082607269287,9.292255401611328,72.19401550292969,-150.0,34.138343811035156,-7.56298828125,-150.0,0.09195983409881592,-0.3623723089694977,0.5173739194869995,0.06146128475666046,0.04152047261595726,0.39140844345092773
1,44,0.6599999999999999,0.519781231880188,-0.5383760929107666,0.3887469470500946,0.22388289868831635,0.03534873202443123,-0.9988857507705688,0.367411732673645,-0.48055559396743774,0.6247889995574951,0.1582535058259964,-0.07501345872879028,-0.3560706377029419,-7.358577728271484,-78.07412719726562,150.0,23.26803207397461,-54.29264450073242,-150.0,0.11270025372505188,-0.3814261853694916,0.585050106048584,0.054320234805345535,0.052017007023096085,0.37339311838150024
1,45,0.6749999999999999,0.4757627844810486,-0.5446222424507141,0.4101141393184662,0.06867868453264236,-0.0688440203666687,-0.980089545249939,0.3362969160079956,-0.48497074842453003,0.639892578125,0.04854610562324524,-0.1486629694700241,-0.34278440475463867,9.939104080200195,60.749671936035156,-150.0,5.373660564422607,-54.03412628173828,-150.0,0.1219150647521019,-0.38081079721450806,0.6096236109733582,0.05888057500123978,0.0649225115776062,0.36071595549583435
1,46,0.69,0.4339648485183716,-0.5481447577476501,0.4123085141181946,-0.10562247782945633,-0.15239493548870087,-0.9463911056518555,0.30675169825553894,-0.4874606728553772,0.64144366979599,-0.07466013729572296,-0.20772162079811096,-0.3189643621444702,12.698387145996094,-81.84719848632812,150.0,-29.08505630493164,-83.65760803222656,-150.0,0.13076592981815338,-0.3975359797477722,0.6728350520133972,0.06421667337417603,0.0726417824625969,0.3504812717437744
1,47,0.705,0.39394429326057434,-0.548633337020874,0.3928452432155609,-0.28009864687919617,-0.21178901195526123,-0.8980291485786438,0.27846282720565796,-0.4878059923648834,0.6276859045028687,-0.19799008965492249,-0.24970480799674988,-0.2847793698310852,8.82198715209961,57.63714599609375,-150.0,-39.906436920166016,-74.23705291748047,-150.0,0.14654859900474548,-0.4032149016857147,0.6989222168922424,0.06653081625699997,0.08369907736778259,0.33751657605171204
1,48,0.72,0.34443238377571106,-0.5480688810348511,0.34773731231689453,-0.442889541387558,-0.24894246459007263,-0.8387458920478821,0.24346493184566498,-0.48740699887275696,0.5958009958267212,-0.3130601942539215,-0.2759670317173004,-0.24287445843219757,-15.555593490600586,-58.1019401550293,150.0,-46.14322280883789,-103.0244140625,-125.96117401123047,0.1567978709936142,-0.42308199405670166,0.7607322335243225,0.06799545884132385,0.09068438410758972,0.32787713408470154
1,49,0.735,0.2830888628959656,-0.5467322468757629,0.2838325500488281,-0.5937327742576599,-0.2633580267429352,-0.7777164578437805,0.2001037448644638,-0.48646220564842224,0.5506293773651123,-0.4196849763393402,-0.2861568033695221,-0.19973529875278473,0.6660652160644531,64.01469421386719,-150.0,-61.62254333496094,-84.3534927368164,-141.070556640625,0.16536985337734222,-0.4265924394130707,0.7831278443336487,0.0708412304520607,0.0962008386850357,0.3194119334220886
1,50,0.75,0.21410253643989563,-0.5400281548500061,0.2090468555688858,-0.722703754901886,-0.25539863109588623,-0.7213683724403381,0.15134017169475555,-0.4817233681678772,0.49776649475097656,-0.5108492374420166,-0.2805306315422058,-0.15990522503852844,-14.432092666625977,-61.825252532958984,113.87488555908203,-77.4460220336914,-92.66002655029297,-115.86359405517578,0.1733866035938263,-0.4374625086784363,0.813035249710083,0.06937461346387863,0.09842289984226227,0.3112768828868866
1,51,0.765,0.14501073956489563,-0.5182066559791565,0.12628920376300812,-0.8228245973587036,-0.22897963225841522,-0.6713677048683167,0.10250205546617508,-0.4662986695766449,0.439268559217453,-0.581620454788208,-0.2618561387062073,-0.1245618462562561,-13.115171432495117,51.68415832519531,-150.0,-74.4273910522461,-75.76028442382812,-114.39300537109375,0.1755984127521515,-0.43568211793899536,0.7854188084602356,0.06798160821199417,0.10147996246814728,0.30474555492401123
1,52,0.78,0.09541121870279312,-0.47287315130233765,0.03147975355386734,-0.8957318663597107,-0.18954889476299286,-0.6342340111732483,0.06744222342967987,-0.4342542886734009,0.3722517192363739,-0.6331555843353271,-0.23398420214653015,-0.09831357002258301,-15.096007347106934,-49.39752960205078,150.0,-83.81831359863281,-81.71197509765625,-94.98005676269531,0.1728929728269577,-0.44496095180511475,0.7949774861335754,0.06384123116731644,0.09992631524801254,0.30055850744247437
1,53,0.7949999999999999,0.0848245620727539,-0.4097999334335327,-0.0745745450258255,-0.9229800701141357,-0.1402609944343567,-0.6105978488922119,0.05995895341038704,-0.3896704614162445,0.29728636145591736,-0.6524162292480469,-0.199144646525383,-0.08160614222288132,-1.7684259414672852,65.92184448242188,-150.0,-81.66592407226562,-53.712528228759766,-112.01643371582031,0.17131680250167847,-0.43708887696266174,0.7653809189796448,0.05673681199550629,0.09977856278419495,0.29436710476875305
1,54,0.8099999999999999,0.10556342452764511,-0.3402290344238281,-0.1866960972547531,-0.8881964683532715,-0.08867982029914856,-0.5956493616104126,0.0746183916926384,-0.34049370884895325,0.21803231537342072,-0.6278291344642639,-0.16268406808376312,-0.07103969156742096,-14.4427490234375,-42.159996032714844,150.0,-71.078125,-59.42323303222656,-82.68062591552734,0.16586220264434814,-0.43546879291534424,0.7697803974151611,0.04695112630724907,0.09827200323343277,0.2897660732269287
1,55,0.825,0.1396452933549881,-0.272080659866333,-0.3020353615283966,-0.8126549124717712,-0.0428309291601181,-0.5877443552017212,0.09870944917201996,-0.29232245683670044,0.13650380074977875,-0.5744319558143616,-0.1302753984928131,-0.06545193493366241,10.94981861114502,63.18852233886719,-150.0,-64.531982421875,-42.63902282714844,-106.16796875,0.1605040282011032,-0.41444310545921326,0.7323843836784363,0.037070997059345245,0.09952036291360855,0.2849299907684326
1,56,0.84,0.18870264291763306,-0.20385979115962982,-0.41256964206695557,-0.7124346494674683,-0.002140105003491044,-0.5820959210395813,0.1333860456943512,-0.24409997463226318,0.05837172269821167,-0.5035904049873352,-0.10151275247335434,-0.061459336429834366,-2.3309335708618164,-49.04487609863281,150.0,-52.42973327636719,-46.764225006103516,-82.06633758544922,0.15829479694366455,-0.4054524302482605,0.7296659350395203,0.023035820573568344,0.09558138996362686,0.2806816101074219
1,57,0.855,0.2647235691547394,-0.13195683062076569,-0.5113484263420105,-0.5857948660850525,0.03289822116494179,-0.5745890736579895,0.18712207674980164,-0.19327478110790253,-0.011450879275798798,-0.41407403349876404,-0.07674562186002731,-0.05615301430225372,14.955204963684082,71.93919372558594,-150.0,-36.40412902832031,-22.1673583984375,-103.57383728027344,0.15252585709095,-0.37161120772361755,0.6812361478805542,0.01611161045730114,0.09255997836589813,0.2808402478694916
1,58,0.87,0.3626055121421814,-0.0613822303712368,-0.5947726964950562,-0.4319154918193817,0.06333456188440323,-0.5604473352432251,0.25631076097488403,-0.1433885395526886,-0.07041998207569122,-0.30530309677124023,-0.05523144453763962,-0.04615684598684311,15.904024124145508,-65.4628677368164,150.0,-33.370338439941406,-25.86379051208496,-95.20840454101562,0.14511173963546753,-0.3438640236854553,0.6657843589782715,0.014807518571615219,0.08468176424503326,0.28669992089271545
1,59,0.885,0.4594777524471283,-0.0009094271226786077,-0.666544497013092,-0.26393985748291016,0.093743234872818,-0.5306999087333679,0.3247857093811035,-0.10064283758401871,-0.12115252763032913,-0.18656809628009796,-0.03373681381344795,-0.025129660964012146,37.812232971191406,48.803382873535156,-150.0,-26.115262985229492,-6.916633605957031,-127.04039764404297,0.14645999670028687,-0.3042241632938385,0.6093448996543884,0.011202908121049404,0.08508416265249252,0.2890273332595825
1,60,0.8999999999999999,0.542153000831604,0.043461814522743225,-0.7301355004310608,-0.11412903666496277,0.11862841248512268,-0.4856579899787903,0.38322538137435913,-0.06927865743637085,-0.166102334856987,-0.08067306876182556,-0.016146525740623474,0.006708631291985512,15.5523099899292,-64.60163879394531,150.0,-3.720703601837158,-28.542980194091797,-79.84562683105469,0.14792674779891968,-0.27748796343803406,0.5883302688598633,0.012577411718666553,0.07970179617404938,0.296088308095932
1,61,0.9149999999999999,0.6103415489196777,0.07584700733423233,-0.7868974804878235,0.006377867888659239,0.12672577798366547,-0.4333363473415375,0.4314250349998474,-0.04638691619038582,-0.20622499287128448,0.004508249461650848,-0.010422833263874054,0.04369260370731354,40.266170501708984,48.771690368652344,-150.0,-9.557294845581055,-0.21693038940429688,-115.5814437866211,0.1562533974647522,-0.23436421155929565,0.524392306804657,0.016999730840325356,0.07586529850959778,0.3032199442386627
1,62,0.9299999999999999,0.659916341304779,0.10075946897268295,-0.8383848667144775,0.1089465469121933,0.11794599145650864,-0.37259435653686523,0.46646741032600403,-0.028777338564395905,-0.24261930584907532,0.07700978219509125,-0.016628894954919815,0.08662860095500946,16.409482955932617,-77.74616241455078,150.0,1.711559772491455,-14.177806854248047,-77.97535705566406,0.17826397716999054,-0.21465013921260834,0.5042864084243774,0.012879853136837482,0.06762069463729858,0.30655035376548767
1,63,0.945,0.6737483143806458,0.11552441865205765,-0.8804212808609009,0.18545334041118622,0.10470853000879288,-0.30274832248687744,0.47624465823173523,-0.018340611830353737,-0.2723330855369568,0.1310892552137375,-0.02598591335117817,0.13599982857704163,5.651399612426758,62.42357635498047,-150.0,21.589757919311523,0.6483860015869141,-71.38098907470703,0.19581001996994019,-0.17740599811077118,0.4403058588504791,0.01539093628525734,0.0601339153945446,0.3139742314815521
1,64,0.96,0.6400243043899536,0.12322872877120972,-0.9116085767745972,0.2263447642326355,0.08911381661891937,-0.22708922624588013,0.45240655541419983,-0.012894755229353905,-0.2943781018257141,0.15999369323253632,-0.037009164690971375,0.18948009610176086,9.657831192016602,-82.73088073730469,150.0,10.191665649414062,-9.479660034179688,-59.65143585205078,0.21671871840953827,-0.16444893181324005,0.42199569940567017,0.011971193365752697,0.0506453774869442,0.32106107473373413
1,65,0.975,0.5636289119720459,0.13212628662586212,-0.9347465634346008,0.24246448278427124,0.061602141708135605,-0.15034198760986328,0.3984058201313019,-0.006605448201298714,-0.3107333183288574,0.17138805985450745,-0.05645601823925972,0.24372951686382294,-6.454294204711914,72.57440185546875,-150.0,26.799041748046875,-0.319000244140625,-53.505680084228516,0.22626887261867523,-0.13273510336875916,0.3568671941757202,0.01877570152282715,0.03888661786913872,0.33501186966896057
1,66,0.99,0.44942042231559753,0.14812631905078888,-0.9523751735687256,0.23910504579544067,0.025036565959453583,-0.08050272613763809,0.3176766037940979,0.00470431474968791,-0.32319432497024536,0.16901341080665588,-0.08230269700288773,0.29309597611427307,1.6974382400512695,-83.21617889404297,150.0,5.886404991149902,-6.576927185058594,-50.68016815185547,0.23541998863220215,-0.12530399858951569,0.3371731638908386,0.021273581311106682,0.022179530933499336,0.34920236468315125
1,67,1.005,0.30570507049560547,0.17215098440647125,-0.9664175510406494,0.22010980546474457,-0.01659695990383625,-0.022875232622027397,0.21609018743038177,0.02168634533882141,-0.33312028646469116,0.15558646619319916,-0.11173170059919357,0.33383044600486755,-11.561751365661621,83.88516235351562,-150.0,13.616138458251953,8.064010620117188,-57.068702697753906,0.23625726997852325,-0.11460766196250916,0.31778284907341003,0.025717930868268013,0.013332102447748184,0.362111896276474
1,68,1.02,0.15856099128723145,0.16798998415470123,-0.9762182831764221,0.1862340271472931,-0.05913396179676056,0.020845402032136917,0.1120801717042923,0.01874510943889618,-0.34004801511764526,0.13164108991622925,-0.14179933071136475,0.3647347390651703,-5.722753524780273,36.84237289428711,-150.0,2.580230712890625,-28.892744064331055,-15.465700149536133,0.22647970914840698,-0.10496041178703308,0.30774393677711487,0.03399641811847687,0.01019336562603712,0.3684801161289215
1,69,1.035,0.014554225839674473,0.11703863739967346,-0.9738585948944092,0.1445908397436142,-0.08971069753170013,0.04620905965566635,0.010287776589393616,-0.017270270735025406,-0.33837997913360596,0.10220524668693542,-0.16341274976730347,0.3826632499694824,-14.772562026977539,-0.6129894256591797,-150.0,0.7408447265625,-29.00135612487793,-5.771735191345215,0.21436116099357605,-0.08678988367319107,0.2889849543571472,0.04218197613954544,0.0005850726156495512,0.3763941824436188
1,70,1.05,-0.12971428036689758,0.042919449508190155,-0.9569296836853027,0.11357437074184418,-0.10540793091058731,0.05443037301301956,-0.09168963134288788,-0.06966203451156616,-0.32641369104385376,0.08028099685907364,-0.1745084673166275,0.38847455382347107,-19.072397232055664,-30.278831481933594,-125.29505920410156,-6.026172637939453,-19.61334228515625,-20.291030883789062,0.20781132578849792,-0.06841065734624863,0.2687091827392578,0.04333469271659851,-0.005948866717517376,0.3786981701850891
1,71,1.065,-0.267034113407135,-0.042309243232011795,-0.9302505850791931,0.10121593624353409,-0.1124519407749176,0.05081353336572647,-0.18875530362129211,-0.12990663945674896,-0.30755531787872314,0.07154533267021179,-0.17948758602142334,0.3859179615974426,-46.077396392822266,-39.4327278137207,-122.94921112060547,9.756869316101074,-32.99146270751953,11.936692237854004,0.2073948234319687,-0.052588045597076416,0.25094953179359436,0.03812467306852341,-0.019446002319455147,0.39004847407341003
1,72,1.08,-0.4060240685939789,-0.1216377466917038,-0.8923022150993347,0.12074548751115799,-0.11774314194917679,0.04036149010062218,-0.28700152039527893,-0.1859806478023529,-0.280731201171875,0.08534996211528778,-0.18322771787643433,0.3785298466682434,-60.589115142822266,-56.043453216552734,-112.82887268066406,14.283214569091797,-5.09919548034668,-63.33170700073242,0.20055587589740753,-0.03638175129890442,0.22799687087535858,0.04228643700480461,-0.02647721767425537,0.38023802638053894
1,73,1.095,-0.5409039855003357,-0.17445681989192963,-0.8461681008338928,0.1638677567243576,-0.1241481751203537,0.0293422844260931,-0.38234251737594604,-0.2233162522315979,-0.24812091886997223,0.11583130061626434,-0.18775516748428345,0.3707408308982849,-59.24315643310547,-69.05318450927734,-73.36722564697266,-0.5645303726196289,-44.3491096496582,7.712340354919434,0.19885893166065216,-0.02583243139088154,0.2130618542432785,0.04270949959754944,-0.03506164252758026,0.39012178778648376
1,74,1.1099999999999999,-0.6541733145713806,-0.19680926203727722,-0.8000718355178833,0.1933867186307907,-0.1267007291316986,0.0161999873816967,-0.4624078869819641,-0.23911626636981964,-0.2155373990535736,0.13669702410697937,-0.1895594596862793,0.36145108938217163,-83.88619995117188,-58.930328369140625,-101.85400390625,17.703392028808594,-7.3116912841796875,-61.904945373535156,0.20143352448940277,-0.019347287714481354,0.2048795074224472,0.04055067151784897,-0.03851810470223427,0.3783450722694397
1,75,1.125,-0.7455612421035767,-0.19550465047359467,-0.7524654865264893,0.19002196192741394,-0.12518952786922455,-0.0019531813450157642,-0.527006208896637,-0.23819409310817719,-0.1818864494562149,0.13431861996650696,-0.18849125504493713,0.34861937165260315,-93.77252960205078,-58.74971008300781,-92.08341979980469,17.9716739654541,-42.33572006225586,7.879604339599609,0.1969016194343567,-0.013563609682023525,0.19379791617393494,0.04739009961485863,-0.04763099178671837,0.38877663016319275
1,76,1.14,-0.8166003227233887,-0.17368611693382263,-0.7049870491027832,0.14258325099945068,-0.12430018931627274,-0.026976004242897034,-0.5772207975387573,-0.22277146577835083,-0.14832596480846405,0.10078616440296173,-0.18786261975765228,0.33093178272247314,-83.14401245117188,-54.38545227050781,-70.48051452636719,-9.26533317565918,-2.076131820678711,-74.60301208496094,0.18982301652431488,-0.009069069288671017,0.18342536687850952,0.0554925799369812,-0.05289458483457565,0.38781803846359253
1,77,1.155,-0.8637805581092834,-0.13929185271263123,-0.6628616452217102,0.0493934266269207,-0.12685175240039825,-0.06262136995792389,-0.6105705499649048,-0.19845959544181824,-0.11854923516511917,0.034914158284664154,-0.18966621160507202,0.3057355582714081,-87.9076919555664,-48.59214401245117,-59.23345184326172,-10.025491714477539,-26.194717407226562,-37.46758270263672,0.18521945178508759,-0.00888755638152361,0.17667582631111145,0.05965366214513779,-0.05560663715004921,0.392147034406662
1,78,1.17,-0.8782097101211548,-0.10507708787918091,-0.6231067776679993,-0.06964807957410812,-0.13597269356250763,-0.11555378139019012,-0.6207699179649353,-0.17427460849285126,-0.09044818580150604,-0.049231331795454025,-0.19611342251300812,0.26831984519958496,-95.90947723388672,-32.25028991699219,-71.57188415527344,-13.959999084472656,-27.398988723754883,-46.218727111816406,0.18281808495521545,-0.011671468615531921,0.1745424121618271,0.06181975081562996,-0.059447020292282104,0.3968803584575653
1,79,1.185,-0.8571692109107971,-0.07228578627109528,-0.5823288559913635,-0.1933704912662506,-0.14830440282821655,-0.18724077939987183,-0.6058972477912903,-0.15109580755233765,-0.061623960733413696,-0.1366855502128601,-0.20483019948005676,0.21764729917049408,-91.95257568359375,-26.53403663635254,-65.85482788085938,-26.6447696685791,-26.5706787109375,-66.96273803710938,0.18305814266204834,-0.014564592391252518,0.17491596937179565,0.061403919011354446,-0.06100808084011078,0.4000474214553833
1,80,1.2,-0.8171552419662476,-0.035850685089826584,-0.5392687320709229,-0.3011559844017029,-0.1581011414527893,-0.26982977986335754,-0.5776130557060242,-0.12534135580062866,-0.031186580657958984,-0.212874636054039,-0.21175509691238403,0.1592685878276825,-94.50871276855469,-16.642942428588867,-66.02055358886719,-30.034839630126953,-28.97158432006836,-75.36933898925781,0.17506928741931915,-0.014369267039000988,0.1674940437078476,0.06913020461797714,-0.06724535673856735,0.40699759125709534
1,81,1.2149999999999999,-0.7543164491653442,0.0010246444726362824,-0.4969642460346222,-0.3950604200363159,-0.1680588275194168,-0.35153985023498535,-0.533194899559021,-0.09927572309970856,-0.0012832805514335632,-0.2792517840862274,-0.21879377961158752,0.10151113569736481,-68.34928894042969,-24.66934585571289,-18.405550003051758,-58.62969207763672,-20.52846908569336,-113.68069458007812,0.1528891921043396,-0.009724975563585758,0.15419122576713562,0.08780034631490707,-0.07377728074789047,0.4191162586212158
1,82,1.23,-0.6571415066719055,0.0310323778539896,-0.4608413279056549,-0.4970896244049072,-0.178268164396286,-0.4209611415863037,-0.46450600028038025,-0.07806450873613358,0.024250488728284836,-0.35137197375297546,-0.22601032257080078,0.05244012922048569,-39.91825485229492,-27.288726806640625,-1.6323089599609375,-80.77857971191406,-23.07390022277832,-144.08670043945312,0.15398962795734406,-0.014662426896393299,0.16112297773361206,0.0821334645152092,-0.06936120241880417,0.41350430250167847
1,83,1.2449999999999999,-0.5399779081344604,0.049224767833948135,-0.4180152118206024,-0.5998865962028503,-0.18793794512748718,-0.48011302947998047,-0.3816879093647003,-0.06520506739616394,0.054522495716810226,-0.42403486371040344,-0.2328454852104187,0.010628130286931992,-80.43946838378906,8.467570304870605,-78.68522644042969,-36.638999938964844,-49.38273620605469,-81.20701599121094,0.16129137575626373,-0.013918614014983177,0.16003435850143433,0.07439471781253815,-0.06302239000797272,0.4042314291000366
1,84,1.26,-0.4056844115257263,0.06062670797109604,-0.3573616147041321,-0.6734783053398132,-0.2002846896648407,-0.5356528162956238,-0.28676143288612366,-0.057145509868860245,0.09739599376916885,-0.47605377435684204,-0.24157288670539856,-0.028630606830120087,-55.26499938964844,-19.34320640563965,-3.5633697509765625,-64.33991241455078,-48.796791076660156,-104.21147918701172,0.15317358076572418,-0.011115171946585178,0.1584886759519577,0.07590092718601227,-0.05749334767460823,0.3993891775608063
1,85,1.275,-0.2667806148529053,0.07633569091558456,-0.2925790846347809,-0.7028102874755859,-0.21179908514022827,-0.5834634900093079,-0.1885761171579361,-0.04604148864746094,0.14318804442882538,-0.4967873692512512,-0.24971193075180054,-0.06242598593235016,-22.604358673095703,-12.498260498046875,-11.193525314331055,-73.7350082397461,-51.07536697387695,-125.32940673828125,0.14905211329460144,-0.009777963161468506,0.16078375279903412,0.07373098284006119,-0.05202299356460571,0.39261654019355774
1,86,1.29,-0.15333837270736694,0.09279730170965195,-0.23264767229557037,-0.6997227072715759,-0.2182081639766693,-0.6247727870941162,-0.1083885133266449,-0.034405458718538284,0.18555106222629547,-0.4946048855781555,-0.2542422413825989,-0.09162580221891403,-27.715072631835938,-11.342496871948242,5.232525825500488,-65.68634796142578,-50.36674118041992,-122.22867584228516,0.1456877738237381,-0.014349323697388172,0.1702299565076828,0.06741020083427429,-0.04598312824964523,0.3833785057067871
1,87,1.305,-0.055481452494859695,0.10376489907503128,-0.17217127978801727,-0.6768816709518433,-0.22088956832885742,-0.6673008799552917,-0.03921753168106079,-0.026652926579117775,0.2282993048429489,-0.4784594774246216,-0.2561376094818115,-0.121687151491642,-15.71194076538086,12.721789360046387,-25.513813018798828,-53.968902587890625,-55.501983642578125,-117.60871887207031,0.15684016048908234,-0.017408818006515503,0.17615634202957153,0.053392067551612854,-0.037087343633174896,0.3694213032722473
1,88,1.3199999999999998,0.04753847047686577,0.11557537317276001,-0.10716214030981064,-0.6306933164596558,-0.22177651524543762,-0.7132261991500854,0.033602967858314514,-0.018304597586393356,0.2742515504360199,-0.44581088423728943,-0.25676456093788147,-0.1541498601436615,-32.80653762817383,-3.3134050369262695,17.228084564208984,-41.73724365234375,-65.8115234375,-113.13687896728516,0.1591426134109497,-0.020816659554839134,0.19553014636039734,0.04403945058584213,-0.029362283647060394,0.35956913232803345
1,89,1.335,0.14391648769378662,0.1261129081249237,-0.03630781173706055,-0.5598886609077454,-0.21676842868328094,-0.7617425918579102,0.10172858089208603,-0.01085604727268219,0.324335515499115,-0.39576199650764465,-0.25322455167770386,-0.18844404816627502,0.789949893951416,10.513785362243652,-46.72562789916992,-44.78319549560547,-57.4898567199707,-139.11077880859375,0.1591820865869522,-0.015240894630551338,0.19216252863407135,0.03609544411301613,-0.021449757739901543,0.3503994643688202
1,90,1.3499999999999999,0.22616064548492432,0.1305493861436844,0.033447735011577606,-0.48044678568840027,-0.2013292908668518,-0.8067185878753662,0.15986354649066925,-0.00772008765488863,0.37364280223846436,-0.339607834815979,-0.2423112690448761,-0.2202357053756714,-9.033355712890625,-12.036904335021973,55.663516998291016,-35.65467834472656,-62.37217712402344,-140.8214111328125,0.1600295603275299,-0.02322627231478691,0.24414442479610443,0.03121906705200672,-0.014063389971852303,0.34257784485816956
1,91,1.365,0.30124640464782715,0.12619641423225403,0.10798913985490799,-0.4164292812347412,-0.18283186852931976,-0.839188814163208,0.21293854713439941,-0.010797019116580486,0.4263330101966858,-0.2943565249443054,-0.22923621535301208,-0.2431875467300415,13.384376525878906,30.452695846557617,-150.0,-37.158538818359375,-52.99812316894531,-150.0,0.16006557643413544,0.005317673087120056,0.18451045453548431,0.028214003890752792,-0.00547310896217823,0.3322867751121521
1,92,1.38,0.3702976405620575,0.12408631294965744,0.17356300354003906,-0.36137279868125916,-0.17135505378246307,-0.8573189973831177,0.26174798607826233,-0.012288563884794712,0.47268444299697876,-0.2554394006729126,-0.22112374007701874,-0.25600308179855347,13.76517391204834,-118.11634063720703,150.0,-32.760135650634766,-59.31875991821289,-138.17465209960938,0.15243886411190033,-0.026021718978881836,0.29029396176338196,0.03321771323680878,0.004338213708251715,0.3259257376194
1,93,1.395,0.4288521111011505,0.12602905929088593,0.20203158259391785,-0.3071085214614868,-0.17400601506233215,-0.8643077611923218,0.30313771963119507,-0.010915318503975868,0.49280768632888794,-0.21708223223686218,-0.22299759089946747,-0.26094305515289307,33.98141860961914,124.20558166503906,-150.0,-40.33939743041992,-57.485595703125,-150.0,0.15748931467533112,-0.029523875564336777,0.33116841316223145,0.03331702575087547,0.01794400066137314,0.3124934732913971
1,94,1.41,0.4567265510559082,0.11693012714385986,0.2095898538827896,-0.2658286392688751,-0.19292929768562317,-0.8637813925743103,0.32284098863601685,-0.017346970736980438,0.4981503188610077,-0.18790321052074432,-0.2363736778497696,-0.26057106256484985,1.3395328521728516,-70.1637954711914,150.0,-23.333045959472656,-82.30321502685547,-112.84481811523438,0.16897210478782654,-0.04531712085008621,0.4057747721672058,0.028861360624432564,0.026518311351537704,0.298446387052536
1,95,1.425,0.43243172764778137,0.10324772447347641,0.2121225893497467,-0.22971880435943604,-0.21806170046329498,-0.8564567565917969,0.3056679964065552,-0.02701849304139614,0.4999406039714813,-0.16237866878509521,-0.254138708114624,-0.2553935647010803,4.155096054077148,91.81697082519531,-150.0,-16.475313186645508,-67.06555938720703,-133.1016082763672,0.18186785280704498,-0.0357653833925724,0.43255308270454407,0.02438761107623577,0.037652432918548584,0.28418317437171936
1,96,1.44,0.37734565138816833,0.08887238800525665,0.20707663893699646,-0.20157413184642792,-0.23617443442344666,-0.8394553661346436,0.2667299509048462,-0.037179820239543915,0.49637383222579956,-0.1424843668937683,-0.2669418454170227,-0.2433759719133377,-6.065858840942383,-89.46434783935547,150.0,-18.123754501342773,-89.16517639160156,-110.5240478515625,0.190687358379364,-0.043125685304403305,0.49949249625205994,0.02108968235552311,0.04044192656874657,0.27439987659454346
1,97,1.4549999999999998,0.32417887449264526,0.07312679290771484,0.18569886684417725,-0.20416097342967987,-0.24164579808712006,-0.8131846785545349,0.22914856672286987,-0.04830972105264664,0.48126277327537537,-0.14431290328502655,-0.2708093225955963,-0.2248063087463379,-2.339273452758789,71.09363555908203,-150.0,-15.702803611755371,-62.502071380615234,-130.30563354492188,0.19701771438121796,-0.03322777897119522,0.5258612036705017,0.018687233328819275,0.04479409381747246,0.2648603916168213
1,98,1.47,0.2609783113002777,0.052599504590034485,0.14682146906852722,-0.23345103859901428,-0.2400570958852768,-0.7858056426048279,0.18447470664978027,-0.06281960755586624,0.45378196239471436,-0.16501682996749878,-0.26968634128570557,-0.20545326173305511,-8.137460708618164,-85.20301055908203,150.0,-21.700712203979492,-81.03427124023438,-106.20367431640625,0.1920265406370163,-0.04295600205659866,0.5920266509056091,0.021584153175354004,0.04329630732536316,0.262981653213501
1,99,1.4849999999999999,0.17852917313575745,0.026888106018304825,0.0908021479845047,-0.26495909690856934,-0.2429981678724289,-0.7643190026283264,0.12619484961032867,-0.08099392056465149,0.41418424248695374,-0.1872885525226593,-0.27176526188850403,-0.1902652382850647,6.463095664978027,66.5787353515625,-150.0,-30.649093627929688,-57.81182098388672,-141.29171752929688,0.1861518919467926,-0.03780548274517059,0.6190344095230103,0.024315260350704193,0.04481259360909462,0.2602507770061493
1,100,1.5,0.09120582044124603,-0.002130376175045967,0.015445167198777199,-0.2946198582649231,-0.2560899257659912,-0.7457180023193359,0.0644695982336998,-0.10150587558746338,0.3609175384044647,-0.20825451612472534,-0.28101927042007446,-0.17711696028709412,-6.923203468322754,-82.14042663574219,124.14595031738281,-34.40715026855469,-77.92591857910156,-115.23875427246094,0.17527255415916443,-0.046723101288080215,0.6635023355484009,0.028333451598882675,0.04253450036048889,0.2609916627407074
1,101,1.515,-0.0011490844190120697,-0.035177405923604965,-0.07137784361839294,-0.33183738589286804,-0.27470019459724426,-0.7268232703208923,-0.000812239944934845,-0.12486544251441956,0.2995459735393524,-0.23456203937530518,-0.29417410492897034,-0.16376107931137085,-1.4041633605957031,48.75200653076172,-150.0,-36.81144332885742,-62.86553955078125,-136.1686553955078,0.16495518386363983,-0.04348105192184448,0.657029390335083,0.0294940322637558,0.04556858912110329,0.258980393409729
1,102,1.53,-0.09383779019117355,-0.06150209531188011,-0.16164176166057587,-0.35795629024505615,-0.2923344373703003,-0.7112081050872803,-0.06633003056049347,-0.14347326755523682,0.23574218153953552,-0.2530243992805481,-0.30663901567459106,-0.15272337198257446,-14.702208518981934,-78.02339172363281,150.0,-36.38630294799805,-87.09663391113281,-108.23136901855469,0.15558134019374847,-0.062232740223407745,0.6940984129905701,0.0241079181432724,0.04550568014383316,0.2561795115470886
1,103,1.545,-0.15583454072475433,-0.076639823615551,-0.2510276138782501,-0.3396703004837036,-0.30798906087875366,-0.7020227313041687,-0.1101529523730278,-0.15417349338531494,0.17255903780460358,-0.24009880423545837,-0.31770461797714233,-0.1462305784225464,-18.199630737304688,66.93570709228516,-150.0,-19.130718231201172,-74.15882873535156,-113.58589935302734,0.14095915853977203,-0.06994574517011642,0.6933581233024597,0.017544027417898178,0.04486310854554176,0.25401219725608826
1,104,1.56,-0.17507457733154297,-0.083277627825737,-0.3413892090320587,-0.2661895155906677,-0.32466933131217957,-0.6987346410751343,-0.12375293672084808,-0.15886548161506653,0.10868620872497559,-0.1881582885980606,-0.3294951915740967,-0.143906369805336,-5.137565612792969,-59.571929931640625,100.85198974609375,-22.052200317382812,-77.72831726074219,-111.41897583007812,0.11919517070055008,-0.08693179488182068,0.6865969300270081,0.01273403875529766,0.035152848809957504,0.2563043236732483
1,105,1.575,-0.17093411087989807,-0.07452208548784256,-0.43098077178001404,-0.1524224430322647,-0.34135159850120544,-0.7023786902427673,-0.12082620710134506,-0.1526765525341034,0.04535767436027527,-0.1077410876750946,-0.34128719568252563,-0.1464822143316269,2.9840965270996094,56.471649169921875,-150.0,-6.224082946777344,-57.644569396972656,-132.08779907226562,0.10050032287836075,-0.0855572298169136,0.6093573570251465,0.0048100948333740234,0.02807261049747467,0.2549991309642792
1,106,1.5899999999999999,-0.1554965376853943,-0.04215611144900322,-0.5116055607795715,-0.016961446031928062,-0.35532134771347046,-0.7163977026939392,-0.10991403460502625,-0.12979839742183685,-0.011632636189460754,-0.01198934018611908,-0.3511618375778198,-0.15639162063598633,-3.862882614135742,-67.224365234375,150.0,8.496392250061035,-74.61373138427734,-107.32266235351562,0.06953133642673492,-0.09445149451494217,0.5676750540733337,0.0068685985170304775,0.014215430244803429,0.2641662359237671
1,107,1.605,-0.12635920941829681,0.014109063893556595,-0.5804188251495361,0.1358051896095276,-0.36765751242637634,-0.7326143980026245,-0.08931806683540344,-0.09002689272165298,-0.06027387082576752,0.09599503874778748,-0.35988175868988037,-0.16785457730293274,34.60118865966797,63.81492614746094,-150.0,0.652318000793457,-46.84609603881836,-150.0,0.04559799283742905,-0.08520727604627609,0.48044171929359436,0.007899350486695766,0.002690454013645649,0.2703763544559479
1,108,1.6199999999999999,-0.074080690741539,0.0869126245379448,-0.6370671987533569,0.29526716470718384,-0.38118502497673035,-0.7403601408004761,-0.05236455798149109,-0.03856509178876877,-0.10031621903181076,0.20871207118034363,-0.36944377422332764,-0.1733296662569046,7.495406150817871,-65.10655212402344,150.0,26.377197265625,-68.10914611816406,-131.01776123046875,0.028756584972143173,-0.08874070644378662,0.4327343702316284,0.005555282812565565,-0.008104192093014717,0.2751290500164032
1,109,1.635,-0.002948580775409937,0.15659135580062866,-0.6802223324775696,0.44153928756713867,-0.39763176441192627,-0.7391802072525024,-0.00208422914147377,0.010687898844480515,-0.13082079589366913,0.3121057450771332,-0.3810693025588989,-0.17249566316604614,22.902484893798828,79.5825424194336,-150.0,39.11499786376953,-56.16966247558594,-150.0,0.014100544154644012,-0.06689046323299408,0.33433425426483154,0.005994759500026703,-0.014964992180466652,0.27940016984939575
1,110,1.65,0.061155933886766434,0.2116980403661728,-0.7106084227561951,0.5669428110122681,-0.41094887256622314,-0.7255687117576599,0.04322858527302742,0.04964051395654678,-0.1522994041442871,0.40074828267097473,-0.3904826045036316,-0.1628742218017578,19.188913345336914,-80.37705993652344,150.0,44.30375289916992,-72.5550765991211,-135.14654541015625,0.0069285486824810505,-0.061921801418066025,0.2798338532447815,0.002878402592614293,-0.023962097242474556,0.2830219566822052
1,111,1.665,0.09491892904043198,0.2526001036167145,-0.7341232895851135,0.6636903882026672,-0.41605186462402344,-0.6969985365867615,0.06709424406290054,0.0785524845123291,-0.16892112791538239,0.4691351056098938,-0.3940896987915039,-0.14267918467521667,14.57421875,84.41069030761719,-150.0,63.85176467895508,-60.26813888549805,-140.96640014648438,0.0012041012523695827,-0.043574653565883636,0.2068648487329483,0.003070932114496827,-0.029416698962450027,0.2865805923938751
1,112,1.68,0.1145685538649559,0.24292472004890442,-0.7387349605560303,0.7225112915039062,-0.4036588966846466,-0.647871196269989,0.08098374307155609,0.07171335816383362,-0.1721809059381485,0.5107131600379944,-0.38532963395118713,-0.10795312374830246,22.91535186767578,14.061185836791992,-134.1399383544922,47.307979583740234,-91.48025512695312,-111.86802673339844,-0.008623214438557625,-0.024463390931487083,0.17777501046657562,0.013670802116394043,-0.02799198403954506,0.2809801995754242
1,113,1.6949999999999998,0.1279842108488083,0.16851745545864105,-0.7148030400276184,0.7537372708320618,-0.35787761211395264,-0.5794779062271118,0.09046671539545059,0.01911795884370804,-0.1552644819021225,0.5327855348587036,-0.3529687523841858,-0.05960875004529953,24.818212509155273,-29.580425262451172,-14.977226257324219,48.93928909301758,-80.01925659179688,-70.00342559814453,-0.009725979529321194,-0.010679559782147408,0.15414105355739594,0.015985770151019096,-0.026277953758835793,0.26966392993927
1,114,1.71,0.11901087313890457,0.06856371462345123,-0.6789931058883667,0.7831215858459473,-0.28269317746162415,-0.5017104148864746,0.08412383496761322,-0.051535170525312424,-0.12995192408561707,0.5535560846328735,-0.2998239994049072,-0.004638180136680603,7.039344787597656,-28.115371704101562,-37.40353775024414,67.72972106933594,-63.53577423095703,-48.49871826171875,-0.009902607649564743,-0.004403288010507822,0.13983863592147827,0.016377510502934456,-0.029287446290254593,0.264467716217041
1,115,1.7249999999999999,0.11026378720998764,-0.030704760923981667,-0.6413173079490662,0.8221957087516785,-0.19434195756912231,-0.41501396894454956,0.07794088125228882,-0.12170391529798508,-0.10332046449184418,0.5811759233474731,-0.2373722344636917,0.05664394423365593,11.359054565429688,-29.31673812866211,-37.47797393798828,67.35448455810547,-36.35300064086914,-51.882476806640625,-0.009825846180319786,-0.00263075134716928,0.13012520968914032,0.01642964407801628,-0.03549901396036148,0.2628052532672882
1,116,1.74,0.12514062225818634,-0.1165427565574646,-0.6084848046302795,0.858673095703125,-0.10462542623281479,-0.3198855221271515,0.08845669776201248,-0.18237921595573425,-0.0801125094294548,0.6069602966308594,-0.17395535111427307,0.12388626486063004,10.522214889526367,-42.0160026550293,-42.7539176940918,72.43355560302734,-20.86525535583496,-37.92451477050781,-0.019967637956142426,-2.9527402148232795e-05,0.11606470495462418,0.02683919668197632,-0.04991862550377846,0.27227869629859924
1,117,1.755,0.16114568710327148,-0.18209712207317352,-0.5981079936027527,0.8835420608520508,-0.024089626967906952,-0.21624638140201569,0.11390718072652817,-0.2287168651819229,-0.07277761399745941,0.6245391368865967,-0.11702795326709747,0.19714444875717163,35.57890701293945,-52.40404510498047,-11.594459533691406,52.5571174621582,16.059701919555664,-61.22742462158203,-0.017063312232494354,-0.007941721938550472,0.11086905747652054,0.027362486347556114,-0.06158339977264404,0.2767479419708252
1,118,1.77,0.2127799391746521,-0.22831647098064423,-0.6200737953186035,0.8981589078903198,0.03922051191329956,-0.11214923113584518,0.15040528774261475,-0.2613873779773712,-0.0883043184876442,0.6348711848258972,-0.07227665930986404,0.27072638273239136,1.4540843963623047,-29.621379852294922,-56.725284576416016,83.76836395263672,10.634438514709473,-5.420639991760254,-0.014170972630381584,-0.017008306458592415,0.1143660768866539,0.03031853958964348,-0.07231108844280243,0.2816118896007538
1,119,1.785,0.2690967619419098,-0.2593982517719269,-0.6612131595611572,0.8975347876548767,0.0868508517742157,-0.02212049812078476,0.19021330773830414,-0.28335779905319214,-0.11738397181034088,0.6344299912452698,-0.03860875964164734,0.3343639373779297,25.811613082885742,-38.842899322509766,-77.31856536865234,61.38751220703125,29.937152862548828,-8.60070514678955,-0.016675330698490143,-0.023955686017870903,0.11495215445756912,0.03509831801056862,-0.08538966625928879,0.2901996076107025
1,120,1.7999999999999998,0.3156968355178833,-0.28295525908470154,-0.710408627986908,0.8863930702209473,0.12809093296527863,0.05906819924712181,0.22315296530723572,-0.30000925064086914,-0.1521582454442978,0.6265543699264526,-0.009457867592573166,0.39175283908843994,32.127437591552734,-49.53173065185547,-80.34381866455078,68.39994812011719,35.520103454589844,5.080211639404297,-0.01860114373266697,-0.030864877626299858,0.11617527902126312,0.042601149529218674,-0.09422340989112854,0.29822129011154175
1,121,1.815,0.3533727526664734,-0.30834484100341797,-0.7634742259979248,0.8732300400733948,0.1654878407716751,0.1387115865945816,0.24978449940681458,-0.3179560899734497,-0.18966810405254364,0.6172499656677246,0.016976451501250267,0.4480494260787964,35.56635665893555,-45.440155029296875,-93.06158447265625,55.69934844970703,39.019596099853516,17.257797241210938,-0.02683866210281849,-0.03876204416155815,0.11225701123476028,0.06818703562021255,-0.09797818958759308,0.3135729730129242
1,122,1.8299999999999998,0.38808339834213257,-0.3362332880496979,-0.8132131099700928,0.8512189388275146,0.19085559248924255,0.21172049641609192,0.27432000637054443,-0.3376692831516266,-0.2248264104127884,0.6016912460327148,0.03490785136818886,0.4996563792228699,52.031246185302734,-51.254844665527344,-83.51713562011719,16.20321273803711,24.75644302368164,-0.26134490966796875,-0.028860939666628838,-0.05011169612407684,0.11456392705440521,0.09686385840177536,-0.08585663884878159,0.322433203458786
1,123,1.845,0.4190090596675873,-0.35820335149765015,-0.8554875254631042,0.8215941190719604,0.20301547646522522,0.27205291390419006,0.2961800694465637,-0.3531990051269531,-0.254708468914032,0.5807507038116455,0.04350317269563675,0.5423028469085693,32.899879455566406,-38.3426513671875,-131.99147033691406,26.47857666015625,-9.055122375488281,58.46318435668945,-0.029891589656472206,-0.06336771696805954,0.11683301627635956,0.12860633432865143,-0.08065510541200638,0.37744197249412537
1,124,1.8599999999999999,0.43932396173477173,-0.36453765630722046,-0.8836422562599182,0.7909940481185913,0.20321130752563477,0.33074313402175903,0.3105398416519165,-0.3576764464378357,-0.27460983395576477,0.559120774269104,0.0436415895819664,0.5837885141372681,42.84328842163086,-40.5604248046875,-126.24069213867188,7.324798583984375,31.418811798095703,-150.0,-0.030196882784366608,-0.07152733206748962,0.11380424350500107,0.16369028389453888,-0.043662261217832565,0.32367581129074097
1,125,1.875,0.42701226472854614,-0.3614181578159332,-0.8923767805099487,0.753414511680603,0.21229206025600433,0.3727302551269531,0.3018372058868408,-0.3554714024066925,-0.28078389167785645,0.5325573682785034,0.05006040260195732,0.6134674549102783,39.72850799560547,-48.30561828613281,-105.12935638427734,-2.6725997924804688,-91.53565979003906,150.0,-0.029877129942178726,-0.0737980455160141,0.10439082980155945,0.1639244556427002,-0.07562383264303207,0.39186108112335205
1,126,1.89,0.3821972608566284,-0.36622747778892517,-0.8819088935852051,0.6990630030632019,0.24120111763477325,0.3682993948459625,0.2701593339443207,-0.3588709235191345,-0.27338463068008423,0.49413856863975525,0.07049499452114105,0.6103354692459106,38.98408126831055,-55.11293411254883,-90.65718078613281,49.97635269165039,150.0,-150.0,-0.03601638972759247,-0.06823818385601044,0.08574847877025604,0.1733003407716751,-0.07989414036273956,0.4209645092487335
1,127,1.905,0.33817654848098755,-0.3782843351364136,-0.8604835271835327,0.637435257434845,0.26353171467781067,0.33308884501457214,0.23904292285442352,-0.3673934042453766,-0.25823989510536194,0.4505764842033386,0.08627956360578537,0.5854465961456299,45.387542724609375,-77.67660522460938,-34.02257537841797,4.398872375488281,-41.81660842895508,150.0,-0.0376858226954937,-0.07595150917768478,0.06428346037864685,0.19114984571933746,-0.08010615408420563,0.4745638966560364
1,128,1.92,0.3060089945793152,-0.37874090671539307,-0.8409552574157715,0.5883539319038391,0.2654761075973511,0.27789559960365295,0.21630503237247467,-0.36771613359451294,-0.24443615972995758,0.4158829152584076,0.0876539871096611,0.5464327931404114,25.13629913330078,-35.205360412597656,-42.278499603271484,7.910783767700195,82.57713317871094,-150.0,-0.02950049750506878,-0.08880733698606491,0.06694518774747849,0.19692179560661316,-0.04958086833357811,0.4755082428455353
1,129,1.9349999999999998,0.2746060788631439,-0.36195820569992065,-0.8228166103363037,0.5456985831260681,0.24991454184055328,0.1896374374628067,0.19410760700702667,-0.3558531403541565,-0.23161470890045166,0.38573160767555237,0.07665415108203888,0.4840467870235443,11.991466522216797,-33.39311599731445,-110.79684448242188,18.776569366455078,-88.00648498535156,150.0,-0.031734365969896317,-0.10147882252931595,0.06689023226499557,0.21381916105747223,-0.04048089310526848,0.5196283459663391
1,130,1.95,0.2415693998336792,-0.3424805998802185,-0.7988662719726562,0.49397745728492737,0.2264101654291153,0.06134100630879402,0.17075535655021667,-0.34208524227142334,-0.21468524634838104,0.34917211532592773,0.060039907693862915,0.39335939288139343,36.32891845703125,-31.367719650268555,-83.364013671875,-15.071706771850586,67.9818115234375,-150.0,-0.030610237270593643,-0.11038769036531448,0.06716042011976242,0.22488677501678467,-0.017962612211704254,0.5225070714950562
1,131,1.9649999999999999,0.20758448541164398,-0.3273998498916626,-0.7707831859588623,0.42837780714035034,0.20500169694423676,-0.08996173739433289,0.14673283696174622,-0.331425279378891,-0.19483453035354614,0.3028024435043335,0.044907137751579285,0.28640979528427124,14.072566986083984,-30.398487091064453,-83.60031127929688,3.476803779602051,-78.75834655761719,150.0,-0.0319993682205677,-0.1233002096414566,0.06521452963352203,0.23440854251384735,-0.017594855278730392,0.5661789178848267
1,132,1.98,0.17472577095031738,-0.3110600709915161,-0.7418900728225708,0.3646221160888672,0.18498659133911133,-0.2484622597694397,0.12350637465715408,-0.3198753893375397,-0.17441116273403168,0.2577362060546875,0.030759301036596298,0.17437238991260529,25.68868637084961,-18.395709991455078,-72.5362777709961,-12.148919105529785,64.38054656982422,-150.0,-0.03633427992463112,-0.12726160883903503,0.05937027558684349,0.24406798183918,-0.0016148171853274107,0.571887731552124
1,133,1.9949999999999999,0.15976715087890625,-0.2914641499519348,-0.7178972363471985,0.33551302552223206,0.15755224227905273,-0.4037691652774811,0.11293274909257889,-0.30602383613586426,-0.1574515849351883,0.23716019093990326,0.011367106810212135,0.06459242105484009,24.70720863342285,-36.492252349853516,-43.38614273071289,-13.235611915588379,-75.95877838134766,111.005615234375,-0.03970915451645851,-0.1399436742067337,0.05693020299077034,0.24714212119579315,-0.002170265419408679,0.5848907232284546
1,134,2.01,0.1769714504480362,-0.2768987715244293,-0.7045789957046509,0.3426327407360077,0.12842704355716705,-0.5434725880622864,0.1250937581062317,-0.2957281768321991,-0.14803749322891235,0.2421928197145462,-0.009220289997756481,-0.03415810316801071,23.079614639282227,-1.935516357421875,-72.36458587646484,1.9219374656677246,47.69117736816406,-150.0,-0.04200221225619316,-0.14905183017253876,0.054912224411964417,0.24625156819820404,0.014742997474968433,0.5361465215682983
1,135,2.025,0.22231252491474152,-0.2772181034088135,-0.6984347105026245,0.3623862862586975,0.1132972314953804,-0.6620277762413025,0.1571434736251831,-0.2959538996219635,-0.14369434118270874,0.256155788898468,-0.019914917647838593,-0.11795983463525772,26.699695587158203,-19.680683135986328,-51.110443115234375,2.6728219985961914,-88.25176239013672,150.0,-0.04216080904006958,-0.16571876406669617,0.05646929144859314,0.24106205999851227,0.00729724345728755,0.531684398651123
1,136,2.04,0.284381240606308,-0.2914767861366272,-0.6937127113342285,0.38634219765663147,0.11781573295593262,-0.7581014633178711,0.20101726055145264,-0.30603277683258057,-0.14035655558109283,0.2730892300605774,-0.0167209692299366,-0.18587028980255127,30.377553939819336,5.72624397277832,-77.79764556884766,13.059555053710938,66.6883316040039,-150.0,-0.049961257725954056,-0.1740400195121765,0.048941101878881454,0.24526700377464294,0.013770675286650658,0.4890214800834656
1,137,2.0549999999999997,0.3576734960079193,-0.3162652254104614,-0.6889301538467407,0.41045281291007996,0.14026978611946106,-0.8334162831306458,0.2528245151042938,-0.3235546946525574,-0.1369759738445282,0.2901320159435272,-0.0008491398766636848,-0.23910720646381378,51.00996398925781,-23.696577072143555,-21.04224395751953,-8.027921676635742,-68.50244903564453,150.0,-0.05369428172707558,-0.19057400524616241,0.047346122562885284,0.24448619782924652,-0.00011934460053453222,0.4862772822380066
1,138,2.07,0.4438186287879944,-0.3542671203613281,-0.6822453737258911,0.4253981411457062,0.17477421462535858,-0.8884288668632507,0.31371691823005676,-0.3504166305065155,-0.13225078582763672,0.3006962537765503,0.023540589958429337,-0.2779932916164398,46.660423278808594,6.924190521240234,-74.7855224609375,16.291515350341797,85.64778137207031,-150.0,-0.05166388675570488,-0.20481251180171967,0.05025408789515495,0.236724391579628,0.011370299383997917,0.4446927607059479
1,139,2.085,0.518293559551239,-0.39146798849105835,-0.6672700643539429,0.4304887354373932,0.18544705212116241,-0.9256694912910461,0.3663601577281952,-0.3767123818397522,-0.12166537344455719,0.3042945861816406,0.031084787100553513,-0.3043171167373657,39.0152587890625,-45.61299514770508,-61.966552734375,19.377796173095703,-27.317264556884766,-150.0,-0.036828331649303436,-0.21151241660118103,0.04797295853495598,0.22097247838974,-9.101561590796337e-05,0.4514169991016388
1,140,2.1,0.55241858959198,-0.4055708050727844,-0.6430074572563171,0.427561491727829,0.14689461886882782,-0.9435886740684509,0.39048171043395996,-0.38668107986450195,-0.1045151799917221,0.3022254407405853,0.0038336701691150665,-0.3169834613800049,27.71453094482422,-25.224693298339844,-47.35759735107422,36.29737091064453,14.281848907470703,-150.0,-0.025363724678754807,-0.2086229920387268,0.03528595715761185,0.2087247222661972,-0.004456424620002508,0.44985589385032654
1,141,2.1149999999999998,0.5416275262832642,-0.3879155218601227,-0.6107879281044006,0.4174908995628357,0.06950856745243073,-0.9367910623550415,0.38285398483276367,-0.37420129776000977,-0.08174051344394684,0.2951069474220276,-0.050867293030023575,-0.31217852234840393,40.83715057373047,-52.426414489746094,20.89173126220703,19.32575035095215,-3.247859001159668,-150.0,-0.010626422241330147,-0.2197626382112503,0.047431327402591705,0.19659729301929474,-0.00737343542277813,0.4450781047344208
1,142,2.13,0.49440696835517883,-0.3517114818096161,-0.5591760873794556,0.407350093126297,-0.033818114548921585,-0.9066630005836487,0.3494757115840912,-0.34861016273498535,-0.045258257538080215,0.28793883323669434,-0.12390461564064026,-0.2908822298049927,19.720144271850586,9.801351547241211,-117.59428405761719,27.618694305419922,-17.41885757446289,-150.0,0.00837690569460392,-0.20520587265491486,-0.04213787987828255,0.18721504509449005,-0.0064468346536159515,0.43749502301216125
1,143,2.145,0.4367043972015381,-0.2992604672908783,-0.5020416378974915,0.3937130868434906,-0.1498226523399353,-0.8594581484794617,0.3086881637573242,-0.31153473258018494,-0.004872284829616547,0.27829939126968384,-0.20590338110923767,-0.2575150728225708,10.205404281616211,-93.22897338867188,150.0,20.41956901550293,-45.28664779663086,-150.0,0.02424592152237892,-0.22819490730762482,-0.04582294076681137,0.17975884675979614,-0.009836897253990173,0.43109241127967834
1,144,2.16,0.39627963304519653,-0.2338634729385376,-0.4414268136024475,0.3531925082206726,-0.2658775746822357,-0.8030462265014648,0.2801135778427124,-0.26530832052230835,0.037973783910274506,0.24965707957744598,-0.2879377603530884,-0.21763989329338074,14.231620788574219,100.66584777832031,-150.0,17.292957305908203,-49.74293518066406,-150.0,0.03675474971532822,-0.22211702167987823,-0.10777163505554199,0.17992974817752838,-0.011299335397779942,0.42563486099243164
1,145,2.175,0.37696242332458496,-0.17220905423164368,-0.3646586835384369,0.2793767750263214,-0.37260910868644714,-0.7484824657440186,0.26645904779434204,-0.2217274010181427,0.09223797172307968,0.19747982919216156,-0.36338183283805847,-0.17907102406024933,11.940027236938477,-92.04470825195312,150.0,-3.9683051109313965,-70.6435775756836,-150.0,0.06235329806804657,-0.239328071475029,-0.11923467367887497,0.16579031944274902,-0.014072117395699024,0.41128915548324585
1,146,2.19,0.37105193734169006,-0.11379425972700119,-0.28861746191978455,0.18225950002670288,-0.46647393703460693,-0.7046265602111816,0.2622811794281006,-0.1804364174604416,0.1459883451461792,0.1288316547870636,-0.42973095178604126,-0.14807115495204926,-18.171478271484375,113.52411651611328,-150.0,25.147083282470703,-87.77728271484375,-119.85452270507812,0.08373594284057617,-0.22438228130340576,-0.1899721771478653,0.1559358835220337,-0.013370377011597157,0.3993167579174042
1,147,2.205,0.3687034547328949,-0.05604039132595062,-0.2231295108795166,0.07199788093566895,-0.5411348342895508,-0.6778057813644409,0.2606211304664612,-0.13961261510849,0.19227905571460724,0.05089230835437775,-0.4825056493282318,-0.1291126161813736,-1.4796600341796875,-91.63285827636719,150.0,-4.728808879852295,-100.47708129882812,-119.500732421875,0.11972224712371826,-0.23270763456821442,-0.20849654078483582,0.1272938847541809,-0.01506707351654768,0.37910473346710205
1,148,2.2199999999999998,0.3586653172969818,0.0007433101418428123,-0.16889667510986328,-0.03233819082379341,-0.5947840809822083,-0.6742876172065735,0.25352558493614197,-0.09947458654642105,0.23061397671699524,-0.022858522832393646,-0.5204280614852905,-0.12662577629089355,-39.72336196899414,111.87718963623047,-150.0,29.80839729309082,-109.2286605834961,-88.91455078125,0.13529157638549805,-0.20634649693965912,-0.2872345447540283,0.11518947780132294,-0.018976211547851562,0.3728051483631134
1,149,2.235,0.34193816781044006,0.05741104483604431,-0.12507666647434235,-0.1178968995809555,-0.6293357610702515,-0.696118175983429,0.2417018562555313,-0.05941852927207947,0.26158851385116577,-0.08333641290664673,-0.5448511838912964,-0.1420569121837616,9.349838256835938,-92.44107818603516,150.0,-19.12240219116211,-101.64993286132812,-141.87306213378906,0.14956124126911163,-0.20991913974285126,-0.30699795484542847,0.09595104306936264,-0.028913244605064392,0.3673624098300934
1,150,2.25,0.32711562514305115,0.11028142273426056,-0.08900348842144012,-0.17588932812213898,-0.6443232893943787,-0.7390422821044922,0.2312244325876236,-0.022046659141778946,0.2870871424674988,-0.1243288516998291,-0.5554452538490295,-0.17239819467067719,-11.434952735900879,118.90122985839844,-144.00547790527344,2.9035682678222656,-96.1098403930664,-143.6853790283203,0.15293046832084656,-0.18015502393245697,-0.3846907913684845,0.08799638599157333,-0.039566755294799805,0.36935630440711975
1,151,2.265,0.3307019770145416,0.1523362696170807,-0.05824916437268257,-0.21218828856945038,-0.6422611474990845,-0.7933162450790405,0.23375946283340454,0.007680155336856842,0.3088260889053345,-0.14998707175254822,-0.5539876222610474,-0.2107621431350708,11.338037490844727,-91.34965515136719,150.0,-22.21268081665039,-91.15765380859375,-150.0,0.16113461554050446,-0.17562803626060486,-0.4037049412727356,0.07204395532608032,-0.05512368679046631,0.36795899271965027
1,152,2.28,0.3480798602104187,0.18360725045204163,-0.035499997437000275,-0.257652223110199,-0.6274315714836121,-0.8482033014297485,0.24604317545890808,0.029784295707941055,0.32490652799606323,-0.18212363123893738,-0.5435051918029785,-0.24955952167510986,-1.400385856628418,106.78251647949219,-109.14512634277344,-8.572818756103516,-76.04084014892578,-150.0,0.16632190346717834,-0.14712676405906677,-0.44095608592033386,0.061535175889730453,-0.06804829835891724,0.36836931109428406
1,153,2.295,0.3735830783843994,0.20359669625759125,-0.015591342002153397,-0.31944000720977783,-0.6012054085731506,-0.8973336219787598,0.2640703320503235,0.043914005160331726,0.3389791250228882,-0.2257988452911377,-0.5249670147895813,-0.2842877209186554,6.898866653442383,-81.18023681640625,150.0,-22.390056610107422,-79.43098449707031,-150.0,0.1688854992389679,-0.14649756252765656,-0.39752835035324097,0.048958051949739456,-0.08229202777147293,0.36858198046684265
1,154,2.31,0.41574662923812866,0.20832492411136627,0.007904848083853722,-0.37310701608657837,-0.5690327882766724,-0.9376102685928345,0.29387399554252625,0.04725618660449982,0.35558760166168213,-0.263733834028244,-0.5022255182266235,-0.31275758147239685,17.314477920532227,114.15885925292969,-150.0,-23.267547607421875,-61.43608093261719,-150.0,0.17162823677062988,-0.12912794947624207,-0.41022342443466187,0.04339507222175598,-0.08840065449476242,0.3678724765777588
1,155,2.3249999999999997,0.44683730602264404,0.18704234063625336,0.03670075908303261,-0.4038512706756592,-0.5395488142967224,-0.9682019948959351,0.31585070490837097,0.03221243619918823,0.3759422302246094,-0.28546565771102905,-0.4813845455646515,-0.334381639957428,20.221288681030273,-41.55519104003906,150.0,-40.05180358886719,-92.13587951660156,-150.0,0.19324807822704315,-0.14841318130493164,-0.3177492022514343,0.0232408344745636,-0.0866411104798317,0.3464014530181885
1,156,2.34,0.4378913342952728,0.13831552863121033,0.06958644092082977,-0.41034477949142456,-0.5160821080207825,-0.9897005558013916,0.3095271587371826,-0.002230526879429817,0.39918774366378784,-0.29005566239356995,-0.46479690074920654,-0.34957802295684814,-25.40715789794922,123.19660186767578,-150.0,-2.3471145629882812,-79.62271881103516,-136.7283935546875,0.20968268811702728,-0.12779374420642853,-0.3038924038410187,0.008260130882263184,-0.07751235365867615,0.3241652548313141
1,157,2.355,0.39788320660591125,0.07716522365808487,0.10308405011892319,-0.39351019263267517,-0.5014105439186096,-1.0,0.281247079372406,-0.045455124229192734,0.4228658080101013,-0.27815598249435425,-0.45442619919776917,-0.35743802785873413,1.784907341003418,-67.14836883544922,150.0,-25.8294677734375,-115.43333435058594,-125.8713607788086,0.2203485369682312,-0.14517483115196228,-0.19937269389629364,-0.004278546664863825,-0.06893842667341232,0.2980518341064453
1,158,2.37,0.347859263420105,0.016721053048968315,0.13095307350158691,-0.3427591323852539,-0.48924770951271057,-0.9938435554504395,0.24588723480701447,-0.08818058669567108,0.44256526231765747,-0.24228216707706451,-0.44582879543304443,-0.35250651836395264,-8.232498168945312,100.2280044555664,-150.0,-13.440306663513184,-83.43352508544922,-128.46334838867188,0.22951382398605347,-0.1262115240097046,-0.17829295992851257,-0.015601127408444881,-0.060030028223991394,0.27245453000068665
1,159,2.385,0.29680249094963074,-0.029362933710217476,0.13937756419181824,-0.24853801727294922,-0.4694496989250183,-0.9704890847206116,0.20979733765125275,-0.12075543403625488,0.4485201835632324,-0.1756811887025833,-0.4318343997001648,-0.3359982669353485,-15.768909454345703,-114.59864044189453,150.0,-2.416322708129883,-103.88883972167969,-98.67507934570312,0.23274408280849457,-0.13689805567264557,-0.10024683177471161,-0.027818022295832634,-0.05701422318816185,0.25207409262657166
1,160,2.4,0.25746217370033264,-0.05378315970301628,0.11822675168514252,-0.1299886554479599,-0.4402982294559479,-0.9429176449775696,0.18198929727077484,-0.13801707327365875,0.4335695505142212,-0.0918835699558258,-0.4112284481525421,-0.3165091574192047,-1.946568489074707,99.1488037109375,-150.0,5.6630167961120605,-69.30133819580078,-128.29791259765625,0.22875145077705383,-0.12257366627454758,-0.07504308968782425,-0.03521761670708656,-0.0526634119451046,0.23648309707641602
1,161,2.415,0.24037352204322815,-0.06542717665433884,0.0742834135890007,-0.012003856711089611,-0.4006459414958954,-0.9145379662513733,0.16991004347801208,-0.1462477445602417,0.40250784158706665,-0.00848502665758133,-0.38319990038871765,-0.2964487373828888,-5.78300666809082,-110.8784408569336,150.0,16.41368293762207,-88.88938903808594,-100.80810546875,0.2292092740535736,-0.13918472826480865,0.005045768339186907,-0.050224412232637405,-0.05550915375351906,0.2193373590707779
1,162,2.4299999999999997,0.23287932574748993,-0.07125497609376907,0.018466345965862274,0.08893028646707535,-0.34981808066368103,-0.8820455074310303,0.16461271047592163,-0.15036717057228088,0.3630530834197998,0.0628611221909523,-0.34727180004119873,-0.2734811305999756,-4.827293395996094,106.64784240722656,-150.0,33.693756103515625,-43.6588020324707,-111.1630630493164,0.22005942463874817,-0.12977957725524902,0.03195906803011894,-0.058009181171655655,-0.0593847893178463,0.2072080671787262
1,163,2.445,0.21947285532951355,-0.07550569623708725,-0.04481034725904465,0.15627004206180573,-0.29065409302711487,-0.8421520590782166,0.15513622760772705,-0.15337182581424713,0.3183254301548004,0.1104607880115509,-0.30545124411582947,-0.2452821284532547,7.136322021484375,-103.98506927490234,150.0,28.063121795654297,-54.21995544433594,-94.27738189697266,0.21752890944480896,-0.14590312540531158,0.10939425975084305,-0.07485997676849365,-0.06427547335624695,0.19040237367153168
1,164,2.46,0.20354211330413818,-0.08559618145227432,-0.11299406737089157,0.19790446758270264,-0.2278667688369751,-0.7969484329223633,0.14387544989585876,-0.16050437092781067,0.2701292037963867,0.13989043235778809,-0.26106950640678406,-0.21332958340644836,-11.14075756072998,103.5107650756836,-150.0,55.89654541015625,-25.172571182250977,-74.10137939453125,0.210961252450943,-0.13493721187114716,0.1357724964618683,-0.0891757532954216,-0.06757146865129471,0.1744527965784073
1,165,2.475,0.1905648112297058,-0.11047158390283585,-0.18200020492076874,0.24762806296348572,-0.16416417062282562,-0.7486932277679443,0.13470233976840973,-0.1780877560377121,0.22135163843631744,0.17503798007965088,-0.21604080498218536,-0.17921999096870422,6.0310468673706055,-110.510986328125,150.0,44.862510681152344,-31.671323776245117,-61.33843231201172,0.20057451725006104,-0.14852368831634521,0.21095965802669525,-0.10342956334352493,-0.0768129751086235,0.16288909316062927
1,166,2.4899999999999998,0.17639628052711487,-0.1491105854511261,-0.25087088346481323,0.3152575194835663,-0.10169588774442673,-0.6911906599998474,0.12468718737363815,-0.20540004968643188,0.17266982793807983,0.22284242510795593,-0.17188458144664764,-0.13857384026050568,5.14035701751709,89.99330139160156,-150.0,60.833831787109375,6.550769805908203,-69.54067993164062,0.18603774905204773,-0.1448957920074463,0.24035969376564026,-0.1143604964017868,-0.08447485417127609,0.15301862359046936
1,167,2.505,0.16837434470653534,-0.19595465064048767,-0.31830987334251404,0.3957580327987671,-0.04343348369002342,-0.620807945728302,0.11901681870222092,-0.23851215839385986,0.1250000298023224,0.2797448933124542,-0.13070131838321686,-0.08882325142621994,11.46990966796875,-95.74713134765625,150.0,60.11628341674805,-4.020600318908691,-38.1942138671875,0.1765989065170288,-0.16221340000629425,0.3163391351699829,-0.13068465888500214,-0.09290128946304321,0.14155630767345428
1,168,2.52,0.18238888680934906,-0.248187854886055,-0.38317203521728516,0.4973251521587372,0.012713776901364326,-0.5427637100219727,0.12892311811447144,-0.27543362975120544,0.07915164530277252,0.35153844952583313,-0.09101316332817078,-0.03365704417228699,2.6083431243896484,73.66162872314453,-150.0,85.31761932373047,23.343563079833984,-27.660133361816406,0.16752272844314575,-0.16232389211654663,0.34967413544654846,-0.1466650515794754,-0.10123532265424728,0.13068662583827972
1,169,2.5349999999999997,0.23044243454933167,-0.29818981885910034,-0.44507262110710144,0.610293447971344,0.07186107337474823,-0.4579113721847534,0.16289016604423523,-0.3107779324054718,0.03539673984050751,0.43139106035232544,-0.04920440912246704,0.026321571320295334,13.987616539001465,-93.91740417480469,120.42891693115234,86.49173736572266,22.28866195678711,-2.1364707946777344,0.15998274087905884,-0.18059270083904266,0.4021303653717041,-0.16385018825531006,-0.11453931778669357,0.12361634522676468
1,170,2.55,0.3106314241886139,-0.3435925245285034,-0.5047493577003479,0.7144052982330322,0.1324627548456192,-0.36747366189956665,0.21957242488861084,-0.34287121891975403,-0.006786264479160309,0.5049833655357361,-0.006367608904838562,0.09024818986654282,15.177535057067871,57.25443649291992,-150.0,107.39738464355469,54.0657844543457,-3.5306224822998047,0.15091784298419952,-0.18146036565303802,0.3959932029247284,-0.17653046548366547,-0.12702374160289764,0.12211234867572784
1,171,2.565,0.40185922384262085,-0.38423433899879456,-0.562883198261261,0.8040797710418701,0.1855737268924713,-0.28184041380882263,0.2840575575828552,-0.3715992271900177,-0.04787866026163101,0.568370521068573,0.031174318864941597,0.15077875554561615,27.033428192138672,-92.98112487792969,150.0,103.5742416381836,52.46778869628906,11.7654447555542,0.14991255104541779,-0.20794829726219177,0.43831539154052734,-0.1895540952682495,-0.1438409388065338,0.123927541077137
1,172,2.58,0.48611313104629517,-0.41798675060272217,-0.6182067394256592,0.878246545791626,0.22745482623577118,-0.2039053738117218,0.3436131477355957,-0.39545738697052,-0.08698456734418869,0.6207959651947021,0.06077832728624344,0.20586779713630676,21.999244689941406,69.45255279541016,-150.0,117.6798095703125,82.96981811523438,3.7432403564453125,0.1444769650697708,-0.21760934591293335,0.43549901247024536,-0.19613872468471527,-0.16290684044361115,0.1318364441394806
1,173,2.5949999999999998,0.5638852119445801,-0.44702771306037903,-0.6702892780303955,0.9353445768356323,0.25416117906570435,-0.12472019344568253,0.3985869884490967,-0.41598522663116455,-0.12379954755306244,0.661156177520752,0.07965592294931412,0.26184049248695374,39.43626403808594,-81.98110961914062,141.98269653320312,105.58723449707031,84.12521362304688,12.906728744506836,0.14455567300319672,-0.2409319132566452,0.4666966199874878,-0.20146140456199646,-0.18225161731243134,0.14209188520908356
1,174,2.61,0.6352220773696899,-0.4731604754924774,-0.7189671993255615,0.9760616421699524,0.2563468813896179,-0.03808809071779251,0.44901204109191895,-0.434457391500473,-0.15820792317390442,0.6899373531341553,0.08120092749595642,0.32307711243629456,29.741798400878906,58.05305099487305,-150.0,119.00752258300781,95.09528350830078,16.069717407226562,0.14933708310127258,-0.2516372799873352,0.45019036531448364,-0.20214082300662994,-0.20054891705513,0.15452978014945984
1,175,2.625,0.7017596364021301,-0.49417680501937866,-0.7645238637924194,1.0,0.2356555014848709,0.05239143595099449,0.49604469537734985,-0.4493129551410675,-0.19041001796722412,0.7087152004241943,0.06657503545284271,0.3870333135128021,31.198265075683594,-73.36795043945312,146.67620849609375,108.1705093383789,87.48847961425781,36.64154052734375,0.15763595700263977,-0.2794249951839447,0.4725148379802704,-0.191396102309227,-0.2184200882911682,0.17952623963356018
1,176,2.6399999999999997,0.7649929523468018,-0.5093507170677185,-0.8044278025627136,1.0,0.19983592629432678,0.1412525773048401,0.5407416820526123,-0.4600387513637543,-0.21861645579338074,0.7195293307304382,0.04125567525625229,0.449845552444458,32.89250946044922,67.56436157226562,-150.0,88.19725036621094,90.59314727783203,-17.45672607421875,0.17410393059253693,-0.28900009393692017,0.44654175639152527,-0.1860816776752472,-0.23733073472976685,0.19618402421474457
1,177,2.655,0.8237674832344055,-0.5190517902374268,-0.837823212146759,1.0,0.15478627383708954,0.22902651131153107,0.5822869539260864,-0.46689602732658386,-0.24222227931022644,0.7244642972946167,0.009411957114934921,0.5118892788887024,20.25113868713379,-77.08482360839844,150.0,103.57122802734375,83.87857055664062,54.86936950683594,0.19286102056503296,-0.3165212571620941,0.4611623287200928,-0.15844093263149261,-0.2479064166545868,0.24095121026039124
1,178,2.67,0.877902626991272,-0.5228816270828247,-0.8603005409240723,1.0,0.10071342438459396,0.31743210554122925,0.6205528378486633,-0.46960318088531494,-0.25811055302619934,0.7118548154830933,-0.028809882700443268,0.5743795037269592,26.39276885986328,76.9033203125,-150.0,46.963043212890625,55.81134033203125,-86.16366577148438,0.2248447984457016,-0.32165998220443726,0.4308421015739441,-0.14918018877506256,-0.2569833993911743,0.2568869888782501
1,179,2.685,0.9232820272445679,-0.5206570625305176,-0.8704882860183716,0.9457482099533081,0.04068482667207718,0.40358972549438477,0.6526296734809875,-0.46803075075149536,-0.2653118968009949,0.6685100793838501,-0.071241594851017,0.6352807283401489,-0.19504165649414062,-85.2199478149414,150.0,99.02188110351562,59.90293502807617,85.09597778320312,0.2463306486606598,-0.3444807529449463,0.43909746408462524,-0.11822539567947388,-0.2790932059288025,0.3328516185283661
1,180,2.6999999999999997,0.9584655165672302,-0.512255847454071,-0.8699201345443726,0.8486566543579102,-0.02455327846109867,0.48856714367866516,0.6774994134902954,-0.4620922803878784,-0.2649102807044983,0.5998800992965698,-0.11735568940639496,0.6953477263450623,34.904579162597656,79.4701156616211,-150.0,17.54693603515625,79.090087890625,-150.0,0.2823772728443146,-0.3490864932537079,0.4046297073364258,-0.08343027532100677,-0.26174700260162354,0.32318592071533203
1,181,2.715,0.9718959927558899,-0.49235600233078003,-0.8606948256492615,0.70987468957901,-0.10393469035625458,0.5661033987998962,0.6869928240776062,-0.4480259120464325,-0.2583892345428467,0.5017808675765991,-0.17346709966659546,0.7501548528671265,-23.7261962890625,-88.99856567382812,150.0,80.50640869140625,56.223663330078125,74.31092834472656,0.30987074971199036,-0.3698325455188751,0.40853407979011536,-0.058273233473300934,-0.2908012866973877,0.3978911340236664
1,182,2.73,0.951906681060791,-0.4597759544849396,-0.8402420878410339,0.517635703086853,-0.20015263557434082,0.6208666563034058,0.672863245010376,-0.42499643564224243,-0.2439320981502533,0.3658951222896576,-0.2414795607328415,0.7888647317886353,28.966365814208984,90.18049621582031,-150.0,-12.164608001708984,61.40415573120117,-150.0,0.3393136262893677,-0.3701307773590088,0.3672344982624054,-0.021062279120087624,-0.2691791355609894,0.3616448938846588
1,183,2.745,0.8951061964035034,-0.42457982897758484,-0.8083049058914185,0.29021328687667847,-0.27492305636405945,0.6265543699264526,0.6327133178710938,-0.40011775493621826,-0.2213570475578308,0.20513969659805298,-0.2943316400051117,0.7928851246833801,-20.21196746826172,-72.76019287109375,150.0,-13.296930313110352,-94.54080963134766,150.0,0.36528512835502625,-0.37476101517677307,0.36237409710884094,-0.02959786355495453,-0.3272837698459625,0.4765484035015106
1,184,2.76,0.8008232712745667,-0.38936910033226013,-0.7742900252342224,0.06153801828622818,-0.29687225818634033,0.5681599974632263,0.5660686492919922,-0.37522876262664795,-0.1973133087158203,0.04349866509437561,-0.3098466098308563,0.7516086101531982,6.440011978149414,67.72320556640625,-150.0,18.104202270507812,150.0,-150.0,0.3854598104953766,-0.3632550835609436,0.3144051432609558,-0.03649831563234329,-0.3429196774959564,0.5208576917648315
1,185,2.775,0.6766631603240967,-0.34768298268318176,-0.743949830532074,-0.1522413194179535,-0.29652437567710876,0.47135278582572937,0.47830504179000854,-0.34576258063316345,-0.17586712539196014,-0.10761305689811707,-0.30960071086883545,0.6831796169281006,-21.702247619628906,-69.76775360107422,150.0,-1.4983062744140625,-43.97053146362305,150.0,0.3813767731189728,-0.37114420533180237,0.305016428232193,-0.023326341062784195,-0.36173999309539795,0.594081461429596
1,186,2.79,0.5173455476760864,-0.2945096492767334,-0.7085721492767334,-0.35222992300987244,-0.2961631417274475,0.3469160199165344,0.36569005250930786,-0.30817657709121704,-0.15086013078689575,-0.2489766776561737,-0.3093453645706177,0.5952204465866089,27.631011962890625,86.44788360595703,-150.0,-58.97478485107422,89.78934478759766,-150.0,0.3891441226005554,-0.3567485809326172,0.24867737293243408,-0.03202615678310394,-0.3518376052379608,0.6197202801704407
1,187,2.8049999999999997,0.31782209873199463,-0.2266622930765152,-0.6636050343513489,-0.5297576785087585,-0.2900172472000122,0.18512217700481415,0.22465521097183228,-0.2602181136608124,-0.11907470971345901,-0.37446367740631104,-0.30500108003616333,0.48085513710975647,-54.54535675048828,-68.93411254882812,150.0,-2.985992431640625,-58.46715545654297,150.0,0.3904818892478943,-0.3597641587257385,0.23365211486816406,-0.05170154571533203,-0.3576929271221161,0.6785733103752136
1,188,2.82,0.1018020436167717,-0.14484333992004395,-0.612033486366272,-0.6778072714805603,-0.2750076949596405,-0.011943050660192966,0.07195962965488434,-0.20238371193408966,-0.08262095600366592,-0.47911375761032104,-0.2943914532661438,0.34155794978141785,-17.420726776123047,101.90911865234375,-150.0,-31.119068145751953,65.07247924804688,-150.0,0.38115400075912476,-0.3363097608089447,0.1684456318616867,-0.08165179193019867,-0.33987098932266235,0.6969693899154663
1,189,2.835,-0.08920629322528839,-0.05383729562163353,-0.5563457012176514,-0.7955448627471924,-0.24869273602962494,-0.22260786592960358,-0.06305621564388275,-0.13805533945560455,-0.04325755685567856,-0.5623375773429871,-0.2757905125617981,0.192647784948349,-47.548011779785156,-66.81365966796875,150.0,-5.273418426513672,-57.953975677490234,78.63786315917969,0.35580864548683167,-0.3298523426055908,0.1414344310760498,-0.1125921681523323,-0.33330655097961426,0.6905653476715088
1,190,2.85,-0.22368353605270386,0.03426826372742653,-0.4936230480670929,-0.858940601348877,-0.19832640886306763,-0.42533066868782043,-0.15811258554458618,-0.07577719539403915,0.0010784715414047241,-0.6071493625640869,-0.24018867313861847,0.04935148358345032,-11.203285217285156,108.14906311035156,-150.0,-21.652118682861328,39.368309020996094,-150.0,0.3371070921421051,-0.34668639302253723,0.15642479062080383,-0.138807475566864,-0.30985864996910095,0.6417482495307922
1,191,2.8649999999999998,-0.30628502368927,0.07930731773376465,-0.39408981800079346,-0.856883704662323,-0.15278920531272888,-0.608353316783905,-0.2165001481771469,-0.04394096881151199,0.07143434882164001,-0.6056954264640808,-0.2080003172159195,-0.08001954853534698,-51.88690948486328,82.22998046875,-61.55084228515625,-70.33042907714844,86.5398178100586,-150.0,0.3076367974281311,-0.34043648838996887,0.13552260398864746,-0.11307220160961151,-0.3267253041267395,0.6678499579429626
1,192,2.88,-0.3608752489089966,0.06906299293041229,-0.28409168124198914,-0.8395388722419739,-0.16552607715129852,-0.7594175338745117,-0.2550877034664154,-0.051182251423597336,0.14918744564056396,-0.5934351086616516,-0.2170034795999527,-0.18680056929588318,-17.16482162475586,31.767223358154297,96.93736267089844,-102.5972900390625,43.69767379760742,-150.0,0.28910040855407715,-0.33732688426971436,0.19168375432491302,-0.10291057080030441,-0.3256761133670807,0.6723343133926392
1,193,2.895,-0.3891734480857849,0.015573328360915184,-0.18680927157402039,-0.836423397064209,-0.23868536949157715,-0.8748903274536133,-0.2750905156135559,-0.08899186551570892,0.21795231103897095,-0.5912328958511353,-0.2687167227268219,-0.26842349767684937,-50.82941818237305,63.7100944519043,-150.0,-61.279762268066406,12.243579864501953,-150.0,0.2593434751033783,-0.28973808884620667,0.15709854662418365,-0.09020945429801941,-0.320474237203598,0.6689231395721436
1,194,2.9099999999999997,-0.38961783051490784,-0.07103639096021652,-0.08697934448719025,-0.8151054382324219,-0.3489439785480499,-0.9498353004455566,-0.2754046320915222,-0.15021266043186188,0.28851792216300964,-0.5761641263961792,-0.34665393829345703,-0.32139894366264343,-30.021793365478516,-39.479103088378906,145.01223754882812,-88.61764526367188,-38.41646957397461,-150.0,0.2429206371307373,-0.30140745639801025,0.2658334970474243,-0.08390023559331894,-0.30830612778663635,0.6552938222885132
1,195,2.925,-0.3650343716144562,-0.16916677355766296,0.006355154328048229,-0.74615478515625,-0.47979044914245605,-0.9835245609283447,-0.2580276131629944,-0.21957693994045258,0.3544921875,-0.5274257659912109,-0.4391438364982605,-0.345212459564209,-38.44092559814453,86.04275512695312,-150.0,-54.07697677612305,-43.76048278808594,-150.0,0.21468523144721985,-0.28133082389831543,0.3111655116081238,-0.07770926505327225,-0.2951943874359131,0.637702226638794
1,196,2.94,-0.29418766498565674,-0.255689799785614,0.09634754061698914,-0.6267918348312378,-0.614525318145752,-0.993669331073761,-0.20794901251792908,-0.28073644638061523,0.41810405254364014,-0.44305306673049927,-0.5343822836875916,-0.35238343477249146,-4.706752777099609,-104.17117309570312,150.0,-55.40693664550781,-77.99893188476562,-150.0,0.19147862493991852,-0.2858743965625763,0.40576258301734924,-0.08506421744823456,-0.2821575105190277,0.6140751242637634
1,197,2.955,-0.1727185845375061,-0.3015208840370178,0.18064330518245697,-0.46604228019714355,-0.7335426807403564,-0.9978369474411011,-0.12208758294582367,-0.31313252449035645,0.4776892066001892,-0.3294259011745453,-0.6185107231140137,-0.3553292751312256,-7.075065612792969,68.52256774902344,-150.0,-14.215649604797363,-91.28146362304688,-150.0,0.16495877504348755,-0.28298646211624146,0.46143603324890137,-0.09285108745098114,-0.272173136472702,0.5916833281517029
1,198,2.9699999999999998,-0.029120689257979393,-0.3059799075126648,0.2588680386543274,-0.29071998596191406,-0.8235556483268738,-1.0,-0.02058420330286026,-0.3162844181060791,0.5329830050468445,-0.2054978609085083,-0.682137131690979,-0.35702311992645264,13.745044708251953,-68.21593475341797,150.0,-4.874783515930176,-105.2855224609375,-150.0,0.14449068903923035,-0.29813867807388306,0.556222677230835,-0.10709220916032791,-0.2678781747817993,0.5693423748016357
1,199,2.985,0.106996551156044,-0.28887829184532166,0.3314785957336426,-0.12299729883670807,-0.8798854351043701,-1.0,0.07563140988349915,-0.30419600009918213,0.584308385848999,-0.0869416743516922,-0.721954345703125,-0.3578961491584778,20.17171859741211,72.41287231445312,-150.0,22.015695571899414,-101.81768035888672,-150.0,0.12530361115932465,-0.29214856028556824,0.6071172952651978,-0.11746657639741898,-0.26250362396240234,0.5519718527793884
1,200,3.0,0.2097611278295517,-0.26343750953674316,0.39619675278663635,0.03831285610795021,-0.9000094532966614,-1.0,0.14827141165733337,-0.2862129807472229,0.6300549507141113,0.027081765234470367,-0.7361791729927063,-0.35829293727874756,23.057004928588867,-64.44749450683594,143.35089111328125,29.6480712890625,-113.7672348022461,-150.0,0.11719369888305664,-0.3011223077774048,0.6884598135948181,-0.13304287195205688,-0.26334813237190247,0.5361849069595337
1,201,3.0149999999999997,0.27122947573661804,-0.23173615336418152,0.45256471633911133,0.19315707683563232,-0.888414740562439,-1.0,0.19172082841396332,-0.2638046145439148,0.6698991060256958,0.1365347057580948,-0.7279833555221558,-0.3583659529685974,19.729446411132812,64.55192565917969,-150.0,52.80390930175781,-93.68535614013672,-150.0,0.1131925880908966,-0.2923649549484253,0.7245801091194153,-0.1451723277568817,-0.26564911007881165,0.5247727632522583
1,202,3.03,0.2978355288505554,-0.1972283124923706,0.4986364543437958,0.3397299349308014,-0.859114408493042,-1.0,0.21052753925323486,-0.23941245675086975,0.702465295791626,0.24014095962047577,-0.7072721719741821,-0.3582407832145691,14.629673957824707,-48.29228973388672,150.0,58.473548889160156,-85.94921875,-150.0,0.1130160316824913,-0.29113203287124634,0.792677104473114,-0.1577475368976593,-0.2728906273841858,0.5157905220985413
1,203,3.045,0.2733879089355469,-0.16075874865055084,0.5274737477302551,0.47077399492263794,-0.8228043913841248,-1.0,0.19324654340744019,-0.21363365650177002,0.7228491902351379,0.33277055621147156,-0.681606113910675,-0.3580132722854614,13.641733169555664,42.45048522949219,-150.0,73.56029510498047,-74.32808685302734,-150.0,0.10098535567522049,-0.2676684856414795,0.8178859353065491,-0.15548263490200043,-0.2804512679576874,0.5168660283088684
1,204,3.06,0.1851252168416977,-0.1189294084906578,0.5344482064247131,0.5781831741333008,-0.7838010787963867,-1.0,0.13085731863975525,-0.18406623601913452,0.7277791500091553,0.4086936116218567,-0.654036283493042,-0.3577510714530945,19.23841094970703,-62.45354461669922,150.0,60.674468994140625,-67.62906646728516,-150.0,0.09856422245502472,-0.2610737979412079,0.8801064491271973,-0.16009658575057983,-0.28916311264038086,0.5157012343406677
1,205,3.0749999999999997,0.06656301021575928,-0.07428403943777084,0.5167075991630554,0.6604613065719604,-0.743667721748352,-1.0,0.04705062508583069,-0.15250828862190247,0.7152390480041504,0.466852605342865,-0.6256676912307739,-0.3574976921081543,-5.536292552947998,45.952613830566406,-150.0,84.92469024658203,-58.854984283447266,-150.0,0.08638756722211838,-0.2363705188035965,0.9029918313026428,-0.1558941751718521,-0.29361021518707275,0.5193517804145813
1,206,3.09,-0.04548846185207367,-0.03273078799247742,0.4732649028301239,0.7164434790611267,-0.7103517055511475,-1.0,-0.0321539007127285,-0.12313602864742279,0.6845312118530273,0.506424069404602,-0.6021180152893066,-0.3572777509689331,5.017142295837402,-57.496055603027344,121.47515869140625,70.89641571044922,-61.1202392578125,-150.0,0.07887732982635498,-0.22396111488342285,0.9391691088676453,-0.15960535407066345,-0.29969683289527893,0.5179615020751953
1,207,3.105,-0.15081635117530823,0.010029975324869156,0.4045201539993286,0.744131326675415,-0.6945286393165588,-1.0,-0.10660580545663834,-0.09291023015975952,0.6359384059906006,0.5259954929351807,-0.5909333229064941,-0.3571019768714905,-13.168447494506836,38.67945098876953,-150.0,91.84136962890625,-51.91270446777344,-150.0,0.056507378816604614,-0.2026328146457672,0.9203394055366516,-0.15384536981582642,-0.3064177632331848,0.5206441283226013
1,208,3.12,-0.26206374168395996,0.06003355234861374,0.3049885928630829,0.7468359470367432,-0.698174774646759,-0.9970753192901611,-0.1852419525384903,-0.057564787566661835,0.5655837059020996,0.5279072523117065,-0.593510627746582,-0.35479098558425903,9.056388854980469,-34.4364013671875,150.0,68.00579071044922,-45.75939178466797,-150.0,0.03793917968869209,-0.19314022362232208,0.9352623820304871,-0.1558159589767456,-0.3155761957168579,0.5174813270568848
