EASYMMMM/IGEvolution/isaacgymenvs/run_data/srl_policy_outputs_env0.csv
episode,step,time_sec,action_0,action_1,action_2,action_3,action_4,action_5,pd_target_0,pd_target_1,pd_target_2,pd_target_3,pd_target_4,pd_target_5,torque_0,torque_1,torque_2,torque_3,torque_4,torque_5,joint_pos_0,joint_pos_1,joint_pos_2,joint_pos_3,joint_pos_4,joint_pos_5
1,0,0.0,0.025485597550868988,-0.01935809664428234,-0.02785971201956272,0.011365551501512527,0.0023198085837066174,0.004077244084328413,0.018014708533883095,-0.11368343234062195,0.33030712604522705,0.00803383532911539,-0.09836022555828094,0.3528820276260376,2.1617648601531982,-2.8735203742980957,-5.514002799987793,0.9640601873397827,0.34435293078422546,0.806969404220581,0.005678417161107063,-0.10087045282125473,0.34564653038978577,-0.005106986965984106,-0.10190468281507492,0.3482334017753601
1,1,0.015,0.11643445491790771,-0.09235908091068268,-0.12468574941158295,0.067360520362854,0.011730249971151352,0.019366413354873657,0.08230267465114594,-0.16528478264808655,0.2618648409843445,0.04761434718966484,-0.09170837700366974,0.3636893033981323,-1.2595491409301758,-13.785244941711426,-5.059604644775391,15.374689102172852,0.9312684535980225,9.952194213867188,0.008922924287617207,-0.10428211838006973,0.33595481514930725,-0.004768385551869869,-0.10309182107448578,0.35561004281044006
1,2,0.03,0.26329469680786133,-0.20358063280582428,-0.2790590524673462,0.16412177681922913,0.033544834703207016,0.051299236714839935,0.18611207604408264,-0.24390265345573425,0.15274479985237122,0.11601085215806961,-0.07628855854272842,0.3862612843513489,18.60725212097168,-19.632522583007812,-21.43463706970215,9.961458206176758,8.819127082824707,-27.259540557861328,0.015694843605160713,-0.1095789447426796,0.3093266189098358,-0.0003881600860040635,-0.09492004662752151,0.34169164299964905
1,3,0.045,0.37065017223358154,-0.29215365648269653,-0.4500046968460083,0.24132907390594482,0.07061368227005005,0.10152702033519745,0.26199719309806824,-0.3065112233161926,0.03191043436527252,0.1705854833126068,-0.050086136907339096,0.42176520824432373,15.893722534179688,-32.93889617919922,22.875885009765625,13.89997673034668,-15.824114799499512,111.84091186523438,0.02912895195186138,-0.12924563884735107,0.30085358023643494,0.005366666242480278,-0.10755639523267746,0.414598673582077
1,4,0.06,0.3606467843055725,-0.35379594564437866,-0.5959038734436035,0.2623008191585541,0.10259760916233063,0.14828038215637207,0.2549262046813965,-0.350083589553833,-0.07121957838535309,0.1854095458984375,-0.027478031814098358,0.4548132121562958,6.27680778503418,2.777545928955078,-136.90013122558594,12.842775344848633,70.27328491210938,-150.0,0.04454798251390457,-0.12364127486944199,0.18217095732688904,0.01865672506392002,-0.08896501362323761,0.4129061996936798
1,5,0.075,0.2897196114063263,-0.38320085406303406,-0.695120632648468,0.263075053691864,0.12590011954307556,0.16201332211494446,0.20479074120521545,-0.3708686828613281,-0.14135178923606873,0.18595680594444275,-0.011006459593772888,0.4645204544067383,0.09624671936035156,-103.80831909179688,150.0,-4.736057281494141,-72.03018188476562,150.0,0.03895651921629906,-0.14613749086856842,0.31478384137153625,0.029278766363859177,-0.08784269541501999,0.4520813524723053
1,6,0.09,0.23601552844047546,-0.3617382049560547,-0.7716051936149597,0.28018999099731445,0.15724830329418182,0.1452709287405014,0.16682955622673035,-0.3556976318359375,-0.19541554152965546,0.19805464148521423,0.01115226000547409,0.4526859521865845,20.424701690673828,43.57332992553711,-150.0,13.845961570739746,76.71459197998047,-150.0,0.03864997252821922,-0.14642062783241272,0.3737427592277527,0.039872899651527405,-0.06524627655744553,0.44743603467941284
1,7,0.105,0.2325381636619568,-0.31588876247406006,-0.8385019898414612,0.25189992785453796,0.19403545558452606,0.13378246128559113,0.1643715500831604,-0.32328858971595764,-0.24270209670066833,0.17805758118629456,0.03715556859970093,0.4445652365684509,13.154816627502441,-93.90021514892578,-44.80511474609375,-4.140287399291992,-74.94795989990234,150.0,0.04218931868672371,-0.14140622317790985,0.34271112084388733,0.05351537838578224,-0.06579636037349701,0.4857472777366638
1,8,0.12,0.26961463689804077,-0.2647075057029724,-0.8693453669548035,0.12008964270353317,0.24444857239723206,0.15213215351104736,0.1905793696641922,-0.28711068630218506,-0.26450395584106445,0.08488637208938599,0.0727904886007309,0.45753586292266846,16.71749496459961,40.55757522583008,-150.0,-15.219661712646484,96.6741714477539,-150.0,0.03940872102975845,-0.1636471301317215,0.3844926059246063,0.06905031204223633,-0.04579269513487816,0.4764956831932068
1,9,0.135,0.26450541615486145,-0.24400022625923157,-0.8326226472854614,-0.02637459523975849,0.2825697064399719,0.16212956607341766,0.1869678795337677,-0.2724735736846924,-0.2385462373495102,-0.018643103539943695,0.09973675012588501,0.46460261940956116,24.496810913085938,9.31385612487793,-150.0,-31.29627227783203,-65.19458770751953,150.0,0.03862960264086723,-0.18494002521038055,0.41864925622940063,0.06870274990797043,-0.034645359963178635,0.4993355870246887
1,10,0.15,0.15838617086410522,-0.2668043375015259,-0.7346501350402832,-0.05367862060666084,0.27378129959106445,0.12809701263904572,0.11195659637451172,-0.2885928452014923,-0.16929355263710022,-0.03794318437576294,0.09352457523345947,0.4405464231967926,4.293044090270996,24.137348175048828,-150.0,5.181084632873535,59.33563232421875,-150.0,0.04399419203400612,-0.20376116037368774,0.4476029574871063,0.054896678775548935,-0.006083913147449493,0.4756220877170563
1,11,0.16499999999999998,-0.0016460649203509092,-0.30448460578918457,-0.609305202960968,0.01257017720490694,0.2355717271566391,0.06289234757423401,-0.0011635348200798035,-0.3152274489402771,-0.08069244027137756,0.008885335177183151,0.06651581823825836,0.3944559693336487,-14.161371231079102,6.423776626586914,-150.0,13.373409271240234,-83.53181457519531,150.0,0.03889952972531319,-0.21967238187789917,0.4654044806957245,0.050638917833566666,-0.0032870443537831306,0.4967570900917053
1,12,0.18,-0.15527598559856415,-0.338051438331604,-0.4842294156551361,0.09119735658168793,0.19099310040473938,-0.027986492961645126,-0.10975813120603561,-0.33895444869995117,0.007718421518802643,0.06446361541748047,0.03500505909323692,0.33021751046180725,-6.193296432495117,5.477146148681641,-150.0,4.485398292541504,63.42452621459961,-150.0,0.02929094433784485,-0.22840161621570587,0.4742170572280884,0.05057064816355705,0.015043220482766628,0.4761984050273895
1,13,0.195,-0.2727820575237274,-0.3449985682964325,-0.38620734214782715,0.18960686028003693,0.15033425390720367,-0.14724856615066528,-0.192818284034729,-0.3438650965690613,0.07700614631175995,0.1340252012014389,0.006265006959438324,0.24591612815856934,-14.745020866394043,-13.358659744262695,-131.1328125,9.909136772155762,-90.96192932128906,150.0,0.016090821474790573,-0.24014107882976532,0.4786549210548401,0.05309952795505524,0.009941695258021355,0.4989645183086395
1,14,0.21,-0.3224940299987793,-0.30388084053993225,-0.32579872012138367,0.2922866642475128,0.10357021540403366,-0.2901560068130493,-0.2279576063156128,-0.3148006796836853,0.11970648169517517,0.20660528540611267,-0.02679053321480751,0.1449008285999298,-11.663171768188477,9.789982795715332,-125.53742218017578,17.163846969604492,61.92170715332031,-150.0,0.0017933243652805686,-0.24380414187908173,0.4793623685836792,0.05921090766787529,0.020072458311915398,0.4816972315311432
1,15,0.22499999999999998,-0.29392680525779724,-0.23047269880771637,-0.28882643580436707,0.3494887351989746,0.03538837283849716,-0.4461075961589813,-0.2077646255493164,-0.26291152834892273,0.14584064483642578,0.2470390498638153,-0.07498543709516525,0.03466515243053436,-6.610834121704102,-3.1576807498931885,-92.76943969726562,10.90124797821045,-93.9912338256836,150.0,-0.005125750787556171,-0.25280454754829407,0.4851306974887848,0.05917060375213623,0.008068406954407692,0.50641268491745
1,16,0.24,-0.170433908700943,-0.17834709584712982,-0.25181683897972107,0.37238895893096924,-0.04412238299846649,-0.5982587933540344,-0.12047263979911804,-0.22606611251831055,0.1720011681318283,0.2632262706756592,-0.1311882734298706,-0.07288417220115662,-11.566315650939941,32.07722854614258,-124.92118835449219,33.92607116699219,51.95800018310547,-150.0,-0.008612933568656445,-0.2601338326931,0.4901682436466217,0.061131928116083145,0.005761950742453337,0.49092739820480347
1,17,0.255,-0.010197914205491543,-0.20432192087173462,-0.19152434170246124,0.39543798565864563,-0.12049539387226105,-0.7323288917541504,-0.007208481431007385,-0.2444266378879547,0.21461942791938782,0.27951866388320923,-0.1851731687784195,-0.16765278577804565,4.518983840942383,14.323535919189453,-88.48190307617188,16.986446380615234,-85.29750061035156,132.4096221923828,-0.015651080757379532,-0.2697572410106659,0.49220725893974304,0.07171289622783661,-0.018442759290337563,0.5045204162597656
1,18,0.27,0.11107037961483002,-0.3082367181777954,-0.11811286956071854,0.365466445684433,-0.19144529104232788,-0.8408463597297668,0.07851102948188782,-0.31787967681884766,0.266510933637619,0.2583330273628235,-0.2353246808052063,-0.24435923993587494,21.18085479736328,13.01689338684082,-80.31678009033203,8.674110412597656,50.08346176147461,-150.0,-0.017461232841014862,-0.27756816148757935,0.49633100628852844,0.07915814965963364,-0.02753957360982895,0.4666242301464081
1,19,0.285,0.18291063606739044,-0.4227791428565979,-0.04793684557080269,0.22385291755199432,-0.24813897907733917,-0.9208003282546997,0.12929192185401917,-0.3988449275493622,0.31611543893814087,0.15823231637477875,-0.2753990888595581,-0.30087530612945557,16.778148651123047,-15.29590892791748,-64.4959716796875,0.44183826446533203,-90.58135223388672,150.0,-0.018197091296315193,-0.2898195683956146,0.5036728978157043,0.08187621086835861,-0.05291173607110977,0.4986841678619385
1,20,0.3,0.14897216856479645,-0.4922804534435272,0.02810753881931305,0.0600716769695282,-0.28062158823013306,-0.9643778800964355,0.10530222952365875,-0.44797250628471375,0.36986804008483887,0.042462170124053955,-0.2983596920967102,-0.33167847990989685,14.763856887817383,-6.129980087280273,-72.04525756835938,-2.074434280395508,44.66874694824219,-150.0,-0.015358719043433666,-0.3043695092201233,0.5143423676490784,0.07862912118434906,-0.06984087824821472,0.5036738514900208
1,21,0.315,0.0010126492707058787,-0.5065398216247559,0.0956321433186531,-0.03446653485298157,-0.2911265194416046,-0.9739935994148254,0.0007157996296882629,-0.458051860332489,0.4175983667373657,-0.0243629589676857,-0.3057851791381836,-0.33847543597221375,-1.2795186042785645,-8.228134155273438,-54.15208435058594,-9.928526878356934,-64.66730499267578,18.896072387695312,-0.010678034275770187,-0.32590171694755554,0.5270427465438843,0.0712079256772995,-0.0679103285074234,0.5003640055656433
1,22,0.32999999999999996,-0.18198144435882568,-0.48413944244384766,0.1380898654460907,-0.09980437904596329,-0.3022318482398987,-0.9705473780632019,-0.12863510847091675,-0.44221797585487366,0.44760996103286743,-0.07054756581783295,-0.31363508105278015,-0.3360394537448883,-21.96472930908203,15.690107345581055,-67.30940246582031,-2.358147621154785,-40.465980529785156,-150.0,-0.007217359729111195,-0.34383222460746765,0.5383158922195435,0.06536687165498734,-0.07124557346105576,0.4873751103878021
1,23,0.345,-0.34589940309524536,-0.4661765694618225,0.1702749878168106,-0.17926278710365295,-0.33928191661834717,-0.9435322284698486,-0.24450188875198364,-0.42952075600624084,0.47036027908325195,-0.12671341001987457,-0.33982422947883606,-0.31694358587265015,-33.64619827270508,6.045785903930664,-45.494789123535156,-17.495635986328125,-37.63385772705078,-150.0,-0.003880186239257455,-0.3524880111217499,0.543705403804779,0.062360670417547226,-0.08065328001976013,0.4942672848701477
1,24,0.36,-0.44023677706718445,-0.4732925593852997,0.20747114717960358,-0.24448740482330322,-0.38896194100379944,-0.856330394744873,-0.3111850619316101,-0.43455076217651367,0.4966526925563812,-0.17281797528266907,-0.37494096159935,-0.2553042769432068,-40.0312385559082,-10.094002723693848,-23.98428726196289,-26.302255630493164,-48.63298034667969,-150.0,-0.0016540406504645944,-0.35716482996940613,0.5459468364715576,0.06053214520215988,-0.08685321360826492,0.49859702587127686
1,25,0.375,-0.4220261573791504,-0.4876549243927002,0.23687440156936646,-0.23040111362934113,-0.4197947382926941,-0.7185873985290527,-0.2983127236366272,-0.4447029232978821,0.5174366235733032,-0.1628609597682953,-0.39673537015914917,-0.15793944895267487,-38.49169158935547,-13.506014823913574,-12.588726043701172,-24.55517578125,-55.62624740600586,-150.0,-0.007012755610048771,-0.3621389865875244,0.5456506013870239,0.06243807077407837,-0.09312380105257034,0.503936231136322
1,26,0.39,-0.3108094334602356,-0.4883861839771271,0.23209410905838013,-0.17700763046741486,-0.42319852113723755,-0.5812020301818848,-0.2196982502937317,-0.44521981477737427,0.5140576362609863,-0.12511932849884033,-0.3991413712501526,-0.06082746386528015,-10.948346138000488,-11.006607055664062,-4.994592666625977,-28.516157150268555,-53.42584228515625,-150.0,-0.017704715952277184,-0.36790117621421814,0.5449728965759277,0.06603410094976425,-0.09890565276145935,0.5096335411071777
1,27,0.40499999999999997,-0.126403346657753,-0.46486714482307434,0.20077693462371826,-0.19564439356327057,-0.4101923704147339,-0.4907703101634979,-0.08934926986694336,-0.4285951852798462,0.4919208288192749,-0.13829287886619568,-0.3899478614330292,0.0030949562788009644,8.385894775390625,-5.706687927246094,-12.013900756835938,-30.963302612304688,-51.20521545410156,-150.0,-0.01982908695936203,-0.3719370365142822,0.5446659922599792,0.06680215150117874,-0.1045914962887764,0.5131837725639343
1,28,0.42,0.10735349357128143,-0.43370866775512695,0.1937752664089203,-0.24049974977970123,-0.3975023329257965,-0.46507546305656433,0.07588371634483337,-0.40657055377960205,0.4869716465473175,-0.16999927163124084,-0.3809778094291687,0.021257564425468445,11.319786071777344,-5.987569808959961,-15.559667587280273,-29.071727752685547,-49.54534149169922,-150.0,-0.018444692716002464,-0.37299948930740356,0.5440022349357605,0.06589565426111221,-0.10779700428247452,0.5147387981414795
1,29,0.435,0.32166722416877747,-0.4145442545413971,0.25271520018577576,-0.24002516269683838,-0.40222352743148804,-0.4853191673755646,0.2273731827735901,-0.3930240273475647,0.5286338329315186,-0.16966380178928375,-0.38431501388549805,0.006948123220354319,27.552698135375977,-5.938439846038818,-2.5824849605560303,-26.995025634765625,-53.74978256225586,-150.0,-0.010235271416604519,-0.3742065727710724,0.5442871451377869,0.061150968074798584,-0.10977473855018616,0.5136672854423523
1,30,0.44999999999999996,0.45593148469924927,-0.3838365077972412,0.36792290210723877,-0.21299846470355988,-0.4263897240161896,-0.5206394195556641,0.3222790062427521,-0.3713180124759674,0.6100693345069885,-0.15055975317955017,-0.40139710903167725,-0.01801830157637596,25.710861206054688,-0.7155637145042419,20.05647850036621,-19.661291122436523,-57.5296745300293,-150.0,0.0033178108278661966,-0.3751859962940216,0.5577191114425659,0.05875982716679573,-0.113578200340271,0.514546275138855
1,31,0.46499999999999997,0.47249314188957214,-0.32017409801483154,0.5059784650802612,-0.11984796822071075,-0.44749316573143005,-0.5585649609565735,0.33398574590682983,-0.326317697763443,0.7076550722122192,-0.08471554517745972,-0.4163142442703247,-0.04482625797390938,20.521814346313477,9.740516662597656,-20.566341400146484,-17.08070182800293,-56.3818473815918,-150.0,0.01963971182703972,-0.3656534254550934,0.5585910677909851,0.06052862107753754,-0.11520512402057648,0.5179430842399597
1,32,0.48,0.3978481590747833,-0.24651353061199188,0.642059326171875,0.03699531778693199,-0.4498941898345947,-0.587213933467865,0.28122231364250183,-0.2742501199245453,0.8038449287414551,0.026150450110435486,-0.4180114269256592,-0.0650770291686058,8.494140625,-11.426572799682617,108.7211685180664,-8.960901260375977,-63.958343505859375,-150.0,0.03964926302433014,-0.3708212375640869,0.6384482383728027,0.05977697670459747,-0.11662512272596359,0.5221679210662842
1,33,0.495,0.34679219126701355,-0.1840738207101822,0.7618164420127869,0.1531834602355957,-0.4566154479980469,-0.5809801816940308,0.24513298273086548,-0.23011410236358643,0.8884962201118469,0.10827901214361191,-0.422762393951416,-0.0606706477701664,-0.61474609375,59.7237548828125,-150.0,6.646631717681885,-58.65522766113281,-150.0,0.06156166270375252,-0.3458344042301178,0.6456894874572754,0.05960845574736595,-0.11510516703128815,0.5245320796966553
1,34,0.51,0.3803047835826874,-0.1020980253815651,0.8586471080780029,0.18982525169849396,-0.47864118218421936,-0.5576728582382202,0.2688216269016266,-0.17216883599758148,0.9569418430328369,0.13417957723140717,-0.4383314847946167,-0.044195666909217834,-7.04789924621582,-56.645572662353516,150.0,9.562455177307129,-75.21998596191406,-150.0,0.07442737370729446,-0.3324379622936249,0.6870136260986328,0.06300291419029236,-0.11995786428451538,0.5302900075912476
1,35,0.525,0.428891658782959,0.03828463703393936,0.9286327958106995,0.16395093500614166,-0.4924007058143616,-0.5527775287628174,0.3031656742095947,-0.07293818891048431,1.0064117908477783,0.11589009314775467,-0.44805750250816345,-0.04073535278439522,21.134042739868164,74.95873260498047,-150.0,-2.01686954498291,-54.62628936767578,-150.0,0.09570980817079544,-0.29941460490226746,0.6864094138145447,0.061101242899894714,-0.11966229975223541,0.5317186117172241
1,36,0.54,0.38564831018447876,0.2095542550086975,0.9724647402763367,0.05602160841226578,-0.4855671226978302,-0.5609531402587891,0.2725987434387207,0.04812515154480934,1.0373947620391846,0.03959934413433075,-0.4432271420955658,-0.046514369547367096,-19.61021614074707,-34.572853088378906,150.0,5.933701515197754,-76.12157440185547,-150.0,0.11771690845489502,-0.2746897339820862,0.7166298627853394,0.05330448970198631,-0.12325327843427658,0.5300790071487427
1,37,0.5549999999999999,0.2226254940032959,0.3576878607273102,0.9759836792945862,-0.1058439239859581,-0.4626436233520508,-0.5683908462524414,0.15736469626426697,0.15283462405204773,1.0398821830749512,-0.07481666654348373,-0.4270234704017639,-0.05177175626158714,-13.314901351928711,85.46234130859375,-150.0,-7.243757247924805,-51.20034408569336,-150.0,0.12454380840063095,-0.21960029006004333,0.6971597075462341,0.05352167412638664,-0.12423094362020493,0.5303928256034851
1,38,0.57,-0.008707036264240742,0.4590851366519928,0.9046191573143005,-0.2621651887893677,-0.42664510011672974,-0.5735347270965576,-0.006154641509056091,0.2245081216096878,0.9894375205039978,-0.1853136569261551,-0.4015776216983795,-0.05540776625275612,-20.31999969482422,-57.016014099121094,150.0,-31.9491024017334,-62.266944885253906,-150.0,0.11990827322006226,-0.170781672000885,0.7084990739822388,0.05419493839144707,-0.126070037484169,0.5306337475776672
1,39,0.585,-0.22240856289863586,0.5175918340682983,0.7497826814651489,-0.3612549304962158,-0.37343305349349976,-0.5814414620399475,-0.15721136331558228,0.2658640742301941,0.8799901008605957,-0.2553560733795166,-0.3639642298221588,-0.06099671125411987,-16.09006118774414,50.77216339111328,-150.0,-40.079437255859375,-42.25322723388672,-150.0,0.10056569427251816,-0.10332874953746796,0.6770668625831604,0.060826677829027176,-0.1245451495051384,0.5321264863014221
1,40,0.6,-0.3136870861053467,0.5444997549057007,0.5277433395385742,-0.3234351575374603,-0.30354759097099304,-0.5797724723815918,-0.22173234820365906,0.28488415479660034,0.7230397462844849,-0.22862285375595093,-0.31456512212753296,-0.05981699377298355,-8.125129699707031,-79.02328491210938,150.0,-46.2790412902832,-48.88933563232422,-150.0,0.07488001137971878,-0.061131805181503296,0.6843865513801575,0.06501761823892593,-0.1256474405527115,0.5330954790115356
1,41,0.615,-0.24404288828372955,0.5194966197013855,0.25593915581703186,-0.15375562012195587,-0.23400673270225525,-0.5449586510658264,-0.1725037693977356,0.2672104835510254,0.5309126973152161,-0.10868345201015472,-0.26540958881378174,-0.0352085679769516,10.252620697021484,53.66364288330078,-150.0,-25.70203399658203,-19.80429458618164,-150.0,0.053844522684812546,-0.008085808716714382,0.653044581413269,0.0632338598370552,-0.12356022745370865,0.5275492668151855
1,42,0.63,-0.06453238427639008,0.4049282968044281,-0.034010592848062515,0.01868652179837227,-0.17628255486488342,-0.48868051171302795,-0.04561525583267212,0.18622691929340363,0.32595932483673096,0.013208724558353424,-0.22460678219795227,0.004572112113237381,9.90340805053711,-99.58415222167969,150.0,-0.8280482292175293,-30.767179489135742,-127.01713562011719,0.04332907497882843,0.019248582422733307,0.666386604309082,0.0507931113243103,-0.11891970038414001,0.5162501931190491
1,43,0.645,0.13920415937900543,0.22345510125160217,-0.3052046298980713,0.11781376600265503,-0.1150510385632515,-0.4365343749523163,0.0983976274728775,0.05795109272003174,0.13426357507705688,0.08327765017747879,-0.1813247799873352,0.04143206402659416,20.288604736328125,21.74732780456543,-150.0,23.666444778442383,-17.636856079101562,-115.00733947753906,0.0402974933385849,0.044782835990190506,0.64937824010849,0.03433656319975853,-0.109705850481987,0.5021575689315796
1,44,0.6599999999999999,0.2624413073062897,0.05750828981399536,-0.5384849905967712,0.2001463919878006,-0.046639181673526764,-0.3912748396396637,0.1855088472366333,-0.05934979021549225,-0.030632585287094116,0.1414751559495926,-0.1329672932624817,0.07342413812875748,15.626263618469238,-104.17597961425781,105.82049560546875,35.452064514160156,-24.723968505859375,-83.48321533203125,0.03659801930189133,0.04480700567364693,0.6412197351455688,0.022554006427526474,-0.10765447467565536,0.49371832609176636
1,45,0.6749999999999999,0.2531719505786896,-0.03719193488359451,-0.7268325686454773,0.24500931799411774,0.00804224330931902,-0.3475596010684967,0.17895671725273132,-0.12628942728042603,-0.16376763582229614,0.17318689823150635,-0.09431527554988861,0.10432461649179459,28.49371337890625,14.284263610839844,-150.0,28.023426055908203,7.579394340515137,-109.93311309814453,0.02744271792471409,0.049248140305280685,0.5721294283866882,0.022708047181367874,-0.10571838915348053,0.49259403347969055
1,46,0.69,0.19884467124938965,-0.07286759465932846,-0.8553495407104492,0.16987955570220947,0.020918594673275948,-0.30676648020744324,0.1405550241470337,-0.15150706470012665,-0.25461095571517944,0.12008079141378403,-0.08521351963281631,0.1331595778465271,24.556880950927734,-89.62278747558594,150.0,6.478583812713623,-0.08476495742797852,-106.46127319335938,0.019761787727475166,0.028081730008125305,0.5487486124038696,0.026878777891397476,-0.10765426605939865,0.49504002928733826
1,47,0.705,0.1863020807504654,-0.08275911957025528,-0.9219596982002258,0.025227554142475128,-0.016464857384562492,-0.26823559403419495,0.131689190864563,-0.15849897265434265,-0.3016948401927948,0.017832309007644653,-0.11163832247257233,0.16039544343948364,24.927043914794922,49.68986511230469,-150.0,-8.104280471801758,10.439095497131348,-116.26837921142578,0.022555572912096977,0.01801522634923458,0.4861316978931427,0.027287280187010765,-0.10333894193172455,0.4925159811973572
1,48,0.72,0.16363626718521118,-0.10630379617214203,-0.9461482763290405,-0.11429513245820999,-0.0751243606209755,-0.2219708263874054,0.1156676709651947,-0.17514172196388245,-0.3187927007675171,-0.08079047501087189,-0.15310227870941162,0.19309808313846588,-1.5218000411987305,-72.63334655761719,150.0,-10.2896089553833,-23.975595474243164,-72.51021575927734,0.02956693060696125,-0.0140341492369771,0.46751296520233154,0.023678626865148544,-0.10131910443305969,0.49006274342536926
1,49,0.735,0.06434398144483566,-0.18878135085105896,-0.9261853694915771,-0.22865141928195953,-0.11933381855487823,-0.18006138503551483,0.0454820841550827,-0.23344165086746216,-0.30468183755874634,-0.16162417829036713,-0.1843520998954773,0.2227221131324768,-3.6800432205200195,64.29902648925781,-150.0,-17.467350006103516,-12.43805980682373,-83.34700775146484,0.031252115964889526,-0.029310284182429314,0.44706445932388306,0.023043226450681686,-0.10069102793931961,0.4887998104095459
1,50,0.75,-0.10391655564308167,-0.3205438554286957,-0.8292489051818848,-0.25860893726348877,-0.1333877295255661,-0.16675646603107452,-0.07345429062843323,-0.3265790641307831,-0.23616144061088562,-0.18279989063739777,-0.19428622722625732,0.23212680220603943,-7.0570387840271,-71.6935806274414,-150.0,-29.846603393554688,-30.32836151123047,-61.94955825805664,0.029713435098528862,-0.023574570193886757,0.4410059154033661,0.024186795577406883,-0.09859767556190491,0.48291337490081787
1,51,0.765,-0.3025306463241577,-0.41895386576652527,-0.6473764181137085,-0.22183698415756226,-0.09560573846101761,-0.18144860863685608,-0.2138463258743286,-0.396140992641449,-0.10760340094566345,-0.1568073332309723,-0.16757971048355103,0.22174154222011566,-29.379995346069336,-88.3686294555664,-146.08694458007812,-21.255203247070312,-22.386489868164062,-57.15378952026367,0.028683898970484734,-0.018394572660326958,0.43435585498809814,0.024862540885806084,-0.09613332152366638,0.4763432741165161
1,52,0.78,-0.4473419487476349,-0.4034978151321411,-0.435903936624527,-0.23669584095478058,0.005631776060909033,-0.2164791077375412,-0.3162074089050293,-0.38521575927734375,0.04187767952680588,-0.1673104465007782,-0.09601913392543793,0.19697993993759155,-40.22120666503906,-90.5784912109375,-98.35810852050781,-24.026578903198242,-9.432229995727539,-64.27481079101562,0.029210390523076057,-0.014603309333324432,0.4297942817211151,0.02400043234229088,-0.09373846650123596,0.46920648217201233
1,53,0.7949999999999999,-0.44680631160736084,-0.2785932123661041,-0.2666253447532654,-0.2747591733932495,0.13474196195602417,-0.2517903745174408,-0.315828800201416,-0.2969259023666382,0.1615336686372757,-0.1942158192396164,-0.004756532609462738,0.17201988399028778,-43.51883316040039,-65.16720581054688,-67.03157043457031,-24.0684871673584,15.33658218383789,-68.75017547607422,0.0354408323764801,-0.01333295926451683,0.42956849932670593,0.01752520352602005,-0.08946139365434647,0.4582895040512085
1,54,0.8099999999999999,-0.3623610734939575,-0.13152334094047546,-0.17875586450099945,-0.23165343701839447,0.22986198961734772,-0.27100762724876404,-0.2561379671096802,-0.19296836853027344,0.2236449271440506,-0.163746178150177,0.062479838728904724,0.15843600034713745,-47.227935791015625,-41.06774139404297,-62.518798828125,-9.633495330810547,22.601268768310547,-57.59537887573242,0.041703641414642334,-0.008126284927129745,0.42904409766197205,0.011081544682383537,-0.08049085736274719,0.44622063636779785
1,55,0.825,-0.3357095420360565,-0.058330971747636795,-0.16800931096076965,-0.12718898057937622,0.2530624270439148,-0.2731409966945648,-0.2372990995645523,-0.1412317305803299,0.23124122619628906,-0.08990459889173508,0.07887925207614899,0.15692801773548126,-39.557640075683594,-40.72808074951172,-51.8729248046875,-5.883486747741699,17.214012145996094,-56.810035705566406,0.04574756696820259,-0.0009806901216506958,0.42664995789527893,0.0069342805072665215,-0.06979157030582428,0.43451279401779175
1,56,0.84,-0.33837559819221497,-0.058016929775476456,-0.21439559757709503,7.9369319792022e-06,0.23024119436740875,-0.23797671496868134,-0.23918363451957703,-0.14100974798202515,0.19845269620418549,5.610287189483643e-06,0.06274789571762085,0.18178418278694153,-39.838600158691406,-41.97550964355469,-58.4035758972168,4.492313861846924,10.09218978881836,-45.8204345703125,0.05061827227473259,0.002174870576709509,0.4253658354282379,0.002181984018534422,-0.060415029525756836,0.422626793384552
1,57,0.855,-0.24651259183883667,-0.06963512301445007,-0.3016418516635895,0.15734195709228516,0.19967637956142426,-0.15569628775119781,-0.17424950003623962,-0.14922216534614563,0.1367819607257843,0.11121848225593567,0.04114289581775665,0.23994478583335876,-33.95640563964844,-34.258209228515625,-80.4446029663086,19.5550537109375,8.405878067016602,-24.888410568237305,0.053935706615448,0.004142468329519033,0.4241393804550171,-0.0010958538623526692,-0.05336146429181099,0.4118558168411255
1,58,0.87,-0.05368620902299881,-0.08251382410526276,-0.4100436866283417,0.33736222982406616,0.18235526978969574,-0.033624012023210526,-0.037948548793792725,-0.15832558274269104,0.06015720218420029,0.23846732079982758,0.028899338096380234,0.32623258233070374,-15.317312240600586,-37.07920455932617,-103.44217681884766,33.0546875,7.1491289138793945,1.5297679901123047,0.04961036518216133,0.007820460945367813,0.4194771647453308,0.007717134431004524,-0.0467032752931118,0.40442490577697754
1,59,0.885,0.15527468919754028,-0.12193502485752106,-0.5156555771827698,0.4859325885772705,0.20247678458690643,0.12569433450698853,0.10975721478462219,-0.18619078397750854,-0.014495395123958588,0.3434855341911316,0.04312238469719887,0.438848078250885,15.991191864013672,-46.06757736206055,-113.72203063964844,20.72819709777832,3.712038993835449,28.165008544921875,0.046659115701913834,0.009256563149392605,0.41720160841941833,0.0217195563018322,-0.039824679493904114,0.41887810826301575
1,60,0.8999999999999999,0.31659960746765137,-0.20070554316043854,-0.5938116312026978,0.5128375291824341,0.2599722146987915,0.30233442783355713,0.22379109263420105,-0.24187038838863373,-0.06974069774150848,0.3625035285949707,0.08376351743936539,0.5637075901031494,21.22414207458496,-53.95112228393555,-143.23399353027344,23.851497650146484,14.017149925231934,-39.157691955566406,0.041554179042577744,0.012176958844065666,0.4130644202232361,0.043545156717300415,-0.02358243428170681,0.40978679060935974
1,61,0.9149999999999999,0.4390435218811035,-0.2767524719238281,-0.6427397131919861,0.42122986912727356,0.33317244052886963,0.4682846963405609,0.31034159660339355,-0.2956247627735138,-0.10432589054107666,0.2977498769760132,0.13550569117069244,0.681010901927948,43.02488708496094,-69.92094421386719,-133.681884765625,-5.880918502807617,-7.348751068115234,150.0,0.03636512532830238,0.01069572288542986,0.4111214876174927,0.06316950172185898,-0.032848697155714035,0.5064971446990967
1,62,0.9299999999999999,0.5356984734535217,-0.3262704908847809,-0.6684178113937378,0.3376059830188751,0.3917153477668762,0.5782294273376465,0.37866294384002686,-0.3306269943714142,-0.12247666716575623,0.23863962292671204,0.17688724398612976,0.7587262392044067,45.94282913208008,-63.87961196899414,-150.0,1.79608154296875,93.60641479492188,-150.0,0.04311776161193848,0.00844151247292757,0.4142600893974304,0.07023566216230392,-0.005312525201588869,0.5436195731163025
1,63,0.945,0.5445568561553955,-0.36373573541641235,-0.6531949043273926,0.2880367040634155,0.4161136746406555,0.5798642039299011,0.38492459058761597,-0.35710960626602173,-0.11171621084213257,0.2036011666059494,0.19413340091705322,0.7598817944526672,26.918254852294922,-75.6759262084961,-150.0,10.37791633605957,-67.38488006591797,150.0,0.044452518224716187,0.003435493679717183,0.4152665436267853,0.08149795979261398,0.009105086326599121,0.6155582666397095
1,64,0.96,0.4198838174343109,-0.37517663836479187,-0.5903522968292236,0.2213466465473175,0.41103145480155945,0.46810483932495117,0.2967984080314636,-0.36519670486450195,-0.06729540973901749,0.1564607322216034,0.19054099917411804,0.6808837652206421,33.48052978515625,-67.98700714111328,-148.88954162597656,-8.952668190002441,61.596656799316406,-150.0,0.04824741929769516,0.0009315439965575933,0.4170758128166199,0.08919255435466766,0.041223764419555664,0.6463659405708313
1,65,0.975,0.20304234325885773,-0.3398743271827698,-0.5033266544342041,0.17065371572971344,0.3704402446746826,0.2619193494319916,0.14352218806743622,-0.34024298191070557,-0.005780600011348724,0.12062801420688629,0.1618487536907196,0.5351398587226868,4.4870147705078125,-71.80843353271484,-124.7035140991211,-3.5703001022338867,-78.38842010498047,150.0,0.04390651360154152,-0.003885421436280012,0.4161307215690613,0.0997876524925232,0.05121532455086708,0.7180847525596619
1,66,0.99,-0.040556374937295914,-0.24597381055355072,-0.4202127456665039,0.14035776257514954,0.3040410578250885,0.0002779297064989805,-0.028667613863945007,-0.2738686203956604,0.05296914279460907,0.09921306371688843,0.1149139329791069,0.3501964509487152,-0.04457855224609375,-45.966957092285156,-111.38079071044922,-12.67061710357666,44.878501892089844,-150.0,0.040736738592386246,-0.007836966775357723,0.4163535237312317,0.10511013120412827,0.07032334804534912,0.7544193863868713
1,67,1.005,-0.2297033816576004,-0.11490161716938019,-0.3693123161792755,0.13460321724414825,0.23370864987373352,-0.2647545635700226,-0.16236776113510132,-0.1812191605567932,0.08894852548837662,0.09514541923999786,0.0651988834142685,0.16285604238510132,-20.46390724182129,-33.131168365478516,-93.51319885253906,-6.842120170593262,-74.9783935546875,-12.253158569335938,0.037866611033678055,-0.013679329305887222,0.41644591093063354,0.10633181035518646,0.0941721573472023,0.6955227255821228
1,68,1.02,-0.29173532128334045,0.019773051142692566,-0.35297131538391113,0.1447654366493225,0.1795286238193512,-0.5022423267364502,-0.20621556043624878,-0.0860232561826706,0.10049930214881897,0.10232866555452347,0.02690128982067108,-0.005014166235923767,-27.852033615112305,-4.740847587585449,-101.2366943359375,2.9483180046081543,-38.508323669433594,-36.792510986328125,0.03898695856332779,-0.016538938507437706,0.42015132308006287,0.10091477632522583,0.10461658239364624,0.6083933115005493
1,69,1.035,-0.27784237265586853,0.11225992441177368,-0.331291139125824,0.12866172194480896,0.1697431355714798,-0.6970981955528259,-0.19639521837234497,-0.02064814418554306,0.11582410335540771,0.09094561636447906,0.019984345883131027,-0.1427496373653412,-32.352752685546875,4.044044017791748,-106.55956268310547,9.234394073486328,-31.967212677001953,74.50643920898438,0.0351947620511055,-0.015710653737187386,0.42136889696121216,0.0992288887500763,0.09380915760993958,0.5706000328063965
1,70,1.05,-0.2793663442134857,0.10809879004955292,-0.29133909940719604,0.09300096333026886,0.2031172811985016,-0.8452180027961731,-0.1974724531173706,-0.023589476943016052,0.1440645456314087,0.06573851406574249,0.04357513040304184,-0.2474493533372879,-20.460819244384766,-0.7532321214675903,-87.2206039428711,-3.2300009727478027,29.547622680664062,-150.0,0.03229939565062523,-0.013241304084658623,0.4202916920185089,0.09644262492656708,0.10723742842674255,0.4453149735927582
1,71,1.065,-0.30836352705955505,0.012402202002704144,-0.2554735243320465,0.04557385295629501,0.23563918471336365,-0.9494010806083679,-0.2179693579673767,-0.09123340249061584,0.1694164276123047,0.03221426159143448,0.06656350195407867,-0.32109206914901733,-27.67325210571289,-19.625606536865234,-69.49868774414062,-2.8879289627075195,-72.83444213867188,150.0,0.0315140001475811,-0.017205849289894104,0.4235694110393524,0.08789388835430145,0.09576836973428726,0.38174372911453247
1,72,1.08,-0.3763558864593506,-0.11788830906152725,-0.22109058499336243,0.04798364266753197,0.20388059318065643,-1.0,-0.26603031158447266,-0.18333032727241516,0.193720281124115,0.033917639404535294,0.04411468654870987,-0.36558425426483154,-38.09695816040039,-23.090120315551758,-91.99909973144531,12.058145523071289,63.352195739746094,-150.0,0.0319925881922245,-0.022923721000552177,0.42840030789375305,0.07973243296146393,0.1007208526134491,0.2902718782424927
1,73,1.095,-0.48576024174690247,-0.22149315476417542,-0.17311428487300873,0.08957269787788391,0.07814223319292068,-0.9919946789741516,-0.3433637022972107,-0.25656425952911377,0.22763273119926453,0.06331521272659302,-0.04476451873779297,-0.3511996567249298,-50.0651969909668,-59.08351135253906,-75.08847045898438,2.171372175216675,-89.94871520996094,-79.55934143066406,0.03609691187739372,-0.02961660362780094,0.4308587908744812,0.0761287659406662,0.09237784892320633,0.2923378646373749
1,74,1.1099999999999999,-0.5711384415626526,-0.23435203731060028,-0.12120142579078674,0.04952278360724449,-0.09520827978849411,-0.8509542942047119,-0.40371400117874146,-0.26565366983413696,0.2643277645111084,0.0350055955350399,-0.16729876399040222,-0.2515040934085846,-59.848628997802734,-37.41973876953125,-64.96778106689453,1.7640666961669922,-51.47342300415039,-150.0,0.044509392231702805,-0.03566048666834831,0.43724220991134644,0.0673464760184288,0.09528669714927673,0.28350090980529785
1,75,1.125,-0.5967608690261841,-0.12673388421535492,-0.0940602719783783,-0.08845695108175278,-0.22691497206687927,-0.6350956559181213,-0.42182543873786926,-0.18958289921283722,0.2835127115249634,-0.06252653896808624,-0.26039671897888184,-0.09892261028289795,-68.61172485351562,-27.867704391479492,-60.00530242919922,-2.686539649963379,-83.06436157226562,-86.20389556884766,0.045969609171152115,-0.0402776375412941,0.43901386857032776,0.06552967429161072,0.09546711295843124,0.27906060218811035
1,76,1.14,-0.5976583957672119,0.05083201080560684,-0.0993775725364685,-0.26977935433387756,-0.2668602764606476,-0.41254594922065735,-0.42245984077453613,-0.06406897306442261,0.2797541320323944,-0.19069580733776093,-0.2886323928833008,0.05838847905397415,-54.41469192504883,-0.9579453468322754,-50.70844268798828,-32.55498123168945,-82.29736328125,-62.62725830078125,0.04526980221271515,-0.045239582657814026,0.44271671772003174,0.0660666897892952,0.09304498136043549,0.2796957194805145
1,77,1.155,-0.5971466302871704,0.20024468004703522,-0.10990901291370392,-0.42991989850997925,-0.23960727453231812,-0.24419045448303223,-0.4220981001853943,0.04154461622238159,0.27230989933013916,-0.30389249324798584,-0.26936838030815125,0.17739194631576538,-54.67037582397461,27.019254684448242,-66.49494934082031,-45.80791473388672,-72.63013458251953,-35.68906021118164,0.04478137195110321,-0.05000430718064308,0.44832542538642883,0.06492579728364944,0.08775778114795685,0.2865012288093567
1,78,1.17,-0.563082754611969,0.2391265481710434,-0.10855532437562943,-0.532126247882843,-0.20617927610874176,-0.1601039469242096,-0.39801979064941406,0.0690285861492157,0.2732667624950409,-0.376137912273407,-0.24573951959609985,0.23682919144630432,-56.2384147644043,35.57136154174805,-77.53163146972656,-45.6220703125,-58.53593444824219,-35.64614486694336,0.049984801560640335,-0.05651386082172394,0.45730912685394287,0.054956693202257156,0.07821483165025711,0.294879674911499
1,79,1.185,-0.46914002299308777,0.1756247729063034,-0.11838190257549286,-0.5608768463134766,-0.19655460119247437,-0.14747177064418793,-0.3316155672073364,0.024141816422343254,0.26632076501846313,-0.39646050333976746,-0.23893626034259796,0.24575835466384888,-55.408660888671875,29.697952270507812,-88.05244445800781,-36.84123229980469,-50.884700775146484,-34.24531555175781,0.061116788536310196,-0.0637509748339653,0.46864911913871765,0.03772776946425438,0.06992938369512558,0.3003760576248169
1,80,1.2,-0.35217565298080444,0.0907658264040947,-0.15693864226341248,-0.45952799916267395,-0.2053753286600113,-0.19069623947143555,-0.24893830716609955,-0.035841427743434906,0.23906661570072174,-0.32482123374938965,-0.24517126381397247,0.21520477533340454,-55.46438980102539,21.889846801757812,-106.03581237792969,-16.649429321289062,-52.823936462402344,-32.78327560424805,0.06657473742961884,-0.06929365545511246,0.4750259518623352,0.027852792292833328,0.057766951620578766,0.3081318438053131
1,81,1.2149999999999999,-0.20306918025016785,0.031644996255636215,-0.21082107722759247,-0.2931155264377594,-0.22907938063144684,-0.26799893379211426,-0.143541157245636,-0.07763147354125977,0.20097936689853668,-0.20719116926193237,-0.26192665100097656,0.16056273877620697,-27.998323440551758,5.762518882751465,-95.6842269897461,-20.258197784423828,-45.408782958984375,-62.168701171875,0.06039385870099068,-0.07096103578805923,0.47281613945961,0.03357455134391785,0.05108555033802986,0.31583893299102783
1,82,1.23,-0.025630788877606392,-0.007974468171596527,-0.23497429490089417,-0.21849983930587769,-0.2530715763568878,-0.35367298126220703,-0.01811733841896057,-0.10563682019710541,0.1839064657688141,-0.15444844961166382,-0.27888572216033936,0.10000331699848175,2.260225296020508,-6.817266941070557,-77.54813385009766,-34.317626953125,-61.31409454345703,-83.35742950439453,0.06666845083236694,-0.07758472859859467,0.4771983027458191,0.027203097939491272,0.049388982355594635,0.31271234154701233
1,83,1.2449999999999999,0.09830767661333084,-0.024184785783290863,-0.18228816986083984,-0.23775389790534973,-0.26503026485443115,-0.4381062984466553,0.06948960572481155,-0.1170952171087265,0.22114808857440948,-0.1680583357810974,-0.28733882308006287,0.04032093286514282,-17.75112533569336,6.823473930358887,-100.41755676269531,-5.085361480712891,-74.68954467773438,-57.664337158203125,0.08107618987560272,-0.08700155466794968,0.48582252860069275,0.01275413203984499,0.04988078027963638,0.3037523627281189
1,84,1.26,0.17640474438667297,0.015687312930822372,-0.05514707788825035,-0.23019447922706604,-0.2677619457244873,-0.5186445116996765,0.12469317764043808,-0.08891129493713379,0.31101882457733154,-0.1627148985862732,-0.28926974534988403,-0.016608182340860367,-14.578112602233887,15.7743501663208,-80.89256286621094,-1.415262222290039,-73.9852523803711,-64.20782470703125,0.09042125195264816,-0.09252596646547318,0.49084460735321045,0.003585727885365486,0.04864590987563133,0.2981525957584381
1,85,1.275,0.22638319432735443,0.11275103688240051,0.12023790180683136,-0.12034332007169724,-0.25342613458633423,-0.581393837928772,0.1600208580493927,-0.02030099928379059,0.43499115109443665,-0.08506568521261215,-0.2791363596916199,-0.06096304953098297,-1.6399726867675781,20.677146911621094,-33.707801818847656,-0.9359273910522461,-70.11739349365234,-89.101318359375,0.10108879953622818,-0.09663555026054382,0.49661147594451904,-0.006738385651260614,0.04848526418209076,0.2917397916316986
1,86,1.29,0.18558605015277863,0.21016810834407806,0.3177969753742218,0.013260948471724987,-0.22787204384803772,-0.6225413084030151,0.13118305802345276,0.04855905473232269,0.5746374130249023,0.009373612701892853,-0.2610732316970825,-0.09004847705364227,-10.96351146697998,38.24706268310547,0.5960235595703125,16.091527938842773,-64.49028778076172,-92.58241271972656,0.11063168942928314,-0.09915667772293091,0.502047598361969,-0.016278833150863647,0.04822680354118347,0.2867691218852997
1,87,1.305,0.10687437653541565,0.2804848849773407,0.5097723603248596,0.07740312814712524,-0.2223568707704544,-0.6456893682479858,0.0755450502038002,0.09826306253671646,0.7103368043899536,0.05471305176615715,-0.2571747899055481,-0.10641087591648102,-17.552614212036133,48.01307678222656,38.788307189941406,21.626880645751953,-64.95923614501953,-100.68443298339844,0.11585476249456406,-0.09795396775007248,0.5333967804908752,-0.025164317339658737,0.04723011702299118,0.2826458811759949
1,88,1.3199999999999998,0.11530352383852005,0.34579792618751526,0.6770769953727722,0.11919048428535461,-0.24872823059558868,-0.6464070677757263,0.08150326460599899,0.14443013072013855,0.8285974860191345,0.0842507928609848,-0.27581560611724854,-0.10691817849874496,-6.1671833992004395,41.33663558959961,-47.20970916748047,24.51980209350586,-64.76776123046875,-104.27632141113281,0.11622465401887894,-0.074649378657341,0.5318994522094727,-0.03275240957736969,0.043084654957056046,0.2789369821548462
1,89,1.335,0.2108021229505539,0.39467158913612366,0.8026122450828552,0.19435232877731323,-0.27536749839782715,-0.6468944549560547,0.14900724589824677,0.1789768934249878,0.9173331260681152,0.13737957179546356,-0.2946457862854004,-0.10726270824670792,5.196528911590576,-7.512248992919922,150.0,29.862823486328125,-61.58423614501953,-103.84236145019531,0.11332128196954727,-0.07130486518144608,0.625101625919342,-0.04077741876244545,0.03255566582083702,0.2790793180465698
1,90,1.3499999999999999,0.33872276544570923,0.3998127579689026,0.8365810513496399,0.25516456365585327,-0.27827927470207214,-0.6649420857429504,0.2394290268421173,0.18261095881462097,0.9413442611694336,0.18036521971225739,-0.2967039942741394,-0.1200198233127594,23.114097595214844,82.09269714355469,-150.0,36.974464416503906,-44.7685546875,-126.62669372558594,0.11194740235805511,-0.03353456035256386,0.6652610301971436,-0.0460280179977417,0.025794338434934616,0.2787986099720001
1,91,1.365,0.4794556498527527,0.3784150779247284,0.7272666692733765,0.2067016214132309,-0.2519036829471588,-0.678877592086792,0.33890724182128906,0.16748583316802979,0.8640744090080261,0.14610877633094788,-0.2780601978302002,-0.12987026572227478,24.742557525634766,-82.04634857177734,150.0,28.632999420166016,-59.77151107788086,-114.23887634277344,0.11371874064207077,-0.008439804427325726,0.7394829392433167,-0.04959549382328987,0.016073262318968773,0.282770037651062
1,92,1.38,0.6139054298400879,0.35957348346710205,0.49339500069618225,0.0591169074177742,-0.19881540536880493,-0.6610904335975647,0.4339442253112793,0.15416748821735382,0.6987603306770325,0.0417872816324234,-0.24053432047367096,-0.11729724705219269,38.551513671875,39.45954513549805,-150.0,13.470335006713867,-32.45799255371094,-146.62191772460938,0.11652036011219025,0.0288389939814806,0.7747669219970703,-0.04487890750169754,0.010970206931233406,0.2919132709503174
1,93,1.395,0.6926857829093933,0.3483802378177643,0.1954430639743805,-0.114864781498909,-0.14773151278495789,-0.6047192215919495,0.4896307587623596,0.1462554633617401,0.48815053701400757,-0.08119313418865204,-0.20442524552345276,-0.07745076715946198,38.10669708251953,-82.49580383300781,80.78958892822266,-15.8183012008667,-42.601253509521484,-135.447021484375,0.12837643921375275,0.05200950801372528,0.7892102003097534,-0.0380861759185791,0.004954184405505657,0.301730215549469
1,94,1.41,0.6496111750602722,0.35790959000587463,-0.11174890398979187,-0.29654183983802795,-0.11077601462602615,-0.5422114729881287,0.45918312668800354,0.15299133956432343,0.2710093557834625,-0.20961308479309082,-0.17830294370651245,-0.03326667100191116,19.884029388427734,20.306535720825195,-150.0,-30.2016544342041,-25.319873809814453,-136.06134033203125,0.1504182368516922,0.08242213726043701,0.7286603450775146,-0.03205319494009018,0.0053428709506988525,0.3081648051738739
1,95,1.425,0.4653775990009308,0.38961726427078247,-0.38020795583724976,-0.4367556869983673,-0.08858839422464371,-0.500048041343689,0.32895606756210327,0.17540417611598969,0.08124685287475586,-0.30872443318367004,-0.1626194417476654,-0.0034630782902240753,-13.382804870605469,-68.29237365722656,150.0,-40.50279998779297,-42.10076141357422,-102.98077392578125,0.1670646071434021,0.09501081705093384,0.7082253694534302,-0.024639340117573738,0.004689167719334364,0.3163090646266937
1,96,1.44,0.24966654181480408,0.406538724899292,-0.587895929813385,-0.5034259557723999,-0.08718223869800568,-0.45659300684928894,0.17647889256477356,0.18736526370048523,-0.06555908173322678,-0.35585087537765503,-0.16162548959255219,0.02725345455110073,-8.110759735107422,38.74557876586914,-150.0,-55.62514114379883,-28.774038314819336,-124.99866485595703,0.16983674466609955,0.11856314539909363,0.6481314301490784,-0.009411288425326347,0.004843058064579964,0.32777827978134155
1,97,1.4549999999999998,0.12577764689922333,0.39643436670303345,-0.7350270748138428,-0.5605691075325012,-0.10270529985427856,-0.39341580867767334,0.08890698850154877,0.18022292852401733,-0.16955995559692383,-0.39624297618865967,-0.17259809374809265,0.0719107836484909,-10.212124824523926,-67.50335693359375,150.0,-68.92644500732422,-39.9636116027832,-102.95902252197266,0.17340369522571564,0.11966575682163239,0.6310940980911255,-0.0010748018976300955,0.004580664914101362,0.33505094051361084
1,98,1.47,0.04440627247095108,0.3692907392978668,-0.8182429075241089,-0.6417837738990784,-0.13088873028755188,-0.3419208526611328,0.03138894587755203,0.16103622317314148,-0.22838178277015686,-0.45365023612976074,-0.19251978397369385,0.10831040889024734,-23.60856056213379,57.74040985107422,-150.0,-59.01150131225586,-39.81068420410156,-86.27223205566406,0.17054148018360138,0.1318022608757019,0.5743101835250854,0.006691822316497564,0.0036663254722952843,0.341823011636734
1,99,1.4849999999999999,-0.039219632744789124,0.3292788863182068,-0.8484012484550476,-0.7015084624290466,-0.16672104597091675,-0.3312044143676758,-0.02772272564470768,0.13275352120399475,-0.2496994286775589,-0.49586713314056396,-0.21784815192222595,0.1158854067325592,-13.999268531799316,-68.4983139038086,150.0,-73.76322937011719,-44.778079986572266,-83.04254913330078,0.15905730426311493,0.12408243119716644,0.5588713884353638,0.014889070764183998,-0.006294275633990765,0.3523857593536377
1,100,1.5,-0.09207485616207123,0.25983530282974243,-0.8460853099822998,-0.7179843187332153,-0.2042541354894638,-0.3467348515987396,-0.06508388370275497,0.08366672694683075,-0.24806241691112518,-0.5075132250785828,-0.2443787306547165,0.10490758717060089,-2.900979995727539,55.850555419921875,-150.0,-76.76716613769531,-24.296594619750977,-114.40408325195312,0.14217686653137207,0.1289530247449875,0.5016605854034424,0.024777404963970184,-0.017419178038835526,0.36309537291526794
1,101,1.515,-0.16762946546077728,0.13560751080513,-0.8235442638397217,-0.7338079810142517,-0.23545216023921967,-0.36826595664024353,-0.1184902936220169,-0.004144713282585144,-0.2321290671825409,-0.5186983346939087,-0.2664313018321991,0.08968814462423325,-9.600988388061523,-86.49551391601562,150.0,-78.53936767578125,-36.18706512451172,-102.22386169433594,0.12617318332195282,0.10977234691381454,0.4904705584049225,0.029517842456698418,-0.030281120911240578,0.37147316336631775
1,102,1.53,-0.2767930030822754,-0.018987853080034256,-0.780118465423584,-0.7562263607978821,-0.24570836126804352,-0.36937183141708374,-0.19565346837043762,-0.1134217232465744,-0.2014331817626953,-0.5345449447631836,-0.27368098497390747,0.08890645951032639,-12.161569595336914,42.32659912109375,-150.0,-74.30538940429688,-25.67386817932129,-113.56315612792969,0.10910027474164963,0.09900244325399399,0.44217315316200256,0.030687570571899414,-0.040100593119859695,0.37564992904663086
1,103,1.545,-0.3165222406387329,-0.17257459461688995,-0.7271343469619751,-0.7310609221458435,-0.23228400945663452,-0.32150760293006897,-0.22373640537261963,-0.22198578715324402,-0.16398093104362488,-0.516756534576416,-0.2641918659210205,0.12273968756198883,-18.512340545654297,-100.59172058105469,150.0,-65.66413879394531,-36.912925720214844,-77.78129577636719,0.10634764283895493,0.059835001826286316,0.5111729502677917,0.02842887118458748,-0.05433326214551926,0.38114285469055176
1,104,1.56,-0.2702634334564209,-0.30262693762779236,-0.7049430012702942,-0.6403112411499023,-0.22574114799499512,-0.23985935747623444,-0.19103796780109406,-0.31391435861587524,-0.14829480648040771,-0.4526093900203705,-0.259566992521286,0.18045341968536377,-29.056468963623047,52.91192626953125,-150.0,-55.809173583984375,-11.77595329284668,-86.75372314453125,0.08626812696456909,0.02464861422777176,0.5546443462371826,0.0369328074157238,-0.07179655134677887,0.3938240110874176
1,105,1.575,-0.20483537018299103,-0.368578165769577,-0.7247993350028992,-0.5455674529075623,-0.25362271070480347,-0.18032602965831757,-0.14478960633277893,-0.3605325222015381,-0.16233043372631073,-0.385638952255249,-0.2792752981185913,0.22253504395484924,10.773019790649414,-69.47702026367188,-43.602691650390625,-69.5212631225586,-13.490018844604492,-88.12960815429688,0.06813089549541473,0.009767553769052029,0.48393696546554565,0.04417309910058975,-0.09120667725801468,0.40411847829818726
1,106,1.5899999999999999,-0.15637661516666412,-0.3900723159313202,-0.7500292062759399,-0.4951944053173065,-0.28007712960243225,-0.16544412076473236,-0.110536128282547,-0.3757258355617523,-0.1801643967628479,-0.35003232955932617,-0.2979748249053955,0.23305444419384003,-11.697308540344238,-72.59661865234375,-150.0,-57.35041809082031,-15.226703643798828,-84.87299346923828,0.047124382108449936,0.0017075914656743407,0.4803127646446228,0.06395440548658371,-0.11291731894016266,0.41982966661453247
1,107,1.605,-0.12174133956432343,-0.4069576859474182,-0.7157796025276184,-0.42449086904525757,-0.2618626058101654,-0.16087810695171356,-0.08605388551950455,-0.3876613974571228,-0.1559547483921051,-0.3000549376010895,-0.28509974479675293,0.23628197610378265,19.816116333007812,-75.2330322265625,-150.0,-78.11795806884766,-0.6251106262207031,-103.52250671386719,0.034670062363147736,-0.004147930070757866,0.47470712661743164,0.0753420814871788,-0.12704312801361084,0.4239320456981659
1,108,1.6199999999999999,-0.03212694078683853,-0.4031836986541748,-0.6035158038139343,-0.28754568099975586,-0.19549204409122467,-0.15447388589382172,-0.0227091982960701,-0.3849937319755554,-0.07660016417503357,-0.2032540738582611,-0.23818518221378326,0.24080884456634521,2.171347141265869,-74.36944580078125,-147.1837615966797,-41.27126693725586,-9.974077224731445,-51.41246032714844,0.025533664971590042,-0.006364121567457914,0.46662357449531555,0.08338311314582825,-0.13549424707889557,0.4219861924648285
1,109,1.635,0.13548874855041504,-0.3921663463115692,-0.46370550990104675,-0.12051399797201157,-0.0982757955789566,-0.15202540159225464,0.09577135741710663,-0.377206027507782,0.022225908935070038,-0.08518633246421814,-0.16946706175804138,0.24253958463668823,21.635738372802734,-79.44319915771484,-105.32745361328125,-31.818511962890625,2.1714649200439453,-48.04803466796875,0.023791972547769547,-0.008615470491349697,0.4628579914569855,0.08408772200345993,-0.1390581727027893,0.41469043493270874
1,110,1.65,0.27559593319892883,-0.39197343587875366,-0.3399147391319275,0.0569455586373806,-0.00239173648878932,-0.13308143615722656,0.19480730593204498,-0.3770696520805359,0.10972846299409866,0.0402524471282959,-0.1016906201839447,0.2559302747249603,18.2119197845459,-73.91680145263672,-98.83062744140625,-1.7838201522827148,9.69209098815918,-24.54690170288086,0.021892061457037926,-0.011689386330544949,0.46028923988342285,0.08506162464618683,-0.14318005740642548,0.4086794853210449
1,111,1.665,0.3016761243343353,-0.38382548093795776,-0.2788122296333313,0.20833176374435425,0.06708177179098129,-0.08789493143558502,0.2132422924041748,-0.37131020426750183,0.15291926264762878,0.14726105332374573,-0.052582696080207825,0.28787073493003845,27.307777404785156,-71.78825378417969,-81.72665405273438,4.53380012512207,26.543907165527344,-25.459095001220703,0.021223625168204308,-0.01709619164466858,0.46047157049179077,0.0850854218006134,-0.14773839712142944,0.4034968316555023
1,112,1.68,0.2848770320415497,-0.35775113105773926,-0.3035309314727783,0.26505401730537415,0.09671024233102798,-0.017597056925296783,0.20136772096157074,-0.3528793454170227,0.13544663786888123,0.1873556673526764,-0.03163956478238106,0.33756136894226074,21.976648330688477,-61.21624755859375,-95.10842895507812,12.792352676391602,32.42401123046875,-10.009178161621094,0.016159240156412125,-0.02316759154200554,0.45860999822616577,0.08963998407125473,-0.15516743063926697,0.40176352858543396
1,113,1.6949999999999998,0.28742343187332153,-0.3140016496181488,-0.3852772116661072,0.2089868187904358,0.10063256323337555,0.08838219195604324,0.20316766202449799,-0.3219546675682068,0.0776635929942131,0.14772409200668335,-0.028867043554782867,0.4124736785888672,32.10371398925781,-53.29241943359375,-100.3638916015625,-1.8187298774719238,40.781105041503906,0.0007119178771972656,0.0102588701993227,-0.02788858488202095,0.4561323821544647,0.0950261801481247,-0.16167961061000824,0.4001699984073639
1,114,1.71,0.2890702486038208,-0.289335161447525,-0.48590126633644104,0.1364700198173523,0.11067478358745575,0.2329607903957367,0.20433174073696136,-0.3045189380645752,0.006536670029163361,0.09646498411893845,-0.021768612787127495,0.5146702527999878,31.609256744384766,-51.78954315185547,-122.78292846679688,-7.1095452308654785,40.27396011352539,34.376617431640625,0.0032757928129285574,-0.03259482979774475,0.45223966240882874,0.09957393258810043,-0.16425901651382446,0.4209960997104645
1,115,1.7249999999999999,0.329633891582489,-0.3305405080318451,-0.5586953163146973,0.15411944687366486,0.14155368506908417,0.3995845317840576,0.23300448060035706,-0.3336452841758728,-0.04491842910647392,0.10894062370061874,5.839020013809204e-05,0.6324496269226074,35.67428970336914,-52.166229248046875,-133.93112182617188,-1.3070026636123657,32.70066452026367,-36.01157760620117,0.003854143898934126,-0.03806835412979126,0.45108264684677124,0.09385395050048828,-0.14534015953540802,0.41408419609069824
1,116,1.74,0.4281464219093323,-0.4146014153957367,-0.5726060271263123,0.24387061595916748,0.2011273205280304,0.5642889142036438,0.3026388883590698,-0.3930644392967224,-0.05475129187107086,0.17238199710845947,0.0421685054898262,0.7488722801208496,32.49369430541992,-67.61367797851562,-145.6058807373047,21.119766235351562,-14.004371643066406,150.0,-0.00638225581496954,-0.04410151019692421,0.4449506402015686,0.0983332172036171,-0.1524958610534668,0.5163384675979614
1,117,1.755,0.5496921539306641,-0.492252379655838,-0.559073269367218,0.35106614232063293,0.2851422131061554,0.6808170080184937,0.38855451345443726,-0.44795265793800354,-0.045185573399066925,0.24815405905246735,0.10155513882637024,0.8312411308288574,67.40550994873047,-72.28907012939453,-124.79240417480469,5.877743721008301,102.56165313720703,-150.0,-0.008890485391020775,-0.04902157932519913,0.44213002920150757,0.09932177513837814,-0.11980515718460083,0.5592900514602661
1,118,1.77,0.6712116599082947,-0.5097724795341492,-0.556594967842102,0.4539809823036194,0.37490877509117126,0.6797873973846436,0.47445160150527954,-0.4603368937969208,-0.0434337854385376,0.3209002614021301,0.16500738263130188,0.8305133581161499,55.52540588378906,-83.14053344726562,-133.16062927246094,28.17595100402832,-63.63941955566406,150.0,-0.008886056020855904,-0.06092524155974388,0.4445280134677887,0.10170091688632965,-0.09420714527368546,0.6317598223686218
1,119,1.785,0.7313934564590454,-0.4281335473060608,-0.5558353066444397,0.48462170362472534,0.4502539038658142,0.5364381074905396,0.5169916152954102,-0.4026297330856323,-0.04289678856730461,0.34255892038345337,0.21826569736003876,0.7291857004165649,63.23529815673828,-45.26165008544922,-150.0,24.599348068237305,69.83657836914062,-150.0,-0.00710174860432744,-0.06922414153814316,0.447889506816864,0.11054424196481705,-0.04595491662621498,0.6597179770469666
1,120,1.7999999999999998,0.6453686356544495,-0.29384955763816833,-0.5526442527770996,0.4084931015968323,0.48428499698638916,0.296943724155426,0.4561842381954193,-0.3077099919319153,-0.04064115509390831,0.28874677419662476,0.24232086539268494,0.5598971247673035,54.28736114501953,-43.28138732910156,-143.76010131835938,2.8558197021484375,-75.58016204833984,150.0,-0.011568845249712467,-0.07799424231052399,0.4474566578865051,0.12575745582580566,-0.012608036398887634,0.7234845757484436
1,121,1.815,0.475179523229599,-0.1760452836751938,-0.5391549468040466,0.27507010102272034,0.4549156427383423,0.023769060149788857,0.33588463068008423,-0.22443906962871552,-0.0311061330139637,0.19443561136722565,0.22156089544296265,0.36680135130882263,49.28258514404297,-9.803133010864258,-146.2659912109375,-9.720637321472168,41.711265563964844,-150.0,-0.012563332915306091,-0.08259716629981995,0.4452924132347107,0.1327512115240097,0.03308289870619774,0.7482137680053711
1,122,1.8299999999999998,0.37805819511413574,-0.11081895232200623,-0.49563995003700256,0.13288603723049164,0.34920287132263184,-0.245284304022789,0.26723361015319824,-0.17833329737186432,-0.00034720078110694885,0.09393161535263062,0.14683692157268524,0.176618754863739,33.66225051879883,-18.31515884399414,-119.3543701171875,-10.331047058105469,-96.0636215209961,28.13983154296875,-0.01078785676509142,-0.08636727184057236,0.4422076940536499,0.12997490167617798,0.07051695883274078,0.7118701338768005
1,123,1.845,0.3903644382953644,-0.08667303621768951,-0.4197240173816681,0.0629158690571785,0.20574994385242462,-0.48479196429252625,0.2759323716163635,-0.1612655520439148,0.05331459641456604,0.04447261244058609,0.04543605446815491,0.007320791482925415,30.02716827392578,-7.336033821105957,-115.05345916748047,0.41953468322753906,-36.7156867980957,-150.0,-0.002060547936707735,-0.08730126917362213,0.4418560266494751,0.11681002378463745,0.10403554886579514,0.5788488388061523
1,124,1.8599999999999999,0.4655244052410126,-0.06301137804985046,-0.31561142206192017,0.10530398041009903,0.09935507923364639,-0.67582106590271,0.3290598392486572,-0.14454011619091034,0.12690745294094086,0.07443500310182571,-0.02977003902196884,-0.12770971655845642,26.73993492126465,-16.046043395996094,-93.6643295288086,13.712483406066895,-102.21092224121094,150.0,-0.0020681258756667376,-0.09020844101905823,0.4388369619846344,0.1122325211763382,0.09198808670043945,0.5164453387260437
1,125,1.875,0.5163583159446716,-0.042802173644304276,-0.2187165766954422,0.19843289256095886,0.05690554901957512,-0.8176816701889038,0.3649922311306,-0.1302550733089447,0.19539837539196014,0.14026395976543427,-0.05977584421634674,-0.22798503935337067,47.741371154785156,4.915575981140137,-69.92822265625,7.300458908081055,49.29436492919922,-150.0,0.003960566595196724,-0.09200945496559143,0.4395427703857422,0.10273569822311401,0.09186400473117828,0.4138847291469574
1,126,1.89,0.4822484254837036,-0.054424311965703964,-0.15756666660308838,0.2424095720052719,0.04466667026281357,-0.9193224906921387,0.34088134765625,-0.13847027719020844,0.23862269520759583,0.17134924232959747,-0.06842699646949768,-0.29983073472976685,29.05270767211914,-9.589385032653809,-63.01292419433594,22.399288177490234,-88.09571075439453,150.0,-0.0012240586802363396,-0.09590187668800354,0.43643003702163696,0.10765863209962845,0.0676257535815239,0.3618500828742981
1,127,1.905,0.41579076647758484,-0.10166976600885391,-0.11213278770446777,0.1664455533027649,-0.003428744850680232,-0.9821506142616272,0.29390519857406616,-0.17186611890792847,0.27073800563812256,0.11765343695878983,-0.10242363810539246,-0.34424126148223877,50.0003662109375,-4.120134353637695,-43.0853271484375,-14.14877700805664,66.9591293334961,-150.0,0.0008275874424725771,-0.10157366096973419,0.43940469622612,0.10428236424922943,0.06415978074073792,0.27193203568458557
1,128,1.92,0.366091251373291,-0.15440668165683746,-0.08131952583789825,0.03091445565223694,-0.11943846195936203,-1.0,0.25877466797828674,-0.20914363861083984,0.29251861572265625,0.021852143108844757,-0.18442606925964355,-0.3602796792984009,17.055530548095703,19.94563865661621,-49.36543273925781,13.719060897827148,-150.0,-88.1972885131836,0.013911089859902859,-0.1092274859547615,0.44579726457595825,0.09029816836118698,0.07609077543020248,0.2577497065067291
1,129,1.9349999999999998,0.31964969635009766,-0.18165341019630432,-0.07632817327976227,-0.05016382038593292,-0.27864405512809753,-0.9601803421974182,0.2259470671415329,-0.2284032255411148,0.29604679346084595,-0.03545871749520302,-0.29696184396743774,-0.32871145009994507,7.333463668823242,-6.263185501098633,-66.24944305419922,1.0885334014892578,-45.5684928894043,-150.0,0.02241651341319084,-0.11374962329864502,0.4456809461116791,0.0818280279636383,0.07325884699821472,0.2525472939014435
1,130,1.95,0.234592467546463,-0.21853896975517273,-0.07609746605157852,-0.09401953220367432,-0.4242148995399475,-0.8218539953231812,0.16582365334033966,-0.25447607040405273,0.2962098717689514,-0.06645849347114563,-0.39985981583595276,-0.23093432188034058,10.487625122070312,-34.166988372802734,-33.77317810058594,-11.104065895080566,-98.80404663085938,-128.97080993652344,0.02857339195907116,-0.11902330815792084,0.44314876198768616,0.07580698281526566,0.0674101859331131,0.24740566313266754
1,131,1.9649999999999999,0.1159038096666336,-0.25232699513435364,-0.0758935734629631,-0.1781153827905655,-0.4687546193599701,-0.6288739442825317,0.0819275826215744,-0.27835941314697266,0.2963539958000183,-0.12590235471725464,-0.43134307861328125,-0.09452477097511292,-0.6959571838378906,-23.440549850463867,-37.011348724365234,-16.795330047607422,-93.68457794189453,-92.0401382446289,0.03577535226941109,-0.12910114228725433,0.444560170173645,0.06874515861272812,0.057633671909570694,0.24561730027198792
1,132,1.98,0.025925204157829285,-0.19978633522987366,-0.0940641537308693,-0.24867062270641327,-0.38829290866851807,-0.45061299204826355,0.018325448036193848,-0.241220623254776,0.2835099697113037,-0.17577491700649261,-0.374468058347702,0.031480446457862854,-11.711479187011719,-11.433621406555176,-57.4082145690918,-20.1298828125,-78.0173568725586,-63.649444580078125,0.03791587054729462,-0.13816620409488678,0.44640931487083435,0.06715366989374161,0.04358955845236778,0.25243985652923584
1,133,1.9949999999999999,0.01826387643814087,-0.08739085495471954,-0.13580411672592163,-0.19931331276893616,-0.2648247480392456,-0.3338319659233093,0.012909974902868271,-0.1617729514837265,0.2540057301521301,-0.14088629186153412,-0.28719356656074524,0.11402811110019684,-2.4349355697631836,12.274728775024414,-62.02103042602539,-26.31328582763672,-42.86091613769531,-67.27397918701172,0.04058681055903435,-0.14697691798210144,0.44863730669021606,0.06494816392660141,0.030660321936011314,0.2596361041069031
1,134,2.01,0.09041532129049301,-0.01476473081856966,-0.18990273773670197,-0.09241374582052231,-0.17867477238178253,-0.27525895833969116,0.0639108270406723,-0.1104365736246109,0.21576566994190216,-0.06532343477010727,-0.2262977510690689,0.15543091297149658,-1.4207141399383545,19.871173858642578,-75.7983627319336,-12.134049415588379,-36.37106704711914,-48.58734130859375,0.03643609955906868,-0.1488952487707138,0.44425395131111145,0.06959936022758484,0.019874075427651405,0.2702282965183258
1,135,2.025,0.20112699270248413,-0.014063097536563873,-0.22730620205402374,-0.0677482858300209,-0.1673106998205185,-0.2599326968193054,0.1421682983636856,-0.10994061827659607,0.1893267184495926,-0.04788844287395477,-0.21826495230197906,0.16626441478729248,21.592884063720703,11.527986526489258,-58.169654846191406,-23.441688537597656,-33.16240692138672,-60.83899688720703,0.038731496781110764,-0.15186813473701477,0.44183483719825745,0.06753046065568924,0.01342037320137024,0.273984432220459
1,136,2.04,0.3092152178287506,-0.037018269300460815,-0.22032159566879272,-0.13342992961406708,-0.22003738582134247,-0.29178935289382935,0.21857136487960815,-0.1261666715145111,0.19426384568214417,-0.09431606531143188,-0.2555352449417114,0.1437462717294693,14.922861099243164,9.861825942993164,-72.03599548339844,-12.976490020751953,-48.99898147583008,-41.752601623535156,0.03898591548204422,-0.15168750286102295,0.437777578830719,0.06774880737066269,0.006816050503402948,0.27973511815071106
1,137,2.0549999999999997,0.39080092310905457,-0.042054712772369385,-0.15196244418621063,-0.21614593267440796,-0.29076308012008667,-0.3661390244960785,0.27624091506004333,-0.12972672283649445,0.24258407950401306,-0.1527845710515976,-0.30552828311920166,0.0911915972828865,32.153385162353516,2.8791089057922363,-45.162696838378906,-30.9486083984375,-54.19145202636719,-75.68515014648438,0.040751826018095016,-0.15198960900306702,0.4349430203437805,0.0666942298412323,-0.001569146174006164,0.28514236211776733
1,138,2.07,0.4771568477153778,-0.028334293514490128,-0.013982705771923065,-0.272009015083313,-0.3414158523082733,-0.45763978362083435,0.33728232979774475,-0.12002833187580109,0.3401162028312683,-0.1922718584537506,-0.3413326144218445,0.026513516902923584,31.348451614379883,7.046316146850586,-27.064361572265625,-27.775413513183594,-57.799156188964844,-85.82081604003906,0.046336155384778976,-0.15492543578147888,0.4346121847629547,0.06170938163995743,-0.00969522725790739,0.28862878680229187
1,139,2.085,0.5539768934249878,0.016105713322758675,0.16653423011302948,-0.3116881847381592,-0.3573288321495056,-0.5430280566215515,0.3915832042694092,-0.0886155441403389,0.4677160978317261,-0.22031942009925842,-0.35258084535598755,-0.03384387120604515,33.58945083618164,20.77127456665039,6.58658504486084,-26.14559555053711,-60.23621368408203,-102.7512435913086,0.06749480962753296,-0.15464119613170624,0.43901413679122925,0.04708477109670639,-0.015360050834715366,0.28676852583885193
1,140,2.1,0.5491665601730347,0.11612632870674133,0.3490435779094696,-0.3125724196434021,-0.34859171509742737,-0.6158635020256042,0.38818299770355225,-0.017915144562721252,0.5967243313789368,-0.22094443440437317,-0.34640493988990784,-0.08532822132110596,-1.6121406555175781,20.873172760009766,26.338735580444336,-6.567287445068359,-61.492340087890625,-96.20732879638672,0.0931629091501236,-0.15148691833019257,0.46242737770080566,0.031234011054039,-0.02542690560221672,0.2859990894794464
1,141,2.1149999999999998,0.43804773688316345,0.25631627440452576,0.5205437541007996,-0.2093653380870819,-0.3371015787124634,-0.678505539894104,0.30963772535324097,0.08117929100990295,0.7179506421089172,-0.14799164235591888,-0.3382830321788788,-0.12960726022720337,-2.41070556640625,42.22130584716797,-23.249595642089844,-4.613576889038086,-45.14202880859375,-127.6801528930664,0.1095881536602974,-0.12957675755023956,0.46598953008651733,0.022288313135504723,-0.03598988056182861,0.28880810737609863
1,142,2.13,0.27385273575782776,0.3867865800857544,0.6723999977111816,-0.014020543545484543,-0.33852440118789673,-0.7247086763381958,0.19357511401176453,0.1734032928943634,0.8252915143966675,-0.009910538792610168,-0.33928877115249634,-0.1622663289308548,-6.176590919494629,4.674961090087891,150.0,3.9701712131500244,-45.08049774169922,-141.66073608398438,0.11865295469760895,-0.12037675827741623,0.5770361423492432,0.013787839561700821,-0.044224806129932404,0.29100653529167175
1,143,2.145,0.17304936051368713,0.4499216377735138,0.7538588643074036,0.15791308879852295,-0.3662962019443512,-0.7208402752876282,0.12232139706611633,0.21803082525730133,0.8828713893890381,0.11162219196557999,-0.35891950130462646,-0.15953190624713898,-5.414523124694824,84.51416778564453,-150.0,23.19856071472168,-50.03527069091797,-142.42376708984375,0.11808636039495468,-0.07325728982686996,0.6303225755691528,0.010790921747684479,-0.0491349957883358,0.2912817895412445
1,144,2.16,0.19122259318828583,0.43986237049102783,0.6927372813224792,0.18550705909729004,-0.391297310590744,-0.654218852519989,0.13516730070114136,0.21092036366462708,0.8396670818328857,0.1311272233724594,-0.3765917420387268,-0.11244001984596252,6.555268287658691,-80.77066040039062,150.0,15.262582778930664,-64.65079498291016,-114.27761840820312,0.1097872331738472,-0.04126456379890442,0.715828537940979,0.011429301463067532,-0.06125897914171219,0.29555314779281616
1,145,2.175,0.2715170681476593,0.39211609959602356,0.48626789450645447,0.07724256068468094,-0.3674241602420807,-0.5635126829147339,0.19192412495613098,0.1771705001592636,0.6937224864959717,0.05459955334663391,-0.3597168028354645,-0.04832358658313751,27.586116790771484,44.10525131225586,-150.0,1.6857621669769287,-32.676536560058594,-128.94625854492188,0.11171507835388184,-0.001098455279134214,0.7650312781333923,0.00658302940428257,-0.07015187293291092,0.2949583828449249
1,146,2.19,0.35882264375686646,0.31525182723999023,0.20047691464424133,-0.09104316681623459,-0.2996726930141449,-0.49501708149909973,0.25363680720329285,0.12283837795257568,0.49170875549316406,-0.06435462832450867,-0.31182610988616943,9.306520223617554e-05,2.4832801818847656,-84.82219696044922,43.02232360839844,2.9846763610839844,-44.35990524291992,-74.1384506225586,0.11712782829999924,0.02980455756187439,0.7647250294685364,0.0014804380480200052,-0.08208457380533218,0.2962915003299713
1,147,2.205,0.4052955210208893,0.22223177552223206,-0.10103941708803177,-0.24868491291999817,-0.2036011666059494,-0.462078332901001,0.28648653626441956,0.05708637833595276,0.278579443693161,-0.17578501999378204,-0.24391716718673706,0.023376110941171646,17.601581573486328,-10.849416732788086,-150.0,-17.248106002807617,-8.51656723022461,-98.56513977050781,0.13314589858055115,0.06221551448106766,0.6750816106796265,-0.010013611987233162,-0.08983352780342102,0.2935035824775696
1,148,2.2199999999999998,0.33332768082618713,0.13419672846794128,-0.3781845271587372,-0.3538282811641693,-0.10624175518751144,-0.4453858435153961,0.23561546206474304,-0.005141936242580414,0.08267712593078613,-0.25010648369789124,-0.17509786784648895,0.03517533093690872,-18.299339294433594,-97.89576721191406,150.0,-8.648754119873047,-11.064544677734375,-59.74455642700195,0.1450396031141281,0.0602293498814106,0.6368336081504822,-0.021888671442866325,-0.09970908612012863,0.2937880754470825
1,149,2.235,0.14578674733638763,0.08475412428379059,-0.6101409196853638,-0.3994744122028351,-0.05371097847819328,-0.41848957538604736,0.1030505895614624,-0.04009084776043892,-0.08128318190574646,-0.28237184882164,-0.13796605169773102,0.05418718606233597,-8.488443374633789,40.121009826660156,-150.0,-20.149547576904297,16.7095890045166,-90.45098876953125,0.14370085299015045,0.06541990488767624,0.5619032382965088,-0.027524210512638092,-0.10791724920272827,0.2967107594013214
1,150,2.25,-0.034608956426382065,0.07666675001382828,-0.789726197719574,-0.33555787801742554,-0.06937195360660553,-0.3663218915462494,-0.024463631212711334,-0.04580747336149216,-0.20822450518608093,-0.23719190061092377,-0.14903613924980164,0.09106233716011047,-14.336366653442383,-81.431640625,150.0,-20.429119110107422,2.67812442779541,-67.4658203125,0.1334029734134674,0.04757963865995407,0.5308690667152405,-0.031183578073978424,-0.12006986886262894,0.3010385036468506
1,151,2.265,-0.08091039210557938,0.07673202455043793,-0.9185610413551331,-0.210477814078331,-0.13742581009864807,-0.30071786046028137,-0.05719218775629997,-0.045761335641145706,-0.2992924451828003,-0.1487780064344406,-0.19714057445526123,0.13743507862091064,-1.40521240234375,72.24871826171875,-150.0,-10.732002258300781,14.66423225402832,-72.36247253417969,0.12072047591209412,0.04634781926870346,0.4555266797542572,-0.03597048297524452,-0.128927081823349,0.30199727416038513
1,152,2.28,-0.039408132433891296,0.06287958472967148,-0.9971043467521667,-0.1693299412727356,-0.22048842906951904,-0.2363518327474594,-0.027855969965457916,-0.055553048849105835,-0.35481148958206177,-0.11969229578971863,-0.255854070186615,0.1829327493906021,-2.971864700317383,-81.19097137451172,150.0,-2.9434123039245605,-17.524173736572266,-31.822649002075195,0.10360968112945557,0.026019200682640076,0.4224621057510376,-0.03824559599161148,-0.14436344802379608,0.30863797664642334
1,153,2.295,-0.0027753228787332773,0.0018594770226627588,-1.0,-0.2143898904323578,-0.29042863845825195,-0.1788734346628189,-0.0019617602229118347,-0.0986856147646904,-0.373810350894928,-0.1515432894229889,-0.30529189109802246,0.2235618233680725,18.7398681640625,72.27703857421875,-150.0,-15.656333923339844,5.8964691162109375,-65.27519226074219,0.09106408059597015,0.022710904479026794,0.397561252117157,-0.035952452570199966,-0.15948663651943207,0.31977352499961853
1,154,2.31,0.022975826635956764,-0.11677566170692444,-0.9607216715812683,-0.26248106360435486,-0.3524751365184784,-0.14852935075759888,0.01624065637588501,-0.18254384398460388,-0.3290940821170807,-0.1855369508266449,-0.3491499722003937,0.24501079320907593,1.8433141708374023,-33.370967864990234,-150.0,-26.02277183532715,-36.65446090698242,-39.976348876953125,0.07642770558595657,0.023760074749588966,0.3882179260253906,-0.023786142468452454,-0.17312386631965637,0.32969290018081665
1,155,2.3249999999999997,-0.020190255716443062,-0.23935219645500183,-0.7759402394294739,-0.2928745746612549,-0.36924272775650024,-0.14552097022533417,-0.014271651394665241,-0.2691880762577057,-0.1984798163175583,-0.2070208489894867,-0.36100226640701294,0.24713729321956635,11.26983642578125,-63.611915588378906,-139.51181030273438,-41.11180877685547,-18.30710220336914,-50.78531265258789,0.077683225274086,0.020383263006806374,0.3847191333770752,-0.02690114639699459,-0.1808016002178192,0.3256276249885559
1,156,2.34,-0.15471436083316803,-0.28733277320861816,-0.5369271039962769,-0.3296009302139282,-0.29192015528678894,-0.16412286460399628,-0.10936114192008972,-0.3031035363674164,-0.02953137457370758,-0.23298117518424988,-0.30634617805480957,0.23398838937282562,-34.46322250366211,-62.418880462646484,-127.64942932128906,-10.90186882019043,-24.44756507873535,-0.3567008972167969,0.0754815861582756,0.019532306119799614,0.37918487191200256,-0.028425883501768112,-0.19083473086357117,0.3258951008319855
1,157,2.355,-0.3117269277572632,-0.24995100498199463,-0.3293359577655792,-0.39928099513053894,-0.19109664857387543,-0.20532001554965973,-0.22034679353237152,-0.2766799330711365,0.1172061488032341,-0.28223511576652527,-0.23507826030254364,0.20486783981323242,-25.10218048095703,-62.783111572265625,-56.21122741699219,-34.12055587768555,12.3656587600708,-51.20646667480469,0.07603397220373154,0.017176492139697075,0.3774683177471161,-0.030828233808279037,-0.1980687379837036,0.3249495327472687
1,158,2.37,-0.41887739300727844,-0.18256941437721252,-0.20333464443683624,-0.44725486636161804,-0.15072040259838104,-0.24058377742767334,-0.29608699679374695,-0.22905071079730988,0.2062712162733078,-0.3161458671092987,-0.20653796195983887,0.1799413561820984,-50.609439849853516,-49.406639099121094,-51.967262268066406,-25.666118621826172,7.5196123123168945,-35.460819244384766,0.07689773291349411,0.013785338960587978,0.3780006468296051,-0.03350769728422165,-0.20595693588256836,0.32540464401245117
1,159,2.385,-0.4286530315876007,-0.12765756249427795,-0.1845736801624298,-0.3698505163192749,-0.17715126276016235,-0.2650579512119293,-0.30299699306488037,-0.19023580849170685,0.2195325642824173,-0.2614319324493408,-0.22522084414958954,0.16264158487319946,-44.754276275634766,-35.8479118347168,-45.880577087402344,-26.688676834106445,12.240265846252441,-57.21501922607422,0.07561825960874557,0.012012924998998642,0.37827247381210327,-0.03398769348859787,-0.21319828927516937,0.32814598083496094
1,160,2.4,-0.3271467089653015,-0.10807144641876221,-0.25729912519454956,-0.1717655211687088,-0.2445850968360901,-0.29595816135406494,-0.23124639689922333,-0.17639119923114777,0.16812598705291748,-0.12141390144824982,-0.2728869915008545,0.14079952239990234,-34.912132263183594,-41.04142379760742,-59.87556838989258,-10.014679908752441,-2.2823562622070312,-64.85527801513672,0.07118220627307892,0.013130170293152332,0.37622618675231934,-0.03111957013607025,-0.2188667356967926,0.3328283131122589
1,161,2.415,-0.13250873982906342,-0.12733806669712067,-0.3808247447013855,0.07507485896348953,-0.3046629726886749,-0.3149670660495758,-0.09366491436958313,-0.1900099664926529,0.08081088960170746,0.053067296743392944,-0.31535354256629944,0.1273629069328308,-12.260854721069336,-41.793914794921875,-74.71221160888672,3.3293018341064453,-8.21772575378418,-78.55000305175781,0.06987277418375015,0.01083353441208601,0.37451615929603577,-0.031062280759215355,-0.22496794164180756,0.3333795666694641
1,162,2.4299999999999997,0.10332747548818588,-0.15249881148338318,-0.507409930229187,0.3113970160484314,-0.31711816787719727,-0.2891065776348114,0.07303789258003235,-0.20779505372047424,-0.008666910231113434,0.220113605260849,-0.32415759563446045,0.14564262330532074,-0.12186625599861145,-46.51603698730469,-108.37158203125,33.155208587646484,-14.622337341308594,-51.71118927001953,0.06193188205361366,0.012544495984911919,0.3668500483036041,-0.02510756067931652,-0.23193061351776123,0.3358079493045807
1,163,2.445,0.2806816101074219,-0.15525585412979126,-0.6074743270874023,0.44786474108695984,-0.275393009185791,-0.1987149715423584,0.19840215146541595,-0.20974388718605042,-0.07939823716878891,0.3165769577026367,-0.29466381669044495,0.20953667163848877,32.59055709838867,-49.73249053955078,-99.26738739013672,27.42133331298828,1.131852149963379,-51.74687194824219,0.060103412717580795,0.013104068115353584,0.360663503408432,-0.02441553771495819,-0.23453231155872345,0.33215129375457764
1,164,2.46,0.3567790687084198,-0.15039271116256714,-0.675299882888794,0.4664246439933777,-0.19715730845928192,-0.04347268119454384,0.25219228863716125,-0.2063063383102417,-0.12734130024909973,0.3296961784362793,-0.23936228454113007,0.3192709684371948,18.94272804260254,-49.248435974121094,-131.53370666503906,48.37717819213867,-5.2396016120910645,14.38345718383789,0.054697513580322266,0.016024906188249588,0.35183584690093994,-0.012471779249608517,-0.23896895349025726,0.3396128714084625
1,165,2.475,0.36562809348106384,-0.18083888292312622,-0.7006088495254517,0.48105937242507935,-0.11139623075723648,0.1562318205833435,0.2584472894668579,-0.22782745957374573,-0.1452311873435974,0.3400408625602722,-0.17874135076999664,0.4604337513446808,35.766929626464844,-55.10627365112305,-121.02745819091797,14.894641876220703,24.38995361328125,-11.121650695800781,0.053261421620845795,0.018383735790848732,0.3460696339607239,0.0038177857641130686,-0.234069362282753,0.33695346117019653
1,166,2.4899999999999998,0.30192506313323975,-0.25499504804611206,-0.6807488799095154,0.5352597236633301,-0.03231500834226608,0.3674710988998413,0.21341827511787415,-0.2802453637123108,-0.13119298219680786,0.3783528208732605,-0.12284213304519653,0.609749972820282,17.81561851501465,-68.8841781616211,-129.6421356201172,24.938133239746094,-0.5384979248046875,117.17443084716797,0.04503893479704857,0.02058997191488743,0.3384239971637726,0.03160998597741127,-0.2456171214580536,0.42993903160095215
1,167,2.505,0.18043619394302368,-0.33947548270225525,-0.6455897092819214,0.5944223999977112,0.03507824242115021,0.5548155307769775,0.12754283845424652,-0.33996105194091797,-0.1063404306769371,0.42017245292663574,-0.07520465552806854,0.7421759366989136,23.72323226928711,-72.60343170166016,-111.32661437988281,3.1985855102539062,79.91203308105469,-150.0,0.042378831654787064,0.02156270667910576,0.3331948518753052,0.06054001674056053,-0.2186756581068039,0.4432002305984497
1,168,2.52,0.07257045805454254,-0.38167670369148254,-0.626550018787384,0.66212397813797,0.10674948990345001,0.6972042322158813,0.05129703879356384,-0.36979132890701294,-0.09288205951452255,0.46802788972854614,-0.024543240666389465,0.8428245782852173,0.4873267412185669,-91.94927215576172,-110.54417419433594,12.538223266601562,-67.19419860839844,150.0,0.03964414820075035,0.016923286020755768,0.3339158296585083,0.08915409445762634,-0.2070954144001007,0.49416297674179077
1,169,2.5349999999999997,0.06274307519197464,-0.32727450132369995,-0.6251635551452637,0.6837924122810364,0.2159515917301178,0.8015352487564087,0.04435046762228012,-0.3313366770744324,-0.09190206229686737,0.4833444058895111,0.052647169679403305,0.916571855545044,6.147008895874023,-57.28606414794922,-135.94577026367188,8.389034271240234,89.89956665039062,-150.0,0.040857162326574326,0.0131680341437459,0.3366315960884094,0.1178688108921051,-0.1702575832605362,0.4955613613128662
1,170,2.55,0.1262500286102295,-0.20998023450374603,-0.6319757103919983,0.5805068612098694,0.3574116826057434,0.8571891784667969,0.0892408937215805,-0.24842625856399536,-0.09671725332736969,0.41033613681793213,0.15263941884040833,0.9559112787246704,1.649489402770996,-56.73258590698242,-129.01547241210938,-3.6330490112304688,-60.316650390625,150.0,0.03307414427399635,0.011265438981354237,0.3339810371398926,0.15223920345306396,-0.14339713752269745,0.5328488945960999
1,171,2.565,0.13482944667339325,-0.12694793939590454,-0.6335280537605286,0.4313108026981354,0.5063158273696899,0.8206786513328552,0.09530532360076904,-0.18973420560359955,-0.09781456738710403,0.3048756718635559,0.25789353251457214,0.9301035404205322,23.384235382080078,-32.60910415649414,-121.57038879394531,-28.307395935058594,92.14154815673828,-150.0,0.03070470131933689,0.011823687702417374,0.33138278126716614,0.17335955798625946,-0.09192980080842972,0.5194946527481079
1,172,2.58,0.07537472248077393,-0.11168377846479416,-0.6009493470191956,0.36731693148612976,0.6472705602645874,0.6760416626930237,0.05327925458550453,-0.17894460260868073,-0.07478605210781097,0.25964105129241943,0.35752856731414795,0.8278656601905823,1.8431109189987183,-47.37847137451172,-107.32587432861328,-8.725532531738281,-54.7589111328125,150.0,0.02668442763388157,0.009611072018742561,0.3277052938938141,0.1870422065258026,-0.0488240011036396,0.5387047529220581
1,173,2.5949999999999998,0.0034945374354720116,-0.12781564891338348,-0.5267162322998047,0.4002632200717926,0.7463531494140625,0.4493284523487091,0.002470143139362335,-0.1903475522994995,-0.02231370285153389,0.2829294204711914,0.42756590247154236,0.6676115393638611,4.5538554191589355,-30.778539657592773,-99.65196990966797,-3.447054862976074,77.14884948730469,-150.0,0.026882749050855637,0.009173350408673286,0.3255847990512848,0.1930546909570694,0.01648569479584694,0.5090915560722351
1,174,2.61,-0.08167403936386108,-0.12220992147922516,-0.4422766864299774,0.46428123116493225,0.7584919333457947,0.18486271798610687,-0.057731978595256805,-0.18638509511947632,0.03737305849790573,0.32818108797073364,0.43614625930786133,0.4806717336177826,-14.318748474121094,-45.455657958984375,-78.13325500488281,12.229225158691406,-78.78845977783203,150.0,0.021752281114459038,0.0038452118169516325,0.32395750284194946,0.2040240317583084,0.06189524382352829,0.5191171765327454
1,175,2.625,-0.1573563516139984,-0.057361651211977005,-0.38128843903541565,0.48280665278434753,0.6642317175865173,-0.08292921632528305,-0.11122865974903107,-0.14054656028747559,0.0804830938577652,0.3412759304046631,0.3695176839828491,0.29138079285621643,-6.382096290588379,-13.212787628173828,-76.86050415039062,-0.4765300750732422,45.26259994506836,-150.0,0.014142237603664398,-0.0006665040855295956,0.32257798314094543,0.21855178475379944,0.11510097980499268,0.49180230498313904
1,176,2.6399999999999997,-0.22465769946575165,0.03878745809197426,-0.34802889823913574,0.46027788519859314,0.47871923446655273,-0.33655500411987305,-0.15880118310451508,-0.07258276641368866,0.10399287194013596,0.3253512978553772,0.23838666081428528,0.11210331320762634,-8.773786544799805,-14.16058349609375,-55.387691497802734,-9.427814483642578,-109.1794204711914,150.0,0.0018975484417751431,-0.005866664927452803,0.3223341405391693,0.23385216295719147,0.13739441335201263,0.5161455273628235
1,177,2.655,-0.2730417847633362,0.10609661787748337,-0.3221396505832672,0.44072699546813965,0.26378774642944336,-0.559346616268158,-0.1930018812417984,-0.025004729628562927,0.1222929060459137,0.31153157353401184,0.08646056056022644,-0.04537877440452576,-7.216053009033203,12.512992858886719,-70.4715805053711,-6.1744384765625,13.816642761230469,-150.0,-0.002626354806125164,-0.013511084951460361,0.3276289403438568,0.23643597960472107,0.15745413303375244,0.510424792766571
1,178,2.67,-0.21529227495193481,0.12052034586668015,-0.2914506196975708,0.38388410210609436,0.09788905829191208,-0.7392132878303528,-0.15218114852905273,-0.014809202402830124,0.14398570358753204,0.27135169506073,-0.03080631047487259,-0.17251905798912048,-17.789335250854492,11.731813430786133,-75.81875610351562,7.857671737670898,-110.69441223144531,84.29080200195312,-0.006658818572759628,-0.02349161170423031,0.3338996171951294,0.2367834746837616,0.1535077840089798,0.5010161399841309
1,179,2.685,-0.04596692696213722,0.07173187285661697,-0.2393549382686615,0.274057537317276,0.022905748337507248,-0.8678913116455078,-0.03249210864305496,-0.049295734614133835,0.18080997467041016,0.19371986389160156,-0.08380888402462006,-0.26347616314888,3.2811431884765625,17.53306770324707,-70.60600280761719,-5.305710792541504,5.913948059082031,-150.0,-0.009223204106092453,-0.033137205988168716,0.33929112553596497,0.23391707241535187,0.14997759461402893,0.4218228757381439
1,180,2.6999999999999997,0.16997498273849487,-0.048743534833192825,-0.15858805179595947,0.19519871473312378,0.024740571156144142,-0.9462347626686096,0.12014824151992798,-0.13445477187633514,0.2379007190465927,0.13797785341739655,-0.08251192420721054,-0.31885388493537903,18.664730072021484,-9.096855163574219,-44.440696716308594,-6.926777362823486,-80.26250457763672,150.0,-0.007107408717274666,-0.04808434098958969,0.3510945439338684,0.2216256558895111,0.11734800040721893,0.3940064013004303
1,181,2.715,0.37339702248573303,-0.2149171531200409,-0.08543939143419266,0.15704701840877533,0.02360142581164837,-0.9922565817832947,0.2639388144016266,-0.25191596150398254,0.2896064519882202,0.11101000010967255,-0.08331713825464249,-0.3513847589492798,23.363235473632812,-6.009162902832031,-71.91742706298828,14.678964614868164,69.69117736816406,-150.0,-0.00112823024392128,-0.06399030983448029,0.36603716015815735,0.2057449370622635,0.1011802926659584,0.3202224671840668
1,182,2.73,0.4752664566040039,-0.37023448944091797,-0.04119182005524635,0.09942948818206787,-0.05197549983859062,-1.0,0.33594608306884766,-0.3617033064365387,0.32088321447372437,0.07028257101774216,-0.1367393136024475,-0.37108778953552246,36.21669387817383,-41.974639892578125,-47.54490661621094,-2.586832046508789,-80.69873809814453,150.0,-0.0008946720045059919,-0.08030703663825989,0.3798964321613312,0.20495261251926422,0.05071668699383736,0.4010883867740631
1,183,2.745,0.4239345192909241,-0.46048882603645325,-0.025174224749207497,0.07480307668447495,-0.19264499843120575,-1.0,0.29966166615486145,-0.4255003333091736,0.3322053849697113,0.05287518352270126,-0.23617270588874817,-0.3810662031173706,38.915931701660156,-36.87539291381836,-59.72346496582031,-19.625167846679688,91.60881042480469,-150.0,0.0012159316102042794,-0.0976347029209137,0.3965253531932831,0.19990040361881256,0.017069317400455475,0.4548396170139313
1,184,2.76,0.2794552445411682,-0.47213271260261536,-0.053662821650505066,0.10330948978662491,-0.32850125432014465,-1.0,0.19753527641296387,-0.4337309002876282,0.31206798553466797,0.073025181889534,-0.33220383524894714,-0.384225070476532,23.354633331298828,-45.75223922729492,-62.100189208984375,-9.100452423095703,-75.94974517822266,-90.32856750488281,0.006323105655610561,-0.12058302015066147,0.4153882563114166,0.19248656928539276,0.007124415598809719,0.404011994600296
1,185,2.775,0.11260915547609329,-0.4284062087535858,-0.11649715155363083,0.07941017299890518,-0.41643401980400085,-1.0,0.07959872484207153,-0.40282246470451355,0.2676530182361603,0.056131746619939804,-0.394359827041626,-0.3592482805252075,0.4647226333618164,-24.65332794189453,-94.24151611328125,-9.91788101196289,-11.879196166992188,-150.0,0.011490968056023121,-0.13788224756717682,0.4281778931617737,0.1886807084083557,-0.0182621031999588,0.4284997880458832
1,186,2.79,-0.04501518979668617,-0.3669869005680084,-0.17989316582679749,-0.00015325762797147036,-0.4690469801425934,-0.8810000419616699,-0.03181936591863632,-0.3594077229499817,0.2228410243988037,-0.00010833144187927246,-0.43154972791671753,-0.2727421522140503,-10.164037704467773,-27.533109664916992,-85.6394271850586,-19.272113800048828,-48.737953186035156,-150.0,0.014243705198168755,-0.14818358421325684,0.4332772493362427,0.1872483342885971,-0.039359670132398605,0.4469110071659088
1,187,2.8049999999999997,-0.1865367740392685,-0.3053763508796692,-0.23577463626861572,-0.029926834627985954,-0.488161563873291,-0.7032018303871155,-0.1318550854921341,-0.31585779786109924,0.18334074318408966,-0.02115403488278389,-0.4450610280036926,-0.14706403017044067,-19.138032913208008,-21.118453979492188,-79.11023712158203,-24.724321365356445,-51.62440872192383,-150.0,0.02583862841129303,-0.1585894078016281,0.43917810916900635,0.17624089121818542,-0.054645124822854996,0.45386290550231934
1,188,2.82,-0.28182584047317505,-0.2283305525779724,-0.27432844042778015,-0.02316717989742756,-0.4877002239227295,-0.5349614024162292,-0.19921095669269562,-0.2613973319530487,0.1560886651277542,-0.016375916078686714,-0.44473493099212646,-0.028141885995864868,-48.74567413330078,-8.190377235412598,-103.6456527709961,-1.9419269561767578,-63.36482238769531,-147.10971069335938,0.03159832954406738,-0.15915781259536743,0.43599677085876465,0.17102475464344025,-0.06350553780794144,0.45870956778526306
1,189,2.835,-0.25062689185142517,-0.14429228007793427,-0.2745772898197174,-0.08261346071958542,-0.49620628356933594,-0.386687695980072,-0.17715772986412048,-0.20199419558048248,0.15591275691986084,-0.05839601904153824,-0.4507475197315216,0.07666660100221634,-25.01462745666504,-14.558591842651367,-57.19542694091797,-27.92491340637207,-69.7005844116211,-129.56689453125,0.039587825536727905,-0.16025421023368835,0.43036818504333496,0.16300444304943085,-0.07013693451881409,0.4582563638687134
1,190,2.85,-0.09294696897268295,-0.0706898644566536,-0.22054530680179596,-0.16401681303977966,-0.5093995332717896,-0.27821803092956543,-0.06570034474134445,-0.1499677151441574,0.19410571455955505,-0.11593665927648544,-0.4600732624530792,0.15333926677703857,-28.64337921142578,2.745542287826538,-60.82846450805664,-17.36363410949707,-75.95457458496094,-79.57095336914062,0.042025964707136154,-0.1563182920217514,0.4211369454860687,0.16085191071033478,-0.07620974630117416,0.461800754070282
1,191,2.8649999999999998,0.07565443962812424,-0.016262998804450035,-0.10134387016296387,-0.13779662549495697,-0.520354151725769,-0.2517596483230591,0.0534769743680954,-0.11149563640356064,0.27836424112319946,-0.09740270674228668,-0.46781662106513977,0.1720416098833084,4.988142490386963,-0.5339069366455078,-11.331989288330078,-35.30594253540039,-71.9660873413086,-102.08644104003906,0.04026506841182709,-0.15380431711673737,0.410505473613739,0.1631436049938202,-0.08735377341508865,0.47008058428764343
1,192,2.88,0.1785053014755249,0.018253598362207413,0.06912890076637268,-0.05063910409808159,-0.5335758328437805,-0.30624809861183167,0.12617796659469604,-0.08709729462862015,0.3988643288612366,-0.03579467535018921,-0.4771624803543091,0.1335259974002838,13.311321258544922,10.74501895904541,20.995426177978516,-27.733272552490234,-61.62598419189453,-122.21382904052734,0.03935825824737549,-0.15334507822990417,0.4170072376728058,0.1656552404165268,-0.09827200323343277,0.4810023307800293
1,193,2.895,0.2136949747800827,0.06448989361524582,0.26511022448539734,-0.01722099259495735,-0.5577419400215149,-0.3974511921405792,0.1510520875453949,-0.0544147863984108,0.5373953580856323,-0.012172803282737732,-0.4942445158958435,0.06905832886695862,14.27025032043457,19.873920440673828,-13.37771224975586,-25.37108612060547,-66.385986328125,-150.0,0.04562540724873543,-0.14580120146274567,0.4178474247455597,0.1641993224620819,-0.10864140838384628,0.4899698793888092
1,194,2.9099999999999997,0.14718420803546906,0.15436886250972748,0.4620310068130493,0.0029455029871314764,-0.6017574667930603,-0.46640312671661377,0.10403839498758316,0.009116914123296738,0.6765904426574707,0.0020820535719394684,-0.5253572463989258,0.02031906694173813,-5.538959980010986,7.854406356811523,101.82666778564453,-15.505306243896484,-71.08577728271484,-150.0,0.05464090034365654,-0.1490895003080368,0.49602699279785156,0.15811458230018616,-0.11996984481811523,0.4970574975013733
1,195,2.925,0.023711716756224632,0.2688647210597992,0.6375584006309509,0.08463098853826523,-0.6624099016189575,-0.4742787778377533,0.016760826110839844,0.09004924446344376,0.800663411617279,0.05982212349772453,-0.5682299137115479,0.01475212350487709,-13.249568939208984,71.73005676269531,-150.0,-3.5832901000976562,-72.7748794555664,-150.0,0.06055415794253349,-0.11360516399145126,0.48972558975219727,0.1522691398859024,-0.1294662058353424,0.5011950731277466
1,196,2.94,-0.02946942299604416,0.37495651841163635,0.780968964099884,0.2263336330652237,-0.7003883719444275,-0.4337291419506073,-0.020830709487199783,0.16504111886024475,0.9020344018936157,0.15998582541942596,-0.5950753092765808,0.04341496154665947,-16.596824645996094,-57.6048583984375,150.0,8.85435962677002,-87.85359191894531,-136.88522338867188,0.06600189954042435,-0.09593402594327927,0.5240992903709412,0.13824157416820526,-0.14106258749961853,0.5027696490287781
1,197,2.955,0.023404262959957123,0.48558560013771057,0.8832142353057861,0.39305055141448975,-0.6928420066833496,-0.37964969873428345,0.016543500125408173,0.24324020743370056,0.9743072986602783,0.2778310775756836,-0.5897411108016968,0.08164148032665253,-10.135570526123047,95.20429992675781,-150.0,39.98960876464844,-73.69854736328125,-129.0840606689453,0.06285469233989716,-0.055788878351449966,0.5098204612731934,0.12753826379776,-0.15301458537578583,0.5060812830924988
1,198,2.9699999999999998,0.10550225526094437,0.6078418493270874,0.9301548004150391,0.49748268723487854,-0.6609794497489929,-0.33441027998924255,0.07457515597343445,0.32965803146362305,1.0074876546859741,0.35164982080459595,-0.5672187805175781,0.11361931264400482,9.295798301696777,-48.981170654296875,150.0,37.94871139526367,-68.38209533691406,-118.9595718383789,0.0528835728764534,-0.024324705824255943,0.5257666707038879,0.12110268324613571,-0.17266330122947693,0.513982892036438
1,199,2.985,0.13699080049991608,0.7211140990257263,0.9184706211090088,0.47543784976005554,-0.6199581027030945,-0.31409329175949097,0.09683309495449066,0.4097254276275635,0.9992285966873169,0.33606722950935364,-0.5382224917411804,0.1279805600643158,23.24895668029785,86.41959381103516,-150.0,32.44926452636719,-38.947811126708984,-143.9680633544922,0.04290439933538437,0.034106504172086716,0.49108871817588806,0.118431456387043,-0.18711037933826447,0.5232308506965637
1,200,3.0,0.1089823842048645,0.8143062591552734,0.8484358787536621,0.3590543270111084,-0.5829735994338989,-0.3127511441707611,0.07703511416912079,0.47559913992881775,0.9497238993644714,0.25380057096481323,-0.5120797157287598,0.1289292573928833,13.479188919067383,-63.639915466308594,150.0,19.116649627685547,-50.273712158203125,-134.59083557128906,0.04004835709929466,0.07490435242652893,0.49260008335113525,0.11094143986701965,-0.20378009974956512,0.5304861664772034
1,201,3.0149999999999997,0.06122955307364464,0.8767280578613281,0.7163403630256653,0.20769591629505157,-0.5573210716247559,-0.30544397234916687,0.043280623853206635,0.5197224617004395,0.8563510775566101,0.1468116044998169,-0.49394699931144714,0.13409438729286194,4.238455772399902,77.69287109375,-150.0,15.90756893157959,-28.36233139038086,-139.2637939453125,0.03994923084974289,0.13824070990085602,0.44640177488327026,0.10062116384506226,-0.21829450130462646,0.5334956049919128
1,202,3.03,0.04261855408549309,0.8933271169662476,0.5200710296630859,0.08649653941392899,-0.5310210585594177,-0.29532551765441895,0.03012528270483017,0.5314556360244751,0.7176164984703064,0.06114080548286438,-0.4753566384315491,0.1412467062473297,-4.110448360443115,-81.91815185546875,150.0,11.487092971801758,-31.71561622619629,-113.1453628540039,0.0395459309220314,0.1826520711183548,0.4403359293937683,0.08636920899152756,-0.23614352941513062,0.5339891314506531
1,203,3.045,0.003705353708937764,0.8486791849136353,0.26085594296455383,0.027913358062505722,-0.49689969420433044,-0.302121102809906,0.0026191603392362595,0.4998958706855774,0.5343881845474243,0.019730791449546814,-0.45123764872550964,0.13644319772720337,2.566384792327881,47.985389709472656,-150.0,9.54236125946045,-11.702068328857422,-124.1542739868164,0.03471803665161133,0.23956134915351868,0.3939216136932373,0.07314714044332504,-0.24900022149085999,0.5335735082626343
1,204,3.06,-0.11474611610174179,0.735321044921875,-0.028991583734750748,0.013421510346233845,-0.4612078070640564,-0.3157864511013031,-0.08110925555229187,0.41976773738861084,0.329507052898407,0.009487107396125793,-0.42600855231285095,0.12678372859954834,-9.441915512084961,-105.02850341796875,150.0,11.563261032104492,-19.37627410888672,-109.77464294433594,0.027269210666418076,0.2634100317955017,0.3979841470718384,0.058512020856142044,-0.26546743512153625,0.5322930812835693
1,205,3.0749999999999997,-0.24477730691432953,0.5521862506866455,-0.30591732263565063,0.020640291273593903,-0.41909968852996826,-0.30241140723228455,-0.17302289605140686,0.2903174161911011,0.13375979661941528,0.01458976324647665,-0.396244078874588,0.1362379789352417,-5.417829513549805,26.14190673828125,-150.0,10.767318725585938,1.85888671875,-121.4403076171875,0.008755842223763466,0.2943585216999054,0.3689461648464203,0.048866868019104004,-0.2750697731971741,0.5321100950241089
