EASYMMMM/IGEvolution/isaacgymenvs/run_data/srl_policy_outputs_env0.csv
episode,step,time_sec,action_0,action_1,action_2,action_3,action_4,action_5,pd_target_0,pd_target_1,pd_target_2,pd_target_3,pd_target_4,pd_target_5,torque_0,torque_1,torque_2,torque_3,torque_4,torque_5,joint_pos_0,joint_pos_1,joint_pos_2,joint_pos_3,joint_pos_4,joint_pos_5
1,0,0.0,0.02785976603627205,-0.02168291248381138,-0.02785971201956272,0.0032095308415591717,-0.005253543611615896,-0.006887656170874834,0.019692908972501755,-0.11532674729824066,0.33030712604522705,0.0022686838638037443,-0.1037135124206543,0.34513139724731445,2.3631489276885986,-3.218616485595703,-5.514002799987793,0.2722420394420624,-0.7798372507095337,-1.3632071018218994,0.0343608483672142,-0.10534706711769104,0.3548882007598877,-0.03346056863665581,-0.09363196790218353,0.33739712834358215
1,1,0.015,0.12468583136796951,-0.10321827977895737,-0.12468574941158295,0.03062577359378338,-0.022096075117588043,-0.03365769982337952,0.08813522756099701,-0.17296069860458374,0.2618648409843445,0.021648084744811058,-0.11561879515647888,0.32620877027511597,-56.327735900878906,-5.805829048156738,-38.99720001220703,66.89112854003906,-22.37031364440918,44.050724029541016,0.04019467905163765,-0.10192244499921799,0.3173716068267822,-0.03594968467950821,-0.1033492311835289,0.3722238540649414
1,2,0.03,0.2771552801132202,-0.22141902148723602,-0.27858206629753113,0.060893792659044266,-0.055672675371170044,-0.07856114208698273,0.1959095299243927,-0.2565118670463562,0.1530819535255432,0.043043289333581924,-0.1393526941537857,0.29446840286254883,37.685142517089844,-44.479225158691406,125.91059875488281,-15.590511322021484,27.124732971191406,-150.0,0.02591044269502163,-0.13050085306167603,0.3761441111564636,-0.012853923253715038,-0.08903957903385162,0.301072895526886
1,3,0.045,0.3904687762260437,-0.3307304382324219,-0.44834697246551514,0.048840899020433426,-0.08450537174940109,-0.12772661447525024,0.27600613236427307,-0.33377954363822937,0.033082231879234314,0.03452359884977341,-0.15973332524299622,0.25971537828445435,49.240665435791016,44.90913391113281,-150.0,-28.79090118408203,-81.76959991455078,150.0,0.02587517537176609,-0.14044730365276337,0.37648338079452515,0.002613847842440009,-0.10407999157905579,0.28814369440078735
1,4,0.06,0.4171580374240875,-0.43528011441230774,-0.6089840531349182,0.01726926863193512,-0.07435872405767441,-0.15354444086551666,0.29487165808677673,-0.40768134593963623,-0.0804653912782669,0.012206926941871643,-0.15256108343601227,0.24146583676338196,16.64484977722168,-88.10550689697266,145.69842529296875,-8.136972427368164,78.9696273803711,-150.0,0.0417838916182518,-0.17502103745937347,0.4249882698059082,0.0067413910292088985,-0.10419287532567978,0.22969481348991394
1,5,0.075,0.441988080739975,-0.5221953988075256,-0.7468394637107849,0.015826068818569183,-0.024719299748539925,-0.12596063315868378,0.3124229907989502,-0.4691181480884552,-0.17790967226028442,0.011186789721250534,-0.1174730435013771,0.26096367835998535,10.601076126098633,54.73126220703125,-150.0,-5.753738880157471,-65.57467651367188,150.0,0.07084433734416962,-0.20239193737506866,0.43611517548561096,0.0006592402351088822,-0.11360223591327667,0.21382619440555573
1,6,0.09,0.4776104688644409,-0.5484243035316467,-0.8559615612030029,0.061316631734371185,0.03492520749568939,-0.03734271228313446,0.33760297298431396,-0.4876582622528076,-0.25504350662231445,0.04334217682480812,-0.07531283050775528,0.3236039876937866,-18.42190170288086,-61.86054229736328,48.24775695800781,23.120967864990234,79.66699981689453,-150.0,0.10256464779376984,-0.22257742285728455,0.3999527394771576,-0.010429160669445992,-0.10873682051897049,0.19249702990055084
1,7,0.105,0.44420209527015686,-0.5271127820014954,-0.8915286660194397,0.08512625098228455,0.05205220356583595,0.11135043203830719,0.31398797035217285,-0.4725940227508545,-0.28018444776535034,0.06017220392823219,-0.06320647150278091,0.4287089705467224,-17.642478942871094,-11.141258239746094,-150.0,37.273624420166016,43.95048522949219,-102.6099853515625,0.11660793423652649,-0.22501198947429657,0.35412895679473877,-0.018916994333267212,-0.1142442524433136,0.21914048492908478
1,8,0.12,0.3556971848011017,-0.5185661911964417,-0.7891537547111511,0.02892453595995903,0.03438160568475723,0.29561007022857666,0.2514275312423706,-0.4665527939796448,-0.20781981945037842,0.020445551723241806,-0.07569707930088043,0.5589544177055359,13.303400993347168,-22.127126693725586,-150.0,5.981716156005859,15.262285232543945,30.240768432617188,0.10340917110443115,-0.22842799127101898,0.3638944625854492,-0.006408993620425463,-0.12828153371810913,0.2688521444797516
1,9,0.135,0.2931753695011139,-0.5287363529205322,-0.5948963761329651,-0.02858935482800007,0.05733412131667137,0.46709564328193665,0.2072334736585617,-0.47374168038368225,-0.07050745189189911,-0.020208625122904778,-0.05947290360927582,0.6801704168319702,38.963523864746094,-46.16428756713867,-137.906982421875,-25.693172454833984,43.72977828979492,-63.69561767578125,0.09536603093147278,-0.23214775323867798,0.37164008617401123,-0.0027535702101886272,-0.11828654259443283,0.2677249610424042
1,10,0.15,0.245632603764534,-0.536436140537262,-0.4134550988674164,0.011912279762327671,0.13586536049842834,0.5959993600845337,0.17362746596336365,-0.4791843295097351,0.05774584412574768,0.00842029508203268,-0.003962446004152298,0.7712870836257935,7.954768657684326,-58.253658294677734,-119.31298065185547,1.6572680473327637,17.929079055786133,100.6092529296875,0.096258245408535,-0.23751728236675262,0.38159671425819397,-0.004262048751115799,-0.1363755613565445,0.3698869049549103
1,11,0.16499999999999998,0.1822642982006073,-0.5305694341659546,-0.28233370184898376,0.09927535057067871,0.21381524205207825,0.6704280972480774,0.1288350522518158,-0.4750373959541321,0.1504300832748413,0.07017361372709274,0.05113706737756729,0.823897659778595,2.996887683868408,-38.80629348754883,-98.82534790039062,12.91339111328125,86.54901123046875,-150.0,0.08999510854482651,-0.23764167726039886,0.3852039575576782,0.0047895945608615875,-0.11030325293540955,0.38032007217407227
1,12,0.18,0.12476083636283875,-0.4918653666973114,-0.2219182699918747,0.15788695216178894,0.27224862575531006,0.6657543182373047,0.08818824589252472,-0.4476791024208069,0.19313523173332214,0.11160371452569962,0.09244119375944138,0.8205939531326294,13.937143325805664,-49.23627853393555,-52.38380813598633,-9.450865745544434,-62.024383544921875,150.0,0.08324237167835236,-0.24588340520858765,0.3932081460952759,0.0124879265204072,-0.09952989965677261,0.42853477597236633
1,13,0.195,0.07710772007703781,-0.42793142795562744,-0.2451750785112381,0.22177493572235107,0.33919429779052734,0.5654134154319763,0.054504238069057465,-0.4024868607521057,0.17669595777988434,0.1567634791135788,0.13976231217384338,0.7496671676635742,1.0894620418548584,-8.431097030639648,-102.65370178222656,16.603551864624023,87.42215728759766,-150.0,0.07755858451128006,-0.2562790513038635,0.40214356780052185,0.020335255190730095,-0.06789498776197433,0.4274563193321228
1,14,0.21,0.06607331335544586,-0.3636445701122284,-0.31805408000946045,0.28790998458862305,0.4004088342189789,0.3788052499294281,0.046704478561878204,-0.35704517364501953,0.12518084049224854,0.20351159572601318,0.1830323040485382,0.6177616119384766,5.953611373901367,-6.402853965759277,-95.08773803710938,5.039379119873047,-58.47616195678711,150.0,0.0673075020313263,-0.26596009731292725,0.4083597660064697,0.03284274414181709,-0.048126474022865295,0.46236830949783325
1,15,0.22499999999999998,0.10328777879476547,-0.30042004585266113,-0.3851749002933502,0.3093671202659607,0.4160071611404419,0.12891539931297302,0.07300983369350433,-0.3123543858528137,0.07773591578006744,0.21867874264717102,0.1940581202507019,0.44112491607666016,14.922253608703613,10.647947311401367,-119.7779312133789,8.40567684173584,67.7656021118164,-150.0,0.06156671419739723,-0.27147990465164185,0.4140487015247345,0.040518082678318024,-0.0045255497097969055,0.4488659203052521
1,16,0.24,0.1948658674955368,-0.25424036383628845,-0.40266039967536926,0.3079884350299835,0.3818250596523285,-0.1435551643371582,0.13774257898330688,-0.27971190214157104,0.0653761550784111,0.21770422160625458,0.169896200299263,0.24852684140205383,13.206027030944824,6.669551372528076,-113.5907974243164,13.146907806396484,-92.64703369140625,150.0,0.04970454052090645,-0.2784948945045471,0.41387009620666504,0.05405256897211075,0.013244870118796825,0.47897154092788696
1,17,0.255,0.3333684504032135,-0.2628907263278961,-0.35365134477615356,0.32287150621414185,0.30021965503692627,-0.3989148437976837,0.23564429581165314,-0.2858264744281769,0.10001861304044724,0.22822444140911102,0.11221274733543396,0.06802374124526978,42.02403259277344,15.220122337341309,-93.92338562011719,0.8953037261962891,55.38224411010742,-150.0,0.03952672705054283,-0.2820991575717926,0.4118531346321106,0.0650726705789566,0.04194192215800285,0.46954426169395447
1,18,0.27,0.4790075421333313,-0.3168376386165619,-0.2635734975337982,0.2978614866733551,0.17372210323810577,-0.6157747507095337,0.33859050273895264,-0.3239592909812927,0.16369087994098663,0.2105458825826645,0.022796906530857086,-0.08526550233364105,46.14380645751953,-3.9142465591430664,-66.37255096435547,6.290904998779297,-104.98735809326172,149.2333221435547,0.03673367202281952,-0.29148492217063904,0.41611555218696594,0.06667690724134445,0.04373861476778984,0.5056431293487549
1,19,0.285,0.5705239176750183,-0.3667178750038147,-0.17306898534297943,0.16773825883865356,0.050759103149175644,-0.7858718037605286,0.4032796025276184,-0.3592175543308258,0.2276647537946701,0.11856719851493835,-0.06412050873041153,-0.20549999177455902,44.45935821533203,7.935503005981445,-83.51402282714844,10.61758804321289,37.303245544433594,-150.0,0.03638017177581787,-0.29876717925071716,0.4220659136772156,0.06602843850851059,0.05192124843597412,0.5081119537353516
1,20,0.3,0.528967022895813,-0.3837915360927582,-0.08985456079244614,0.016954299062490463,-0.0035894124303013086,-0.9095672965049744,0.3739047646522522,-0.37128621339797974,0.28648555278778076,0.011984288692474365,-0.10253720730543137,-0.29293519258499146,40.173404693603516,-4.311525344848633,-54.6884765625,-6.3600873947143555,-93.9670639038086,37.42536926269531,0.04141773656010628,-0.3140970468521118,0.43229642510414124,0.05910082533955574,0.05065888911485672,0.45825883746147156
1,21,0.315,0.356241911649704,-0.3687770962715149,-0.01490385364741087,-0.07343311607837677,0.011571753770112991,-0.992244303226471,0.25181257724761963,-0.36067312955856323,0.33946508169174194,-0.05190681666135788,-0.09182041138410568,-0.35137611627578735,18.453794479370117,21.700820922851562,-64.58918762207031,-0.9173793792724609,11.889888763427734,-150.0,0.04691394418478012,-0.3288511037826538,0.4429280161857605,0.05070105940103531,0.05907868221402168,0.31219619512557983
1,22,0.32999999999999996,0.11759666353464127,-0.35348302125930786,0.04635152220726013,-0.16067364811897278,0.02035471424460411,-1.0,0.08312419056892395,-0.34986239671707153,0.38276395201683044,-0.11357351392507553,-0.08561210334300995,-0.38628721237182617,-1.113448143005371,18.955026626586914,-45.09343719482422,-10.388175964355469,-72.30186462402344,150.0,0.04849657788872719,-0.34159964323043823,0.45030757784843445,0.04523496329784393,0.029598582535982132,0.4041142761707306
1,23,0.345,-0.12427477538585663,-0.36854326725006104,0.09031589329242706,-0.26754292845726013,-0.041962020099163055,-1.0,-0.08784466981887817,-0.3605078458786011,0.41384053230285645,-0.18911495804786682,-0.1296612024307251,-0.40349769592285156,-15.156441688537598,20.640518188476562,-35.60706329345703,-18.976991653442383,76.02680969238281,-150.0,0.045415204018354416,-0.34727299213409424,0.4549767076969147,0.03885992243885994,0.016756538301706314,0.46166491508483887
1,24,0.36,-0.28415900468826294,-0.3877106308937073,0.11621437221765518,-0.3204736113548279,-0.14384356141090393,-1.0,-0.2008601725101471,-0.37405645847320557,0.4321470856666565,-0.22652946412563324,-0.20167700946331024,-0.4084014296531677,-22.087570190429688,-0.01474618911743164,-12.418973922729492,-25.62122344970703,-77.71813201904297,-115.54244995117188,0.042888689786195755,-0.3572862148284912,0.4608307182788849,0.03023589588701725,0.0340358205139637,0.3486068844795227
1,25,0.375,-0.28806522488594055,-0.3873031735420227,0.13173139095306396,-0.24893087148666382,-0.23554669320583344,-1.0,-0.20362132787704468,-0.3737684488296509,0.4431154131889343,-0.17595887184143066,-0.2664981186389923,-0.3826531171798706,-33.34385681152344,-7.02789831161499,-27.270278930664062,-18.672382354736328,-58.39282989501953,-150.0,0.04321944713592529,-0.3649659752845764,0.46448954939842224,0.029943197965621948,0.024582816287875175,0.35802850127220154
1,26,0.39,-0.15849150717258453,-0.3694933354854584,0.13126841187477112,-0.11950898915529251,-0.30631980299949646,-0.9238816499710083,-0.11203105747699738,-0.3611794114112854,0.44278815388679504,-0.08447593450546265,-0.3165246844291687,-0.30305343866348267,-16.25649642944336,9.125995635986328,-10.799242973327637,-16.07427978515625,-57.6903076171875,-150.0,0.04529740288853645,-0.3704333007335663,0.46729394793510437,0.027386967092752457,0.020760323852300644,0.36023440957069397
1,27,0.40499999999999997,0.040821824222803116,-0.3140290677547455,0.10680599510669708,-0.07800652831792831,-0.32997629046440125,-0.789058268070221,0.028855249285697937,-0.3219740390777588,0.4254966974258423,-0.05513957142829895,-0.33324646949768066,-0.20775237679481506,-6.472654819488525,16.22589111328125,-20.184364318847656,-4.650087833404541,-70.38074493408203,-150.0,0.04634041711688042,-0.37297096848487854,0.4669449031352997,0.025789709761738777,0.019220387563109398,0.36000511050224304
1,28,0.42,0.26469263434410095,-0.2366573065519333,0.09872179478406906,-0.09670256823301315,-0.3247182369232178,-0.6921865344047546,0.18710020184516907,-0.267283171415329,0.4197823107242584,-0.0683550238609314,-0.3295297622680664,-0.13927780091762543,19.818971633911133,20.210330963134766,-6.01154899597168,-13.592121124267578,-71.21034240722656,-149.16050720214844,0.04739377275109291,-0.3726188838481903,0.46432167291641235,0.02438717521727085,0.019939586520195007,0.35733431577682495
1,29,0.435,0.4663582742214203,-0.1956673562526703,0.15839079022407532,-0.09689918905496597,-0.32921385765075684,-0.6271958351135254,0.32964926958084106,-0.2383090853691101,0.4619598388671875,-0.06849400699138641,-0.3327075242996216,-0.09333858639001846,30.94935417175293,25.155437469482422,4.0221476554870605,-7.618515968322754,-77.060791015625,-121.52877807617188,0.05436059087514877,-0.3727639615535736,0.4647369384765625,0.017888016998767853,0.02217308059334755,0.3511447608470917
1,30,0.44999999999999996,0.6208474636077881,-0.18244929611682892,0.28167420625686646,-0.08621624112129211,-0.32730573415756226,-0.5917026996612549,0.4388512372970581,-0.22896578907966614,0.5491037368774414,-0.060942672193050385,-0.33135876059532166,-0.06824994832277298,36.15176010131836,29.162364959716797,19.017595291137695,0.07819652557373047,-78.82938385009766,-105.4321060180664,0.07047164440155029,-0.36840251088142395,0.47556814551353455,0.01071220263838768,0.021562090143561363,0.34681418538093567
1,31,0.46499999999999997,0.6926707029342651,-0.15482856333255768,0.43408119678497314,-0.014618822373449802,-0.29201817512512207,-0.5905832648277283,0.4896200895309448,-0.20944185554981232,0.6568338871002197,-0.010333437472581863,-0.30641546845436096,-0.06745866686105728,22.104429244995117,18.209400177001953,4.1639251708984375,6.647730827331543,-67.09783935546875,-112.17256927490234,0.09218967705965042,-0.3528573215007782,0.49006834626197815,0.007533056661486626,0.019500819966197014,0.3479837477207184
1,32,0.48,0.6677565574645996,-0.12240816652774811,0.5865973234176636,0.1261567324399948,-0.22145798802375793,-0.6041839122772217,0.4720093309879303,-0.18652522563934326,0.7646411657333374,0.08917494118213654,-0.25653940439224243,-0.07707241177558899,16.688827514648438,-2.0821075439453125,43.1945915222168,10.241405487060547,-54.72003173828125,-135.67929077148438,0.11936508119106293,-0.33982548117637634,0.5395756959915161,0.0036043934524059296,0.01679850183427334,0.350732684135437
1,33,0.495,0.6358190774917603,-0.09935591369867325,0.7080646753311157,0.2333809733390808,-0.14652112126350403,-0.5987012386322021,0.4494340419769287,-0.17023055255413055,0.8505013585090637,0.16496729850769043,-0.2035696655511856,-0.07319693267345428,1.5045051574707031,19.838537216186523,-113.14350891113281,24.874671936035156,-39.00431823730469,-136.15652465820312,0.14683811366558075,-0.3022049367427826,0.5093581080436707,0.0018061012960970402,0.016175314784049988,0.352214515209198
1,34,0.51,0.6552040576934814,-0.04711012914776802,0.7650991678237915,0.27663612365722656,-0.10934622585773468,-0.5798683762550354,0.4631364941596985,-0.13330018520355225,0.8908166885375977,0.19554255902767181,-0.17729228734970093,-0.05988478660583496,2.0201873779296875,-63.18556213378906,150.0,24.862640380859375,-43.106624603271484,-123.70751953125,0.16610100865364075,-0.29005154967308044,0.5441208481788635,0.002378456061705947,0.011715720407664776,0.3568000793457031
1,35,0.525,0.672421395778656,0.07336008548736572,0.7359946370124817,0.2777802348136902,-0.12288670241832733,-0.5740443468093872,0.4753066897392273,-0.04814481735229492,0.8702439069747925,0.1963512897491455,-0.1868634819984436,-0.05576800927519798,19.262451171875,81.05034637451172,-150.0,20.714513778686523,-27.384422302246094,-147.04197692871094,0.1947205364704132,-0.2560454308986664,0.5338534116744995,-0.0033863955177366734,0.015227189287543297,0.35263556241989136
1,36,0.54,0.6285153031349182,0.2204941213130951,0.6198605895042419,0.1892847716808319,-0.17069685459136963,-0.5756624341011047,0.4442713260650635,0.055858105421066284,0.7881535887718201,0.1337975263595581,-0.22065848112106323,-0.05691177397966385,-19.859403610229492,-50.27320861816406,150.0,30.637285232543945,-63.120025634765625,-92.04051971435547,0.22298100590705872,-0.2347133457660675,0.5575035214424133,-0.01393203530460596,0.013663340359926224,0.3461134433746338
1,37,0.5549999999999999,0.5051432847976685,0.3199717402458191,0.4333049952983856,0.01092461310327053,-0.22675791382789612,-0.5594375133514404,0.35706475377082825,0.1261746883392334,0.6562852263450623,0.007722154259681702,-0.26028570532798767,-0.045443013310432434,-10.150453567504883,86.80938720703125,-150.0,13.576919555664062,-46.54026794433594,-112.3404312133789,0.2364135980606079,-0.18469737470149994,0.5308576226234436,-0.01522283349186182,0.012812725268304348,0.34478020668029785
1,38,0.57,0.29537299275398254,0.3406358063220978,0.18937304615974426,-0.19419024884700775,-0.2632349729537964,-0.5332980751991272,0.20878687500953674,0.1407812386751175,0.4838598966598511,-0.13726501166820526,-0.2860698103904724,-0.026966162025928497,-17.929405212402344,-78.65003204345703,150.0,-15.432443618774414,-67.62285614013672,-100.44435119628906,0.24469681084156036,-0.15099303424358368,0.5431501865386963,-0.020073048770427704,0.009927825070917606,0.3437426686286926
1,39,0.585,0.04140620678663254,0.29035669565200806,-0.08412247151136398,-0.34254297614097595,-0.2621927261352539,-0.526749312877655,0.029268324375152588,0.10524103790521622,0.2905373275279999,-0.242129385471344,-0.2853330969810486,-0.022337136790156364,-29.49229621887207,52.549827575683594,-150.0,-20.03215217590332,-51.52925109863281,-115.85713958740234,0.23560921847820282,-0.10471980273723602,0.5149300694465637,-0.017559556290507317,0.005966278724372387,0.3475372791290283
1,40,0.6,-0.14097239077091217,0.1997818499803543,-0.3467068374156952,-0.33572185039520264,-0.22417572140693665,-0.5282115936279297,-0.09964752197265625,0.04121745377779007,0.10492739081382751,-0.2373078167438507,-0.25846046209335327,-0.023370731621980667,-19.73334312438965,-97.99603271484375,150.0,-33.506752014160156,-52.76532745361328,-117.61243438720703,0.21316830813884735,-0.09101343154907227,0.5324956178665161,-0.014459763653576374,-0.004026520065963268,0.35413339734077454
1,41,0.615,-0.1630779653787613,0.093794085085392,-0.5736250877380371,-0.18286685645580292,-0.18176235258579254,-0.5112990736961365,-0.11527302861213684,-0.03370087221264839,-0.05547165870666504,-0.12926097214221954,-0.2284802347421646,-0.011415990069508553,0.7516937255859375,53.7020263671875,-150.0,-19.34494972229004,-22.7432804107666,-139.01638793945312,0.19031646847724915,-0.06653628498315811,0.5140301585197449,-0.015192225575447083,-0.007643316872417927,0.35504549741744995
1,42,0.63,-0.046439848840236664,-0.004189910367131233,-0.753097414970398,-0.01705523394048214,-0.16923201084136963,-0.47062259912490845,-0.03282639756798744,-0.10296167433261871,-0.18233314156532288,-0.012055635452270508,-0.21962304413318634,0.017336517572402954,-1.4095344543457031,-107.21060180664062,124.84617614746094,4.39011812210083,-48.261863708496094,-89.89176177978516,0.1706172376871109,-0.06421887874603271,0.5224073529243469,-0.021378131583333015,-0.01166080404073,0.354125052690506
1,43,0.645,0.13814258575439453,-0.05880870297551155,-0.880547046661377,0.08216345310211182,-0.18118047714233398,-0.4137744605541229,0.09764724969863892,-0.14156942069530487,-0.27242201566696167,0.05807792767882347,-0.22806893289089203,0.05752009153366089,21.284687042236328,38.6534423828125,-150.0,18.2083740234375,-33.188880920410156,-98.29911041259766,0.15356037020683289,-0.0544196255505085,0.4819153845310211,-0.027002133429050446,-0.013021829538047314,0.35505542159080505
1,44,0.6599999999999999,0.3100276589393616,-0.05020026117563248,-0.9615359306335449,0.1750977635383606,-0.19522541761398315,-0.3455047011375427,0.21914565563201904,-0.1354844719171524,-0.32966962456703186,0.12376932054758072,-0.23799671232700348,0.10577715188264847,25.236244201660156,-83.65768432617188,148.85891723632812,25.21673011779785,-50.30908966064453,-73.79102325439453,0.16227222979068756,-0.07606775313615799,0.5343314409255981,-0.03245695307850838,-0.021934524178504944,0.36212003231048584
1,45,0.6749999999999999,0.37784460186958313,-0.0019766443874686956,-1.0,0.24212470650672913,-0.21058765053749084,-0.2832152247428894,0.2670826315879822,-0.10139720886945724,-0.36421385407447815,0.171147882938385,-0.24885563552379608,0.14980697631835938,-5.853635787963867,92.9669189453125,-150.0,30.338165283203125,-24.307701110839844,-99.99082946777344,0.17160698771476746,-0.07742320746183395,0.555169939994812,-0.030953871086239815,-0.029467187821865082,0.37403354048728943
1,46,0.69,0.362596333026886,0.035194069147109985,-1.0,0.2001144140958786,-0.24036285281181335,-0.25897178053855896,0.2563042640686035,-0.07512278109788895,-0.37705251574516296,0.14145255088806152,-0.26990246772766113,0.16694363951683044,-0.18894672393798828,-58.44291305541992,-34.18965148925781,16.450597763061523,-40.9781608581543,-89.58012390136719,0.17319223284721375,-0.061433058232069016,0.4858989119529724,-0.025836914777755737,-0.03959795832633972,0.3857085406780243
1,47,0.705,0.32803407311439514,0.045293159782886505,-1.0,0.10730072855949402,-0.2826694846153259,-0.2661483883857727,0.23187364637851715,-0.06798415631055832,-0.36062413454055786,0.07584641873836517,-0.29980725049972534,0.1618708074092865,17.902812957763672,13.888099670410156,-150.0,1.7901935577392578,-37.18685531616211,-97.09025573730469,0.16657134890556335,-0.06149430572986603,0.4877726137638092,-0.019281785935163498,-0.04132366180419922,0.3912818133831024
1,48,0.72,0.2508862316608429,0.026686564087867737,-0.9259352684020996,0.020952140912413597,-0.32138097286224365,-0.2679256200790405,0.1773410439491272,-0.08113638311624527,-0.30450505018234253,0.014810197055339813,-0.32717078924179077,0.16061455011367798,8.279117584228516,-8.346999168395996,-150.0,-2.885251045227051,-66.98900604248047,-72.12995147705078,0.15854859352111816,-0.05535920709371567,0.482206255197525,-0.011558186262845993,-0.03737609460949898,0.3921580910682678
1,49,0.735,0.12050830572843552,-0.0155074717476964,-0.7705333828926086,-0.06742662936449051,-0.32819879055023193,-0.2562050521373749,0.0851823091506958,-0.11096158623695374,-0.19465790688991547,-0.047661080956459045,-0.3319900333881378,0.1688993275165558,2.5377721786499023,-24.46978759765625,-150.0,-14.929268836975098,-74.41902160644531,-62.6953010559082,0.14896881580352783,-0.045881155878305435,0.47234103083610535,-0.0024683226365596056,-0.03317492827773094,0.39168277382850647
1,50,0.75,-0.05648618936538696,-0.037028346210718155,-0.5598275065422058,-0.09795142710208893,-0.2711065411567688,-0.2459905594587326,-0.039927735924720764,-0.12617379426956177,-0.0457187294960022,-0.06923779100179672,-0.2916339039802551,0.17611953616142273,-8.304349899291992,-37.010719299316406,-126.8561782836914,-21.915943145751953,-65.45804595947266,-59.845001220703125,0.145169198513031,-0.03595287725329399,0.4649054706096649,0.0009776197839528322,-0.02726556360721588,0.38709184527397156
1,51,0.765,-0.26551198959350586,0.004528036341071129,-0.3704988956451416,-0.07661028206348419,-0.16570378839969635,-0.25735408067703247,-0.18767938017845154,-0.0967993214726448,0.08810979872941971,-0.05415262281894684,-0.21712909638881683,0.16808712482452393,-42.3065299987793,-27.479652404785156,-104.67111206054688,-4.2952494621276855,-55.481544494628906,-41.092613220214844,0.1457856446504593,-0.02727411687374115,0.46091794967651367,0.00019461523334030062,-0.020481184124946594,0.38114598393440247
1,52,0.78,-0.41432443261146545,0.10005191713571548,-0.25808724761009216,-0.11555681377649307,-0.06272094696760178,-0.2869434356689453,-0.2928687036037445,-0.02927747368812561,0.1675688922405243,-0.08168230205774307,-0.1443348228931427,0.14717164635658264,-54.958229064941406,-15.239460945129395,-81.8671646118164,-7.637236595153809,-41.64532470703125,-51.00157165527344,0.146626815199852,-0.018839111551642418,0.45774075388908386,-0.000757617992348969,-0.013735329732298851,0.3761853575706482
1,53,0.7949999999999999,-0.39977389574050903,0.20033982396125793,-0.21457810699939728,-0.18125727772712708,0.0077582839876413345,-0.30225715041160583,-0.2825835347175598,0.04161185771226883,0.19832368195056915,-0.1281232237815857,-0.09451599419116974,0.13634702563285828,-53.97846984863281,0.48742198944091797,-71.1555404663086,-13.041179656982422,-28.695240020751953,-55.25238037109375,0.14958904683589935,-0.01135957334190607,0.4549744725227356,-0.003822888946160674,-0.006844080053269863,0.3688739240169525
1,54,0.8099999999999999,-0.29096391797065735,0.2496788501739502,-0.21077367663383484,-0.15323086082935333,0.03237544745206833,-0.2997133433818817,-0.2056702971458435,0.07648755609989166,0.20101287961006165,-0.10831251740455627,-0.07711514830589294,0.13814513385295868,-49.356956481933594,7.834680557250977,-71.46009826660156,-6.096433162689209,-27.477088928222656,-42.614013671875,0.15235666930675507,-0.0019431415712460876,0.4507416784763336,-0.006716688629239798,0.00202437536790967,0.3606092631816864
1,55,0.825,-0.2503960430622101,0.21427473425865173,-0.22808285057544708,-0.04095034301280975,0.016135742887854576,-0.29551494121551514,-0.17699454724788666,0.05146186053752899,0.18877774477005005,-0.02894609421491623,-0.08859431743621826,0.1411128044128418,-42.81605911254883,-5.280839920043945,-65.76264953613281,0.4732987880706787,-36.53086853027344,-40.90181350708008,0.15399706363677979,0.007394224405288696,0.4456161558628082,-0.008523516356945038,0.010156014002859592,0.3532702922821045
1,56,0.84,-0.25440162420272827,0.140253946185112,-0.2609270215034485,0.08478815108537674,-0.013799186795949936,-0.28730472922325134,-0.17982591688632965,-0.0008603408932685852,0.16556157171726227,0.059933215379714966,-0.10975407063961029,0.14691627025604248,-42.98555374145508,-16.51617431640625,-72.12994384765625,11.06765365600586,-39.885231018066406,-40.637962341308594,0.15954674780368805,0.012233873829245567,0.44448187947273254,-0.01402810588479042,0.016901658847928047,0.34527283906936646
1,57,0.855,-0.1726827621459961,0.0974825993180275,-0.3021966516971588,0.199148491024971,-0.04247061535716057,-0.27888116240501404,-0.12206225842237473,-0.031093619763851166,0.13638979196548462,0.14076977968215942,-0.13002070784568787,0.1528705358505249,-44.258087158203125,-13.101325988769531,-94.16448974609375,28.505775451660156,-42.75041961669922,-33.747894287109375,0.1639598160982132,0.01628918945789337,0.44402414560317993,-0.018412640318274498,0.021498627960681915,0.33961910009384155
1,58,0.87,-0.018895495682954788,0.08418652415275574,-0.3387831151485443,0.31707125902175903,-0.05982924997806549,-0.28243058919906616,-0.013356439769268036,-0.04049205780029297,0.11052834242582321,0.2241244912147522,-0.14229080080986023,0.15036159753799438,-26.720783233642578,-19.390464782714844,-100.0413818359375,34.32538986206055,-43.01907730102539,-40.77980041503906,0.16018754243850708,0.02348431572318077,0.43902915716171265,-0.014957103878259659,0.023152370005846024,0.3402235507965088
1,59,0.885,0.09613741189241409,0.06032939255237579,-0.35899630188941956,0.415048211812973,-0.04448750242590904,-0.2958039343357086,0.06795553863048553,-0.057355672121047974,0.09624047577381134,0.2933803200721741,-0.13144636154174805,0.14090852439403534,-3.2181396484375,-30.016569137573242,-86.31716918945312,29.773954391479492,-37.2139892578125,-64.37037658691406,0.15984970331192017,0.029222114011645317,0.4357931613922119,-0.014658834785223007,0.027335936203598976,0.3389510214328766
1,60,0.8999999999999999,0.15206792950630188,0.012150834314525127,-0.3541829586029053,0.40699467062950134,-0.0004589191812556237,-0.31405287981033325,0.10749049484729767,-0.09141108393669128,0.09964282810688019,0.28768759965896606,-0.10032439231872559,0.1280091106891632,-11.158227920532227,-35.53251647949219,-97.53424072265625,41.23387908935547,-39.860877990722656,-52.128089904785156,0.15987661480903625,0.034802183508872986,0.4325926899909973,-0.01472964882850647,0.03152398392558098,0.33723798394203186
1,61,0.9149999999999999,0.22165367007255554,-0.021161740645766258,-0.33612290024757385,0.2942292392253876,0.043963488191366196,-0.33679547905921936,0.1566777527332306,-0.11495835334062576,0.11240874230861664,0.20797841250896454,-0.06892404705286026,0.11193331331014633,1.3949536085128784,-40.816551208496094,-84.40234375,25.440122604370117,-28.680767059326172,-63.750465393066406,0.15904982388019562,0.039415907114744186,0.4288218319416046,-0.014038654044270515,0.03409888595342636,0.33573025465011597
1,62,0.9299999999999999,0.33652785420417786,-0.02800045721232891,-0.3193874657154083,0.2006339430809021,0.0706481859087944,-0.3590952157974243,0.23787754774093628,-0.11979235708713531,0.12423832714557648,0.1418197900056839,-0.050061747431755066,0.0961705893278122,9.88998794555664,-41.56435012817383,-81.20575714111328,18.771848678588867,-22.658607482910156,-67.24007415771484,0.16619080305099487,0.041493725031614304,0.43027475476264954,-0.02104240469634533,0.038763295859098434,0.32844871282577515
1,63,0.945,0.4154333174228668,-0.053983934223651886,-0.29172182083129883,0.1587190479040146,0.08513631671667099,-0.36929941177368164,0.2936525344848633,-0.13815899193286896,0.1437940001487732,0.11219189316034317,-0.03982069343328476,0.08895764499902725,0.7306575775146484,-40.664703369140625,-95.18620300292969,30.551345825195312,-26.981903076171875,-44.45283508300781,0.17475883662700653,0.042228326201438904,0.4330747723579407,-0.029400188475847244,0.04293898120522499,0.32050463557243347
1,64,0.96,0.379488080739975,-0.10539344698190689,-0.24632234871387482,0.12608671188354492,0.09136303514242172,-0.35778892040252686,0.26824432611465454,-0.17449823021888733,0.17588500678539276,0.08912545442581177,-0.0354192852973938,0.09709393978118896,0.16778087615966797,-47.534725189208984,-86.06504821777344,25.202537536621094,-25.64227867126465,-47.11899185180664,0.18265439569950104,0.043584272265434265,0.4370054602622986,-0.03693690523505211,0.047725897282361984,0.31491395831108093
1,65,0.975,0.2569499611854553,-0.14179907739162445,-0.1988295614719391,0.13059991598129272,0.085480697453022,-0.33302852511405945,0.18162722885608673,-0.20023185014724731,0.209455668926239,0.09231564402580261,-0.03957726061344147,0.11459602415561676,-10.142544746398926,-56.42497253417969,-79.72869873046875,25.329294204711914,-28.06295394897461,-47.145042419433594,0.1864427775144577,0.04292210564017296,0.44050464034080505,-0.04046713188290596,0.048676423728466034,0.31437447667121887
1,66,0.99,0.08730868250131607,-0.12422391772270203,-0.16563893854618073,0.15235145390033722,0.07595768570899963,-0.31557101011276245,0.06171487271785736,-0.18780870735645294,0.23291674256324768,0.10769090056419373,-0.04630868136882782,0.12693601846694946,-19.406864166259766,-46.512977600097656,-72.29502868652344,21.915231704711914,-22.00360107421875,-60.134334564208984,0.19070754945278168,0.038633015006780624,0.4461837708950043,-0.04432181641459465,0.047717947512865067,0.31559237837791443
1,67,1.005,-0.07131270319223404,-0.047867897897958755,-0.16404254734516144,0.16764762997627258,0.05562509596347809,-0.31437525153160095,-0.05040798336267471,-0.1338358223438263,0.23404516279697418,0.1185031309723854,-0.06068094074726105,0.1277812421321869,-34.38766860961914,-28.9218692779541,-79.1920394897461,24.569332122802734,-19.928001403808594,-62.701141357421875,0.19143833220005035,0.034720394760370255,0.4496465027332306,-0.0447906069457531,0.04594839736819267,0.3188992142677307
1,68,1.02,-0.13773688673973083,0.049981579184532166,-0.19171980023384094,0.17182396352291107,0.008652912452816963,-0.3304002583026886,-0.09736047685146332,-0.06467010825872421,0.21448126435279846,0.12145521491765976,-0.09388361871242523,0.11645383387804031,-34.98415756225586,-16.56134033203125,-77.20310974121094,19.652450561523438,-28.939403533935547,-71.04931640625,0.19305545091629028,0.0345878042280674,0.4527154862880707,-0.046222906559705734,0.04675496369600296,0.31936967372894287
1,69,1.035,-0.1520972102880478,0.12909822165966034,-0.21236173808574677,0.15026859939098358,-0.041969314217567444,-0.36188870668411255,-0.10751118510961533,-0.008745856583118439,0.1998903453350067,0.106218621134758,-0.12966635823249817,0.09419595450162888,-40.77256393432617,-11.594454765319824,-86.81539916992188,22.785425186157227,-40.44934844970703,-62.66164779663086,0.1933002471923828,0.036752667278051376,0.45408204197883606,-0.04646819829940796,0.047853779047727585,0.3190542757511139
1,70,1.05,-0.17319141328334808,0.15936748683452606,-0.21417184174060822,0.12087154388427734,-0.06614693999290466,-0.3972424864768982,-0.12242180109024048,0.012650230899453163,0.19861085712909698,0.08543906360864639,-0.14675651490688324,0.06920584291219711,-36.11811065673828,-8.903177261352539,-77.87379455566406,14.139135360717773,-43.524967193603516,-75.2492446899414,0.1937587410211563,0.038414277136325836,0.45423588156700134,-0.04691353067755699,0.04978928714990616,0.3174826204776764
1,71,1.065,-0.19300851225852966,0.11925357580184937,-0.22199620306491852,0.09014801681041718,-0.06809850037097931,-0.4256499409675598,-0.13642968237400055,-0.015704628080129623,0.1930801421403885,0.06372188031673431,-0.1481359899044037,0.04912581667304039,-44.989723205566406,-12.736933708190918,-83.69009399414062,18.316909790039062,-48.888145446777344,-67.41055297851562,0.19759030640125275,0.03885354474186897,0.4555704593658447,-0.05059659853577614,0.05284480005502701,0.31259608268737793
1,72,1.08,-0.2522188127040863,0.03741300851106644,-0.23280341923236847,0.11778930574655533,-0.059720005840063095,-0.44014430046081543,-0.1782829761505127,-0.07355430722236633,0.18544097244739532,0.08326035737991333,-0.1422135829925537,0.03888033702969551,-49.714378356933594,-25.902610778808594,-84.7660140991211,20.41629409790039,-48.08028793334961,-67.502685546875,0.199375182390213,0.03787801042199135,0.45631805062294006,-0.05250120908021927,0.0520559623837471,0.30891919136047363
1,73,1.095,-0.3703024685382843,-0.02006983757019043,-0.23053766787052155,0.1948578655719757,-0.051713548600673676,-0.4275643527507782,-0.2617514133453369,-0.11418653279542923,0.18704253435134888,0.13773691654205322,-0.13655415177345276,0.04777258634567261,-58.430580139160156,-30.845630645751953,-86.61461639404297,26.16996955871582,-39.1085205078125,-66.8768310546875,0.19773536920547485,0.03795666620135307,0.4559043049812317,-0.0511213093996048,0.050399549305438995,0.3081272542476654
1,74,1.1099999999999999,-0.484529972076416,-0.030382148921489716,-0.22234009206295013,0.2177416980266571,-0.05217066779732704,-0.38039687275886536,-0.34249407052993774,-0.12147587537765503,0.19283705949783325,0.15391254425048828,-0.13687726855278015,0.0811132937669754,-62.051780700683594,-34.57724380493164,-76.746826171875,21.952302932739258,-38.56190872192383,-68.23200225830078,0.201652392745018,0.03474823758006096,0.45948824286460876,-0.054993320256471634,0.049511443823575974,0.30347955226898193
1,75,1.125,-0.5585137009620667,0.0023081719409674406,-0.21132388710975647,0.16756048798561096,-0.05925378203392029,-0.3091985881328583,-0.39479008316993713,-0.09836845099925995,0.20062395930290222,0.11844153702259064,-0.14188402891159058,0.1314404159784317,-83.51263427734375,-21.146400451660156,-94.4760513305664,32.11931610107422,-41.92845153808594,-30.971073150634766,0.19687828421592712,0.03249893710017204,0.45852407813072205,-0.05057896301150322,0.04529435932636261,0.3056967556476593
1,76,1.14,-0.5790870785713196,0.0809362605214119,-0.19575020670890808,0.05993325263261795,-0.07186092436313629,-0.23947367072105408,-0.4093325734138489,-0.042789533734321594,0.21163234114646912,0.042364321649074554,-0.15079548954963684,0.1807260513305664,-60.15253829956055,-12.886434555053711,-65.72216033935547,-1.0384540557861328,-33.249298095703125,-54.32246780395508,0.19042910635471344,0.029182255268096924,0.45756328105926514,-0.04455539956688881,0.039052970707416534,0.30988815426826477
1,77,1.155,-0.5428689122200012,0.16002343595027924,-0.16266995668411255,-0.061071205884218216,-0.09289615601301193,-0.20602963864803314,-0.3837314546108246,0.01311388611793518,0.2350153923034668,-0.04316869378089905,-0.1656644195318222,0.20436623692512512,-65.10484313964844,4.281666278839111,-70.68865203857422,-3.661930561065674,-33.882450103759766,-38.07181930541992,0.17944882810115814,0.02692301757633686,0.45419594645500183,-0.03412393853068352,0.03154667094349861,0.3180917501449585
1,78,1.17,-0.4668267071247101,0.17514806985855103,-0.1017041802406311,-0.13678433001041412,-0.13462354242801666,-0.2197703868150711,-0.32998037338256836,0.023804863914847374,0.2781095504760742,-0.09668715298175812,-0.19515976309776306,0.1946534812450409,-43.5879020690918,3.1881890296936035,-44.2629280090332,-24.388198852539062,-35.43362045288086,-63.32413864135742,0.18084295094013214,0.02021232806146145,0.4593256711959839,-0.03548886626958847,0.026608601212501526,0.31840306520462036
1,79,1.185,-0.35614660382270813,0.13543927669525146,-0.04639836400747299,-0.152630016207695,-0.18842127919197083,-0.2650397717952728,-0.25174522399902344,-0.004263623617589474,0.31720292568206787,-0.10788780450820923,-0.23318713903427124,0.16265444457530975,-65.781494140625,10.422174453735352,-73.85662841796875,4.199607849121094,-50.402687072753906,-31.69370460510254,0.18311727046966553,0.01207819115370512,0.4663003385066986,-0.03770051524043083,0.019921693950891495,0.31973546743392944
1,80,1.2,-0.24825513362884521,0.09348392486572266,-0.034157272428274155,-0.0764695405960083,-0.22500251233577728,-0.3278847932815552,-0.17548123002052307,-0.03392012044787407,0.32585564255714417,-0.05405313894152641,-0.259044885635376,0.11823192238807678,-41.36841583251953,5.030341148376465,-60.19514465332031,-3.897573232650757,-45.46257019042969,-69.17546081542969,0.18685995042324066,0.003584037534892559,0.47465330362319946,-0.041349805891513824,0.012986925430595875,0.3205224573612213
1,81,1.2149999999999999,-0.13232532143592834,0.06525254249572754,-0.06432613730430603,0.03247173875570297,-0.2366781383752823,-0.3888446092605591,-0.09353525936603546,-0.05387570336461067,0.304530531167984,0.02295292168855667,-0.2672978937625885,0.07514196634292603,-44.38945007324219,2.3433971405029297,-82.10874938964844,17.715892791748047,-51.784244537353516,-66.7640609741211,0.18608355522155762,-0.0023862007074058056,0.4791695475578308,-0.04065292328596115,0.006456390488892794,0.32385897636413574
1,82,1.23,0.000683387799654156,0.04214274510741234,-0.09269861876964569,0.03707335144281387,-0.2219250500202179,-0.4206028878688812,0.0004830583930015564,-0.07021105289459229,0.2844752073287964,0.02620561048388481,-0.2568695545196533,0.05269337445497513,-16.873794555664062,-6.5687360763549805,-65.99496459960938,2.8126111030578613,-46.32015609741211,-92.97065734863281,0.18822668492794037,-0.006988089997321367,0.4839208722114563,-0.042676761746406555,0.0037949830293655396,0.32377323508262634
1,83,1.2449999999999999,0.055426474660634995,0.026455465704202652,-0.0724043995141983,-0.042278632521629333,-0.19041207432746887,-0.41315051913261414,0.039178669452667236,-0.08129973709583282,0.2988203465938568,-0.029885005205869675,-0.23459434509277344,0.05796113237738609,-26.27733612060547,-8.680682182312012,-75.3799057006836,9.5718355178833,-51.135643005371094,-69.40448760986328,0.1879088431596756,-0.01112967636436224,0.4866316020488739,-0.04246670380234718,-0.00041475455509498715,0.32452666759490967
1,84,1.26,0.04230254143476486,0.03226211667060852,-0.010443233884871006,-0.07282445579767227,-0.16294440627098083,-0.38391199707984924,0.029901906847953796,-0.07719525694847107,0.34261810779571533,-0.051476575434207916,-0.21517860889434814,0.07862862944602966,-13.204115867614746,-7.5987701416015625,-46.96030044555664,-6.258955955505371,-35.2159538269043,-80.34056854248047,0.18417063355445862,-0.0141220074146986,0.4865973889827728,-0.03902339190244675,-0.005407148972153664,0.32699447870254517
1,85,1.275,0.030156223103404045,0.06996842473745346,0.05668087676167488,0.0066003575921058655,-0.14451096951961517,-0.3539433181285858,0.021316180005669594,-0.05054224282503128,0.39006534218788147,0.004665518179535866,-0.20214878022670746,0.09981222450733185,-15.69070816040039,-4.393567085266113,-30.795747756958008,1.5932645797729492,-36.638641357421875,-73.32329559326172,0.18563395738601685,-0.018432969227433205,0.4899781048297882,-0.04036879166960716,-0.00741138169541955,0.3265845775604248
1,86,1.29,-0.036052800714969635,0.1176600530743599,0.11055450886487961,0.1082003191113472,-0.13901309669017792,-0.3324926495552063,-0.025484224781394005,-0.016831014305353165,0.4281463623046875,0.07648230344057083,-0.198262557387352,0.11497481167316437,-29.227935791015625,8.418878555297852,-32.376808166503906,17.704221725463867,-36.896240234375,-60.03555679321289,0.17963184416294098,-0.01943991146981716,0.4899083077907562,-0.03452340513467789,-0.01071461383253336,0.33251073956489563
1,87,1.305,-0.13067537546157837,0.16606451570987701,0.15550263226032257,0.13434405624866486,-0.1611470878124237,-0.31238099932670593,-0.09236899018287659,0.01738407462835312,0.4599183201789856,0.0949622243642807,-0.2139081507921219,0.12919090688228607,-20.565793991088867,6.154726505279541,-8.344351768493652,3.7435007095336914,-38.34690475463867,-83.94523620605469,0.17444086074829102,-0.02066403441131115,0.491853266954422,-0.029292404651641846,-0.013073883019387722,0.33938124775886536
1,88,1.3199999999999998,-0.12405209988355637,0.23670974373817444,0.2030143290758133,0.11847598850727081,-0.21183842420578003,-0.2934882938861847,-0.08768726885318756,0.06732023507356644,0.49350234866142273,0.08374574780464172,-0.24973973631858826,0.14254537224769592,-27.788837432861328,22.611358642578125,-11.37653923034668,9.702902793884277,-45.41154861450195,-74.13007354736328,0.1636391282081604,-0.02192719094455242,0.4914689362049103,-0.018744541332125664,-0.01948661357164383,0.3507067859172821
1,89,1.335,-0.054682374000549316,0.2982463240623474,0.2578803598880768,0.12776607275009155,-0.26790639758110046,-0.3034055233001709,-0.0386526957154274,0.11081787943840027,0.5322848558425903,0.09031251817941666,-0.2893718481063843,0.13553528487682343,-3.846405029296875,27.485410690307617,14.664857864379883,-6.634520530700684,-44.32359313964844,-103.45759582519531,0.15368276834487915,-0.02096528373658657,0.4987514615058899,-0.010325534269213676,-0.026884065940976143,0.36126434803009033
1,90,1.3499999999999999,-0.007874179631471634,0.305691123008728,0.30243831872940063,0.14559830725193024,-0.30674993991851807,-0.3500070869922638,-0.005565930157899857,0.11608031392097473,0.5637810230255127,0.1029173880815506,-0.31682872772216797,0.10259458422660828,-9.040319442749023,25.79433250427246,-15.385515213012695,7.0171098709106445,-44.470645904541016,-98.3520278930664,0.136001318693161,-0.007331480737775564,0.48913314938545227,0.0023412485606968403,-0.039517536759376526,0.374035507440567
1,91,1.365,0.06804782897233963,0.2779431939125061,0.31864356994628906,0.0841195359826088,-0.32665517926216125,-0.40816691517829895,0.04810017719864845,0.09646643698215485,0.5752358436584473,0.05946059897542,-0.3308989107608795,0.06148383021354675,22.079029083251953,-17.748432159423828,89.46411895751953,-16.270751953125,-41.25604248046875,-135.32098388671875,0.12819147109985352,-0.008109946735203266,0.5491353273391724,0.005514964926987886,-0.048590172082185745,0.38189592957496643
1,92,1.38,0.18638230860233307,0.24679428339004517,0.29412826895713806,-0.07277681678533554,-0.3371172249317169,-0.4514751136302948,0.13174590468406677,0.07444857805967331,0.557906985282898,-0.05144290626049042,-0.3382940888404846,0.030871059745550156,0.7554053068161011,43.97294616699219,-150.0,-2.5934295654296875,-42.72689437866211,-117.41694641113281,0.11064155399799347,0.01623491756618023,0.5214051604270935,0.02025001123547554,-0.06275924295186996,0.3948506712913513
1,93,1.395,0.283050537109375,0.2297404557466507,0.19815662503242493,-0.26819121837615967,-0.3451889753341675,-0.46255743503570557,0.2000766545534134,0.06239393725991249,0.490068644285202,-0.18957321345806122,-0.3439996838569641,0.023037422448396683,46.06866455078125,-80.12315368652344,150.0,-57.268585205078125,-35.451744079589844,-150.0,0.10980851203203201,0.013843991793692112,0.5399174094200134,0.02450122870504856,-0.07773900777101517,0.4020827114582062
1,94,1.41,0.29471075534820557,0.24269519746303558,0.027296558022499084,-0.46443578600883484,-0.35759401321411133,-0.4558227062225342,0.2083187699317932,0.07155109941959381,0.36929479241371155,-0.32829034328460693,-0.35276827216148376,0.027797939255833626,-2.917281150817871,74.24046325683594,-150.0,-37.27783966064453,-27.345890045166016,-124.04206848144531,0.10554550588130951,0.028076529502868652,0.5119296312332153,0.03618025779724121,-0.09444532543420792,0.41150251030921936
1,95,1.425,0.18525919318199158,0.27157652378082275,-0.17609308660030365,-0.5836189389228821,-0.3823515474796295,-0.4473729133605957,0.13095201551914215,0.09196610748767853,0.22552713751792908,-0.41253596544265747,-0.3702683448791504,0.033770740032196045,18.042695999145508,-67.8843994140625,150.0,-78.8331298828125,-34.498268127441406,-140.49530029296875,0.11285817623138428,0.02991996891796589,0.5253688097000122,0.03676212951540947,-0.10508912056684494,0.4134324789047241
1,96,1.44,0.044655319303274155,0.2628501057624817,-0.37682831287384033,-0.58861243724823,-0.39881592988967896,-0.40839898586273193,0.03156498819589615,0.08579777181148529,0.08363576233386993,-0.41606563329696655,-0.38190633058547974,0.06131981313228607,-25.829010009765625,56.86927032470703,-150.0,-48.87684631347656,-36.83507537841797,-108.79074096679688,0.104986272752285,0.04885997995734215,0.49362513422966003,0.048235971480607986,-0.11860211938619614,0.4206295609474182
1,97,1.4549999999999998,0.006204604636877775,0.1991088092327118,-0.5593865513801575,-0.581708550453186,-0.38140586018562317,-0.32171449065208435,0.0043857768177986145,0.0407416969537735,-0.04540702700614929,-0.4111855626106262,-0.3695998787879944,0.12259344756603241,11.898898124694824,-86.25141143798828,150.0,-80.139404296875,-32.104469299316406,-112.43466186523438,0.10224062204360962,0.044312942773103714,0.509178102016449,0.05118643492460251,-0.13148830831050873,0.4240347743034363
1,98,1.47,0.025323715060949326,0.10258710384368896,-0.7137705087661743,-0.6242705583572388,-0.35190027952194214,-0.23094743490219116,0.01790028065443039,-0.02748546004295349,-0.15453460812568665,-0.4412708878517151,-0.34874361753463745,0.18675288558006287,-12.11068344116211,49.21156692504883,-150.0,-56.70411682128906,-21.229232788085938,-79.63585662841797,0.08958122879266739,0.05130873993039131,0.4848792850971222,0.06208198145031929,-0.14630380272865295,0.4330035448074341
1,99,1.4849999999999999,0.016747327521443367,0.004750881809741259,-0.834836483001709,-0.6508446931838989,-0.33525964617729187,-0.17948706448078156,0.011837989091873169,-0.09664180129766464,-0.2401110678911209,-0.46005505323410034,-0.33698105812072754,0.223128080368042,15.267033576965332,-94.52619934082031,136.53273010253906,-84.30410766601562,-16.946327209472656,-90.13774108886719,0.08619239926338196,0.03301641345024109,0.49866795539855957,0.06355158984661102,-0.1624792218208313,0.43860796093940735
1,100,1.5,-0.01076255552470684,-0.07631901651620865,-0.9225587844848633,-0.6247966289520264,-0.33673709630966187,-0.163168802857399,-0.007607602514326572,-0.15394672751426697,-0.30211833119392395,-0.44164273142814636,-0.33802539110183716,0.23466277122497559,-11.818036079406738,49.31174087524414,-150.0,-57.70816421508789,-5.691871643066406,-78.58570861816406,0.07581637054681778,0.024949774146080017,0.46537789702415466,0.0708482638001442,-0.1791955530643463,0.44812291860580444
1,101,1.515,-0.09173376858234406,-0.16187167167663574,-0.9791028499603271,-0.6110435724258423,-0.3543540835380554,-0.16244634985923767,-0.06484278291463852,-0.21442033350467682,-0.34208691120147705,-0.4319212734699249,-0.3504781126976013,0.23517344892024994,3.1724376678466797,-88.2132568359375,139.13949584960938,-75.82125854492188,-10.240165710449219,-90.014404296875,0.07206901162862778,0.004779472481459379,0.5055105686187744,0.07352764159440994,-0.1960791051387787,0.456513911485672
1,102,1.53,-0.2404737025499344,-0.24298813939094543,-0.9948059320449829,-0.6353599429130554,-0.376188188791275,-0.15936636924743652,-0.16998085379600525,-0.27175816893577576,-0.35318681597709656,-0.4491094946861267,-0.36591172218322754,0.23735055327415466,-25.404674530029297,26.702308654785156,-150.0,-64.4554443359375,-4.412330627441406,-93.36140441894531,0.06253170222043991,-0.008483653888106346,0.5155268311500549,0.07763327658176422,-0.21288874745368958,0.4649740755558014
1,103,1.545,-0.35669344663619995,-0.2939477264881134,-0.9654019474983215,-0.6126339435577393,-0.389143705368042,-0.1354404240846634,-0.25213176012039185,-0.30777937173843384,-0.33240240812301636,-0.4330454468727112,-0.37506943941116333,0.2542628049850464,-19.651247024536133,-84.43531036376953,-1.126983642578125,-69.01263427734375,-9.943521499633789,-81.80992889404297,0.055342160165309906,-0.018119892105460167,0.4805859327316284,0.07889847457408905,-0.2286578267812729,0.471352219581604
1,104,1.56,-0.3851555287837982,-0.31673288345336914,-0.9016987085342407,-0.4998968839645386,-0.3997223973274231,-0.08136218786239624,-0.2722504138946533,-0.3238852620124817,-0.2873731851577759,-0.3533563017845154,-0.3825470805168152,0.2924884557723999,-35.13320541381836,-26.372352600097656,-150.0,-53.23590087890625,-3.5313796997070312,-74.64794921875,0.04502297565340996,-0.030504468828439713,0.48351266980171204,0.08841325342655182,-0.24779143929481506,0.48090681433677673
1,105,1.575,-0.37647658586502075,-0.323599249124527,-0.7965881824493408,-0.38622814416885376,-0.42308753728866577,-0.027808021754026413,-0.26611563563346863,-0.328738808631897,-0.2130749523639679,-0.2730086147785187,-0.3990629315376282,0.33034366369247437,-17.870622634887695,-43.965171813964844,-150.0,-62.448551177978516,-0.7591705322265625,-71.11870574951172,0.03808634728193283,-0.03765453025698662,0.48143309354782104,0.09408517181873322,-0.26017528772354126,0.4817817211151123
1,106,1.5899999999999999,-0.36450356245040894,-0.3421213924884796,-0.6596400737762451,-0.3346005082130432,-0.4491196870803833,-0.01913013868033886,-0.2576524019241333,-0.3418313264846802,-0.11627207696437836,-0.23651517927646637,-0.4174639582633972,0.33647769689559937,-31.334758758544922,-56.272605895996094,-150.0,-41.87578201293945,-20.995851516723633,-32.58502960205078,0.022539174184203148,-0.039830420166254044,0.4706408977508545,0.10774288326501846,-0.27438509464263916,0.48471057415008545
1,107,1.605,-0.3343938887119293,-0.3642871081829071,-0.5144811868667603,-0.2779631018638611,-0.4455246329307556,-0.04523107782006264,-0.23636913299560547,-0.357499361038208,-0.01366528868675232,-0.19648055732250214,-0.4149227738380432,0.3180280327796936,-4.339323043823242,-65.4124526977539,-104.24506378173828,-61.171409606933594,-6.313100814819336,-63.122314453125,0.015917344018816948,-0.04348526895046234,0.46389397978782654,0.11275482177734375,-0.28391775488853455,0.48151853680610657
1,108,1.6199999999999999,-0.22373788058757782,-0.3510497212409973,-0.38464298844337463,-0.1846352219581604,-0.40626078844070435,-0.08399535715579987,-0.15815100073814392,-0.3481423854827881,0.078111931681633,-0.13051095604896545,-0.3871687948703766,0.2906271815299988,-19.969106674194336,-58.2026481628418,-103.97220611572266,-28.127338409423828,-12.549172401428223,-37.34197235107422,0.014026051387190819,-0.047894325107336044,0.46042343974113464,0.11291614919900894,-0.2914873957633972,0.47558969259262085
1,109,1.635,-0.022419525310397148,-0.32291561365127563,-0.30403855443000793,-0.08866000175476074,-0.35971343517303467,-0.1191023662686348,-0.015847429633140564,-0.3282555639743805,0.13508781790733337,-0.06267006695270538,-0.3542664051055908,0.2658115029335022,0.5503473281860352,-53.32944107055664,-85.69486236572266,-23.133525848388672,-2.0088119506835938,-47.88603591918945,0.015218755230307579,-0.05099163204431534,0.4594568908214569,0.11020217835903168,-0.2953045964241028,0.46862900257110596
1,110,1.65,0.1539560854434967,-0.3119034767150879,-0.2732219099998474,0.02669210359454155,-0.3238305449485779,-0.11342576146125793,0.10882514715194702,-0.32047155499458313,0.15687082707881927,0.01886753737926483,-0.32890230417251587,0.2698240578174591,6.975959777832031,-51.96918487548828,-89.32099151611328,-4.78163480758667,-3.8179075717926025,-37.28269577026367,0.014570752158761024,-0.05478133633732796,0.45808732509613037,0.10920524597167969,-0.30126553773880005,0.46321988105773926
1,111,1.665,0.20057658851146698,-0.31981131434440613,-0.29300397634506226,0.16130168735980988,-0.295407772064209,-0.05761783570051193,0.14177924394607544,-0.32606127858161926,0.14288771152496338,0.11401745676994324,-0.3088114261627197,0.3092723488807678,20.52025604248047,-52.095550537109375,-82.94940185546875,-2.2229316234588623,10.621427536010742,-37.052825927734375,0.016588855534791946,-0.05844257026910782,0.4587364196777344,0.10587135702371597,-0.30463406443595886,0.4569176733493805
1,112,1.68,0.1818244308233261,-0.3369239568710327,-0.3598197102546692,0.24560384452342987,-0.27239176630973816,0.03178487718105316,0.12852412462234497,-0.3381574749946594,0.09565845876932144,0.17360714077949524,-0.29254236817359924,0.37246739864349365,6.530919551849365,-52.86422348022461,-113.41183471679688,17.10692024230957,4.466191291809082,-4.740606307983398,0.017245128750801086,-0.06344252079725266,0.4594860374927521,0.10376741737127304,-0.31037062406539917,0.45172733068466187
1,113,1.6949999999999998,0.16653457283973694,-0.3417249023914337,-0.44698381423950195,0.22973790764808655,-0.24995741248130798,0.15442119538784027,0.11771635711193085,-0.3415510654449463,0.03404580056667328,0.16239216923713684,-0.2766844630241394,0.4591538906097412,15.800877571105957,-49.43882751464844,-120.63345336914062,5.304577827453613,19.688138961791992,7.828176021575928,0.016679273918271065,-0.06744139641523361,0.45958346128463745,0.10318610817193985,-0.31173035502433777,0.45061159133911133
1,114,1.71,0.13900220394134521,-0.3480585515499115,-0.5353269577026367,0.18704935908317566,-0.20881463587284088,0.30939701199531555,0.09825487434864044,-0.34602805972099304,-0.02840031124651432,0.1322174072265625,-0.24760235846042633,0.568699836730957,7.775094032287598,-52.65816116333008,-148.42684936523438,7.162021636962891,6.975675582885742,33.5058708190918,0.011115889996290207,-0.07117369025945663,0.45643189549446106,0.10785917937755585,-0.3149736225605011,0.47885552048683167
1,115,1.7249999999999999,0.16307216882705688,-0.3854849934577942,-0.584520161151886,0.21618770062923431,-0.1408059298992157,0.4766075611114502,0.11526893079280853,-0.3724832534790039,-0.06317289173603058,0.1528140902519226,-0.19952984154224396,0.6868939995765686,25.01531219482422,-54.42223358154297,-136.9379425048828,-6.232265949249268,34.31515121459961,-69.89663696289062,0.010626411996781826,-0.0731782615184784,0.45359599590301514,0.10668860375881195,-0.2934291660785675,0.4542500674724579
1,116,1.74,0.27046576142311096,-0.4409281611442566,-0.5627884864807129,0.2954350411891937,-0.04162561148405075,0.6330731511116028,0.1911809891462326,-0.41167372465133667,-0.04781171306967735,0.20883072912693024,-0.12942340970039368,0.7974929809570312,16.33646583557129,-72.12281799316406,-143.11764526367188,21.650741577148438,-35.124900817871094,150.0,0.0021185660734772682,-0.0763365626335144,0.4481797516345978,0.11268968135118484,-0.29696980118751526,0.519883930683136
1,117,1.755,0.41479575634002686,-0.4827617406845093,-0.5088411569595337,0.37626489996910095,0.08991186320781708,0.7399272918701172,0.29320186376571655,-0.44124412536621094,-0.009678564965724945,0.26596599817276,-0.03644505888223648,0.8730237483978271,53.687442779541016,-67.77853393554688,-117.97500610351562,2.6759843826293945,104.50956726074219,-150.0,0.002422778634354472,-0.07779035717248917,0.44691604375839233,0.11466196179389954,-0.2623783051967621,0.5290327072143555
1,118,1.77,0.5647205114364624,-0.4853019714355469,-0.4740244150161743,0.44577518105506897,0.22817657887935638,0.7326719164848328,0.3991774320602417,-0.4430397152900696,0.014931904152035713,0.31509992480278015,0.0612884946167469,0.867895245552063,38.151493072509766,-78.99032592773438,-127.09913635253906,27.426910400390625,-60.608970642089844,150.0,0.0005345284007489681,-0.08537241071462631,0.44792917370796204,0.12255343049764633,-0.2371838539838791,0.5700107216835022
1,119,1.785,0.6455018520355225,-0.429242342710495,-0.45528843998908997,0.45438501238822937,0.3482513427734375,0.5898172855377197,0.45627838373184204,-0.4034135043621063,0.028175579383969307,0.3211858570575714,0.14616434276103973,0.7669172286987305,62.917083740234375,-47.64973449707031,-130.6473388671875,5.709491729736328,89.94911193847656,-150.0,-0.0011798174818977714,-0.08892365545034409,0.4484497904777527,0.13558608293533325,-0.18524420261383057,0.5632410645484924
1,120,1.7999999999999998,0.5652603507041931,-0.34430262446403503,-0.45577290654182434,0.38015016913414,0.43672266602516174,0.3540531396865845,0.39955902099609375,-0.3433731496334076,0.027833135798573494,0.2687123417854309,0.20870104432106018,0.600265383720398,47.89291000366211,-54.71282958984375,-120.22062683105469,-0.953373908996582,-67.31702423095703,150.0,-0.00428260862827301,-0.09606155008077621,0.44985899329185486,0.14676280319690704,-0.14637762308120728,0.5902813076972961
1,121,1.815,0.3931870758533478,-0.2814962863922119,-0.46931782364845276,0.2502433657646179,0.4699641168117523,0.07537607848644257,0.27792757749557495,-0.29897797107696533,0.018258797004818916,0.17688661813735962,0.23219802975654602,0.40328019857406616,40.617156982421875,-22.22231674194336,-136.9477081298828,-9.108891487121582,67.43441009521484,-150.0,-0.006164921913295984,-0.10010065138339996,0.44920289516448975,0.15319396555423737,-0.08880272507667542,0.5731592774391174
1,122,1.8299999999999998,0.2672567367553711,-0.25417378544807434,-0.4646657705307007,0.08848678320646286,0.4168638288974762,-0.20654363930225372,0.18891267478466034,-0.2796648442745209,0.02154715172946453,0.06254762411117554,0.1946636438369751,0.20400291681289673,25.265344619750977,-38.010986328125,-117.2499771118164,-17.307262420654297,-91.65129089355469,150.0,-0.010054073296487331,-0.10522746294736862,0.44775131344795227,0.15243302285671234,-0.05479002743959427,0.5971218943595886
1,123,1.845,0.22012045979499817,-0.24842171370983124,-0.4353044331073761,-0.019419249147176743,0.2817418873310089,-0.460429847240448,0.15559399127960205,-0.27559894323349,0.04230146110057831,-0.013726659119129181,0.09915156662464142,0.02454136312007904,27.192691802978516,-22.05208969116211,-122.02117919921875,-13.313581466674805,31.727745056152344,-150.0,-0.008479367941617966,-0.107471764087677,0.4483267068862915,0.13857154548168182,-0.015144126489758492,0.586033284664154
1,124,1.8599999999999999,0.24492618441581726,-0.23339614272117615,-0.3842830955982208,0.0014384345849975944,0.14063608646392822,-0.669569730758667,0.1731281280517578,-0.26497799158096313,0.07836632430553436,0.0010167695581912994,-0.0005902200937271118,-0.12329094111919403,16.194053649902344,-35.40739440917969,-110.52320098876953,7.687629699707031,-105.50006103515625,90.86357116699219,-0.014369084499776363,-0.11238524317741394,0.44543805718421936,0.13005419075489044,-0.0020527206361293793,0.5744584202766418
1,125,1.875,0.2676492929458618,-0.2180553674697876,-0.33621442317962646,0.12495898455381393,0.07261230796575546,-0.8291409611701965,0.18919014930725098,-0.25413423776626587,0.11234405636787415,0.08832830935716629,-0.048673391342163086,-0.23608513176441193,36.78266143798828,-14.912630081176758,-94.47771453857422,2.8542613983154297,18.87241554260254,-150.0,-0.01588096097111702,-0.1162329688668251,0.44515863060951233,0.11789779365062714,0.018657710403203964,0.494524747133255
1,126,1.89,0.23580677807331085,-0.24157686531543732,-0.30310696363449097,0.2392498254776001,0.08398010581731796,-0.9418367147445679,0.16668200492858887,-0.27076059579849243,0.1357463300228119,0.16911575198173523,-0.040637969970703125,-0.315745085477829,19.393720626831055,-30.426559448242188,-93.69458770751953,25.549999237060547,-90.6114273071289,150.0,-0.01904016174376011,-0.12465553730726242,0.44742700457572937,0.11054249107837677,0.009354858659207821,0.46528810262680054
1,127,1.905,0.22440987825393677,-0.3099515736103058,-0.26138365268707275,0.23892919719219208,0.11669585853815079,-1.0,0.1586260050535202,-0.3190918266773224,0.16523879766464233,0.1688891053199768,-0.017512567341327667,-0.3670806884765625,27.221223831176758,-18.826927185058594,-99.10432434082031,13.729097366333008,68.66500091552734,-150.0,-0.017734192311763763,-0.13187046349048615,0.4524950683116913,0.1037079468369484,0.019765453413128853,0.3921966850757599
1,128,1.92,0.27551931142807007,-0.4040292203426361,-0.19788716733455658,0.17026831209659576,0.10708008706569672,-1.0,0.19475314021110535,-0.38559138774871826,0.21012181043624878,0.12035558372735977,-0.02430955320596695,-0.3949648439884186,19.836444854736328,-45.22990798950195,-85.77825927734375,11.505904197692871,-87.77337646484375,150.0,-0.015144895762205124,-0.1442296802997589,0.45927801728248596,0.10065703839063644,-0.006297426298260689,0.47352930903434753
1,129,1.9349999999999998,0.3544638156890869,-0.500434160232544,-0.14011573791503906,0.1495172083377838,0.044985201209783554,-1.0,0.25055572390556335,-0.45373600721359253,0.25095802545547485,0.10568749159574509,-0.06820183992385864,-0.4048709273338318,31.776988983154297,-33.52899932861328,-86.71656799316406,2.6045947074890137,98.19741821289062,-150.0,-0.015603969804942608,-0.1547439843416214,0.46455779671669006,0.10269810259342194,-0.01468301098793745,0.5196398496627808
1,130,1.95,0.4211953580379486,-0.5898100137710571,-0.1252412647008896,0.17799627780914307,-0.02897031418979168,-1.0,0.29772546887397766,-0.5169121026992798,0.2614721655845642,0.1258181631565094,-0.12047790735960007,-0.40422800183296204,39.35997772216797,-66.79574584960938,-68.11405181884766,-3.389726400375366,-70.53950500488281,-97.69216918945312,-0.013003292493522167,-0.17172512412071228,0.47328582406044006,0.10301212966442108,0.00538979796692729,0.4036155045032501
1,131,1.9649999999999999,0.45829108357429504,-0.6545573472976685,-0.12554821372032166,0.1545364409685135,-0.08845765143632889,-1.0,0.32394689321517944,-0.5626792907714844,0.2612552046775818,0.10923537611961365,-0.16252702474594116,-0.3671371638774872,31.15719223022461,-74.03472137451172,-91.39791870117188,8.39844036102295,-27.16374397277832,-150.0,-0.003108140779659152,-0.1856474131345749,0.4809530973434448,0.09355387836694717,-0.01045080553740263,0.4126487374305725
1,132,1.98,0.4648307263851166,-0.6524794697761536,-0.1014617532491684,0.08551670610904694,-0.13151715695858002,-0.8760495185852051,0.3285695016384125,-0.5612105131149292,0.27828091382980347,0.06044819951057434,-0.19296398758888245,-0.2692428529262543,26.18097686767578,-66.8085708618164,-77.40467071533203,9.091638565063477,-20.796207427978516,-150.0,0.0055023254826664925,-0.19453738629817963,0.484821081161499,0.08546535670757294,-0.02099779061973095,0.4148132801055908
1,133,1.9949999999999999,0.4710751175880432,-0.5682448744773865,-0.08117895573377609,0.08577001839876175,-0.14922776818275452,-0.7203812003135681,0.3329834043979645,-0.5016685724258423,0.2926179766654968,0.06062725931406021,-0.20548288524150848,-0.15920744836330414,30.82971954345703,-52.28502655029297,-56.90537643432617,5.748626708984375,-19.415569305419922,-150.0,0.01345314085483551,-0.20111653208732605,0.48469987511634827,0.07746367901563644,-0.0271376371383667,0.41324007511138916
1,134,2.01,0.5076796412467957,-0.4587022662162781,-0.08420202881097794,0.12122555077075958,-0.17137470841407776,-0.6010003685951233,0.3588576316833496,-0.4242374897003174,0.2904810905456543,0.08568929880857468,-0.2211376279592514,-0.0748220831155777,32.268409729003906,-46.46013641357422,-50.71057891845703,10.159960746765137,-34.936649322509766,-143.52407836914062,0.019839275628328323,-0.202444389462471,0.4815085530281067,0.07112566381692886,-0.029095996171236038,0.40962424874305725
1,135,2.025,0.565514087677002,-0.3767668604850769,-0.0865444466471672,0.06737902760505676,-0.22589229047298431,-0.5060620307922363,0.3997383713722229,-0.36632075905799866,0.2888253331184387,0.04762743040919304,-0.2596738338470459,-0.007714159786701202,37.566444396972656,-34.64057159423828,-43.256935119628906,5.5896806716918945,-47.2713623046875,-117.36453247070312,0.02594827674329281,-0.2035747766494751,0.4771180748939514,0.06461624801158905,-0.02903793379664421,0.40521207451820374
1,136,2.04,0.6003640294075012,-0.29917192459106445,-0.06969154626131058,-0.0781770795583725,-0.2831837236881256,-0.44795775413513184,0.4243723750114441,-0.3114721477031708,0.3007379472255707,-0.055260125547647476,-0.30017074942588806,0.03335736691951752,41.38078308105469,-29.122764587402344,-38.7281494140625,-8.08890151977539,-59.427364349365234,-103.93528747558594,0.028252512216567993,-0.20285119116306305,0.47166889905929565,0.06241521239280701,-0.03148435428738594,0.4049661159515381
1,137,2.0549999999999997,0.588840663433075,-0.21545231342315674,-0.022164681926369667,-0.23999805748462677,-0.3148917853832245,-0.4476579427719116,0.41622698307037354,-0.25229424238204956,0.3343327045440674,-0.16964463889598846,-0.3225838541984558,0.033569276332855225,47.200313568115234,-11.431825637817383,-22.257766723632812,-28.419706344604492,-53.806671142578125,-116.14747619628906,0.029286406934261322,-0.20263133943080902,0.4659923315048218,0.06166863813996315,-0.03625037148594856,0.40683043003082275
1,138,2.07,0.5896403193473816,-0.1578357070684433,0.06614132225513458,-0.37685054540634155,-0.32221248745918274,-0.4918579161167145,0.41679221391677856,-0.2115674763917923,0.3967525362968445,-0.2663799822330475,-0.3277585506439209,0.0023261718451976776,45.42827224731445,-7.223299980163574,-6.82737922668457,-39.36833953857422,-53.307533264160156,-124.52018737792969,0.03844508156180382,-0.2033073902130127,0.4611148536205292,0.05773263797163963,-0.0405491441488266,0.4075101613998413
1,139,2.085,0.5896446108818054,-0.11517341434955597,0.17857804894447327,-0.5000072121620178,-0.3243117034435272,-0.5464063882827759,0.4167952537536621,-0.1814112812280655,0.47622936964035034,-0.353434294462204,-0.32924240827560425,-0.03623189032077789,28.049894332885742,8.13884162902832,20.287189483642578,-43.217674255371094,-53.4102668762207,-134.06019592285156,0.06436054408550262,-0.2049008458852768,0.4714542329311371,0.04575040191411972,-0.042303845286369324,0.40414777398109436
1,140,2.1,0.48726701736450195,-0.0423901304602623,0.2913169860839844,-0.5728991627693176,-0.3346928656101227,-0.5837409496307373,0.34442877769470215,-0.12996381521224976,0.5559198260307312,-0.404958575963974,-0.33658042550086975,-0.06262213736772537,-11.303123474121094,12.357001304626465,-34.15271759033203,-33.782867431640625,-60.19675827026367,-122.53132629394531,0.09358128905296326,-0.1944560706615448,0.45783746242523193,0.032811302691698074,-0.04606204107403755,0.39950525760650635
1,141,2.1149999999999998,0.2709643542766571,0.07289426028728485,0.4116995930671692,-0.5075998902320862,-0.3492521047592163,-0.604126513004303,0.1915334314107895,-0.048474088311195374,0.6410132646560669,-0.3588012456893921,-0.3468717336654663,-0.07703182846307755,-19.242755889892578,1.036245346069336,150.0,-34.573463439941406,-55.0720100402832,-133.14793395996094,0.10407200455665588,-0.20410612225532532,0.5486316680908203,0.02789202705025673,-0.05344739556312561,0.40203824639320374
1,142,2.13,0.02016446739435196,0.1870860606431961,0.49686574935913086,-0.3070099353790283,-0.3664368987083435,-0.6161813139915466,0.014253422617912292,0.032243333756923676,0.7012136578559875,-0.21701255440711975,-0.3590189516544342,-0.085552878677845,-11.609879493713379,91.02478790283203,-150.0,-28.92723846435547,-46.301544189453125,-150.0,0.10521652549505234,-0.17294739186763763,0.5826314687728882,0.027065712958574295,-0.05501505732536316,0.4020763337612152
1,143,2.145,-0.14942666888237,0.23827846348285675,0.46145862340927124,-0.09934736788272858,-0.38713541626930237,-0.5973300337791443,-0.10562349855899811,0.06842911243438721,0.6761858463287354,-0.07022452354431152,-0.37364986538887024,-0.07222767174243927,-24.067264556884766,-61.184059143066406,150.0,-12.109237670898438,-69.60334777832031,-132.7792510986328,0.09397825598716736,-0.15284620225429535,0.6488332152366638,0.027417955920100212,-0.05970952659845352,0.40319663286209106
1,144,2.16,-0.15880408883094788,0.23364359140396118,0.30252668261528015,-0.022114505991339684,-0.4043571352958679,-0.5351826548576355,-0.11225200444459915,0.06515291333198547,0.5638434886932373,-0.015631824731826782,-0.38582319021224976,-0.028298303484916687,1.071014404296875,56.13455581665039,-150.0,-7.074807643890381,-56.53563690185547,-140.70570373535156,0.07698242366313934,-0.11775124818086624,0.6747982501983643,0.028607754036784172,-0.06237064674496651,0.4035806655883789
1,145,2.175,-0.055370938032865524,0.21268975734710693,0.07200361043214798,-0.08575966954231262,-0.4149239957332611,-0.4718506932258606,-0.039139412343502045,0.05034150555729866,0.4008963406085968,-0.06061994284391403,-0.39329245686531067,0.01646842248737812,7.470361709594727,-67.97490692138672,114.91693115234375,-12.508140563964844,-68.21041870117188,-110.38456726074219,0.06507048010826111,-0.0981224775314331,0.7097357511520386,0.023836273699998856,-0.06861409544944763,0.40266358852386475
1,146,2.19,0.08254732191562653,0.1932782232761383,-0.18275800347328186,-0.22499637305736542,-0.4091925024986267,-0.4506356418132782,0.05834926664829254,0.03662031516432762,0.2208159863948822,-0.15904057025909424,-0.389241099357605,0.031464457511901855,14.390631675720215,32.13203048706055,-150.0,-13.250801086425781,-54.94529724121094,-113.1841812133789,0.05601583421230316,-0.06759946048259735,0.6879027485847473,0.020203378051519394,-0.07482873648405075,0.40400469303131104
1,147,2.205,0.1898156702518463,0.1907508820295334,-0.42335522174835205,-0.36175593733787537,-0.38436955213546753,-0.46948984265327454,0.13417279720306396,0.03483384847640991,0.0507478266954422,-0.2557102143764496,-0.37169480323791504,0.01813722401857376,19.066280364990234,-65.5921859741211,131.45321655273438,-30.58336067199707,-53.70135498046875,-115.51995849609375,0.05755465850234032,-0.055543649941682816,0.6922717094421387,0.010041262023150921,-0.08351599425077438,0.404598593711853
1,148,2.2199999999999998,0.19683271646499634,0.21039584279060364,-0.6288272738456726,-0.42318883538246155,-0.3574613630771637,-0.5073114037513733,0.13913285732269287,0.048720039427280426,-0.09449173510074615,-0.29913458228111267,-0.3526745140552521,-0.008597241714596748,4.172228813171387,38.899391174316406,-150.0,-20.57566261291504,-40.647247314453125,-127.56061553955078,0.06028439849615097,-0.028251729905605316,0.6475492715835571,0.0016879114555194974,-0.088843435049057,0.4059113562107086
1,149,2.235,0.10944045335054398,0.26097384095191956,-0.7888664603233337,-0.38396507501602173,-0.3402703106403351,-0.5316412448883057,0.0773589015007019,0.08447150886058807,-0.20761677622795105,-0.27140894532203674,-0.3405228853225708,-0.025795016437768936,0.9255894422531128,-63.50046920776367,137.46292114257812,-26.32455062866211,-45.59785461425781,-129.97264099121094,0.058270446956157684,-0.018706224858760834,0.6310679316520691,-0.004378208890557289,-0.09809373319149017,0.4098946750164032
1,150,2.25,0.011164354160428047,0.32330378890037537,-0.8923614621162415,-0.23932671546936035,-0.3362244963645935,-0.517451286315918,0.007891617715358734,0.12852996587753296,-0.2807731032371521,-0.1691700965166092,-0.33766305446624756,-0.0157647505402565,2.5639586448669434,54.805381774902344,-150.0,-13.848917007446289,-31.472692489624023,-146.02159118652344,0.05192464217543602,0.0077597396448254585,0.5642940402030945,-0.007050742395222187,-0.10429734736680984,0.41314709186553955
1,151,2.265,0.007959583774209023,0.36694055795669556,-0.9429308772087097,-0.07414405792951584,-0.34697654843330383,-0.4777776896953583,0.005626298487186432,0.15937498211860657,-0.31651851534843445,-0.052409350872039795,-0.3452632427215576,0.012278896756470203,2.4134840965270996,-55.72270584106445,150.0,-3.016636848449707,-41.24922180175781,-122.62353515625,0.04886654391884804,0.018435796722769737,0.5368378162384033,-0.015004994347691536,-0.11051356047391891,0.412845641374588
1,152,2.28,0.060911163687705994,0.3819481432437897,-0.9522753357887268,-0.024652132764458656,-0.3613363206386566,-0.42936867475509644,0.043055567890405655,0.16998320817947388,-0.3231236934661865,-0.017425566911697388,-0.355413556098938,0.04649718850851059,4.829254150390625,53.66165542602539,-150.0,12.233470916748047,-41.45680236816406,-112.104736328125,0.04268796369433403,0.04806003347039223,0.46523478627204895,-0.019687741994857788,-0.11466534435749054,0.41378751397132874
1,153,2.295,0.08520160615444183,0.3544059097766876,-0.9299367666244507,-0.09543789178133011,-0.35265496373176575,-0.3837810456752777,0.0602254681289196,0.15051473677158356,-0.3073335289955139,-0.06746107339859009,-0.3492770791053772,0.07872118055820465,12.003578186035156,-74.38546752929688,150.0,-3.538300037384033,-40.361846923828125,-102.60556030273438,0.03494389355182648,0.05469357967376709,0.4365520179271698,-0.022227901965379715,-0.12537440657615662,0.41915544867515564
1,154,2.31,0.08996335417032242,0.27520108222961426,-0.8977735042572021,-0.18842677772045135,-0.32413092255592346,-0.35939157009124756,0.0635913535952568,0.09452816098928452,-0.28459858894348145,-0.1331910490989685,-0.3291146159172058,0.09596110135316849,15.548093795776367,47.95842361450195,-150.0,-10.315807342529297,-21.94060516357422,-119.89601135253906,0.02943175658583641,0.07535994797945023,0.3666280508041382,-0.023657284677028656,-0.13317781686782837,0.4247630834579468
1,155,2.3249999999999997,0.027013158425688744,0.15270018577575684,-0.8697089552879333,-0.24455013871192932,-0.29705628752708435,-0.34577807784080505,0.019094478338956833,0.007937386631965637,-0.2647610306739807,-0.17286232113838196,-0.3099766969680786,0.10558389872312546,2.1528308391571045,-96.2559814453125,150.0,-16.107383728027344,-23.88492202758789,-103.67143249511719,0.03996267542243004,0.05104614421725273,0.41956663131713867,-0.036793701350688934,-0.1409936100244522,0.42215168476104736
1,156,2.34,-0.12066198885440826,0.02205290086567402,-0.8558973073959351,-0.28692707419395447,-0.28182509541511536,-0.32458359003067017,-0.08529093861579895,-0.08441172540187836,-0.2549980878829956,-0.20281681418418884,-0.29921039938926697,0.12056539952754974,-32.959041595458984,81.51179504394531,-150.0,3.2089595794677734,-20.305299758911133,-82.94355773925781,0.03863542154431343,0.0398506224155426,0.4499318301677704,-0.04410920664668083,-0.14507423341274261,0.42225778102874756
1,157,2.355,-0.26496532559394836,-0.07374879717826843,-0.8607093095779419,-0.3450123965740204,-0.28924256563186646,-0.292197048664093,-0.18729296326637268,-0.15212994813919067,-0.25839948654174805,-0.2438749074935913,-0.3044534921646118,0.14345809817314148,-15.107419967651367,-78.30223083496094,9.860610961914062,-20.091379165649414,-27.295934677124023,-82.88162231445312,0.02725888043642044,0.038137491792440414,0.39448726177215576,-0.04841373488306999,-0.15376201272010803,0.4243943989276886
1,158,2.37,-0.3368048369884491,-0.12168116867542267,-0.8550772070884705,-0.366195410490036,-0.30414000153541565,-0.23536741733551025,-0.23807333409786224,-0.18601134419441223,-0.25441843271255493,-0.25884830951690674,-0.31498387455940247,0.18362858891487122,-12.107044219970703,-25.190454483032227,-76.69017028808594,-20.3658390045166,-16.67390251159668,-85.0194091796875,0.02553948014974594,0.03302861005067825,0.3888399004936218,-0.05075082182884216,-0.1641182005405426,0.4288123846054077
1,159,2.385,-0.32403531670570374,-0.14865680038928986,-0.7991139888763428,-0.2718139886856079,-0.3135467767715454,-0.1686343550682068,-0.22904708981513977,-0.20507928729057312,-0.21486037969589233,-0.19213400781154633,-0.32163313031196594,0.23079940676689148,-31.054363250732422,-40.2798957824707,-150.0,-15.02234935760498,-16.057769775390625,-71.02604675292969,0.02217777818441391,0.03426114097237587,0.38451963663101196,-0.04868621006608009,-0.16997402906417847,0.43205687403678894
1,160,2.4,-0.21992459893226624,-0.16936011612415314,-0.6831039786338806,-0.07468994706869125,-0.31481730937957764,-0.1300334483385086,-0.15545554459095,-0.21971359848976135,-0.13285771012306213,-0.05279521644115448,-0.32253122329711914,0.258084774017334,-15.174240112304688,-64.90315246582031,-134.86341857910156,-4.770139694213867,-32.0920524597168,-57.442440032958984,0.014712129719555378,0.041582826524972916,0.37407979369163513,-0.04249420389533043,-0.171994149684906,0.43506863713264465
1,161,2.415,-0.033081553876399994,-0.1630907952785492,-0.5204015970230103,0.16076843440532684,-0.2770627439022064,-0.12488529831171036,-0.0233839750289917,-0.21528208255767822,-0.017850205302238464,0.11364051699638367,-0.29584407806396484,0.2617237865924835,4.29227352142334,-64.63014221191406,-88.19322204589844,10.575050354003906,-25.843582153320312,-58.103179931640625,0.016671037301421165,0.042977239936590195,0.37042543292045593,-0.045185208320617676,-0.17298617959022522,0.4322989583015442
1,162,2.4299999999999997,0.18938381969928741,-0.10647120326757431,-0.34862011671066284,0.3575092852115631,-0.20117303729057312,-0.14171960949897766,0.133867546916008,-0.1752600520849228,0.1035749763250351,0.25270843505859375,-0.2422008365392685,0.24982431530952454,7.375679016113281,-51.67866897583008,-78.92057800292969,44.162635803222656,-18.1081485748291,-41.41951370239258,0.011824775487184525,0.04596075415611267,0.36473923921585083,-0.04167671129107475,-0.17744724452495575,0.4354000389575958
1,163,2.445,0.36156776547431946,-0.013980439864099026,-0.2308894395828247,0.4189044237136841,-0.12896811962127686,-0.16008919477462769,0.2555772066116333,-0.10988219082355499,0.18679387867450714,0.29610610008239746,-0.19116218388080597,0.23683962225914001,41.27063751220703,-36.19731903076172,-32.07658386230469,30.015514373779297,8.805810928344727,-77.20060729980469,0.014006970450282097,0.046248938888311386,0.364302396774292,-0.04444653168320656,-0.1786276251077652,0.43476229906082153
1,164,2.46,0.4432990550994873,0.050915881991386414,-0.20019733905792236,0.3732786774635315,-0.08606748282909393,-0.15398192405700684,0.3133496642112732,-0.06400968879461288,0.2084888517856598,0.2638551592826843,-0.16083751618862152,0.24115659296512604,26.19849967956543,-24.960996627807617,-53.00572204589844,48.22747802734375,0.98313307762146,-47.80286407470703,0.015935953706502914,0.04791916161775589,0.363976389169693,-0.04747667908668518,-0.17953091859817505,0.4335639476776123
1,165,2.475,0.45351195335388184,0.03029470704495907,-0.22548092901706696,0.36062175035476685,-0.07155752927064896,-0.10315724462270737,0.3205687403678894,-0.07858593761920929,0.1906169354915619,0.2549085021018982,-0.15058103203773499,0.2770824432373047,38.29436492919922,-29.49358367919922,-45.84331512451172,36.89300537109375,11.329416275024414,-49.18172073364258,0.01876971125602722,0.04958261176943779,0.36466291546821594,-0.05136728286743164,-0.17958202958106995,0.43175530433654785
1,166,2.4899999999999998,0.39669808745384216,-0.06376153975725174,-0.2658452093601227,0.40223580598831177,-0.06972918659448624,0.006831412669271231,0.2804093658924103,-0.1450703740119934,0.16208511590957642,0.2843237519264221,-0.14928865432739258,0.3548288345336914,26.42557716369629,-45.90936279296875,-63.72534942626953,47.54041290283203,4.436262130737305,-18.36256217956543,0.01443337369710207,0.05143599957227707,0.36213797330856323,-0.04774739220738411,-0.18290086090564728,0.43686404824256897
1,167,2.505,0.3132799565792084,-0.1643911451101303,-0.3262019753456116,0.4488561451435089,-0.06692619621753693,0.16369794309139252,0.22144456207752228,-0.21620124578475952,0.11942141503095627,0.317277729511261,-0.14730733633041382,0.46571123600006104,34.47651290893555,-55.15932083129883,-60.48114776611328,34.531646728515625,17.775264739990234,-17.81348419189453,0.011747153475880623,0.04910909757018089,0.3633081018924713,-0.04531976953148842,-0.18839573860168457,0.4436115324497223
1,168,2.52,0.2544853389263153,-0.21838527917861938,-0.4124533534049988,0.5154284238815308,-0.05036458745598793,0.3359679877758026,0.17988508939743042,-0.2543674409389496,0.05845391005277634,0.36433491110801697,-0.13560062646865845,0.5874817371368408,20.565528869628906,-62.35289001464844,-100.32032775878906,50.24846649169922,17.319272994995117,22.348478317260742,0.008948510512709618,0.04400588572025299,0.36858069896698,-0.03345984220504761,-0.19380773603916168,0.46526268124580383
1,169,2.5349999999999997,0.26601043343544006,-0.1880999356508255,-0.49188292026519775,0.5552126169204712,-0.009194131009280682,0.5045783519744873,0.18803170323371887,-0.23296000063419342,0.002308487892150879,0.39245671033859253,-0.10649894922971725,0.7066653966903687,27.700536727905273,-44.28469467163086,-121.13875579833984,23.277605056762695,26.917078018188477,-18.063201904296875,0.0057848370634019375,0.03726767748594284,0.37351471185684204,-0.009268701076507568,-0.1859138011932373,0.4732823967933655
1,170,2.55,0.3470028340816498,-0.10261444002389908,-0.5378707647323608,0.49054962396621704,0.05750467628240585,0.6435001492500305,0.2452818751335144,-0.17253386974334717,-0.03019840642809868,0.34674912691116333,-0.05935234576463699,0.8048633933067322,31.231910705566406,-34.75834274291992,-134.52944946289062,8.53757095336914,-4.268413543701172,116.80854034423828,-0.005619941279292107,0.03390694782137871,0.37344861030578613,0.02391289547085762,-0.19242967665195465,0.5686709880828857
1,171,2.565,0.39645475149154663,-0.05542074143886566,-0.5367634892463684,0.3940764367580414,0.13942846655845642,0.6785478591918945,0.2802373766899109,-0.13917461037635803,-0.029415728524327278,0.278556227684021,-0.0014438405632972717,0.8296371698379517,54.652976989746094,-27.07282066345215,-116.95026397705078,-16.786745071411133,76.82250213623047,-150.0,-0.010364801622927189,0.03289162367582321,0.37257495522499084,0.04833351448178291,-0.16350291669368744,0.5881129503250122
1,172,2.58,0.3737315237522125,-0.07670474797487259,-0.47039008140563965,0.37397533655166626,0.22002290189266205,0.5525335073471069,0.26417526602745056,-0.154219388961792,0.01750088483095169,0.2643476128578186,0.05552500858902931,0.7405628561973572,32.90788650512695,-40.20938491821289,-104.02764129638672,1.1069087982177734,-59.60403060913086,150.0,-0.014107475988566875,0.025373147800564766,0.37346383929252625,0.06643081456422806,-0.14676496386528015,0.6412503123283386
1,173,2.5949999999999998,0.31874653697013855,-0.13239099085330963,-0.35790830850601196,0.43194130063056946,0.2804679274559021,0.30556032061576843,0.22530865669250488,-0.19358167052268982,0.09700953215360641,0.3053213357925415,0.09825107455253601,0.5659878253936768,36.36034393310547,-24.071868896484375,-92.81759643554688,6.140350341796875,72.51960754394531,-150.0,-0.015385306440293789,0.019592080265283585,0.3749086856842041,0.08295008540153503,-0.11089412868022919,0.6500072479248047
1,174,2.61,0.225467249751091,-0.17809563875198364,-0.2588784992694855,0.4992843568325043,0.2923155426979065,0.015116517432034016,0.1593734174966812,-0.22588837146759033,0.16700959205627441,0.35292333364486694,0.10662567615509033,0.36068522930145264,18.90400505065918,-46.823577880859375,-65.88689422607422,11.56412124633789,-68.39242553710938,150.0,-0.026673948392271996,0.009283139370381832,0.3744370937347412,0.1110575869679451,-0.09237350523471832,0.6977490186691284
1,175,2.625,0.11504358798265457,-0.16813084483146667,-0.21220692992210388,0.5260193943977356,0.24230650067329407,-0.2684742212295532,0.08131952583789825,-0.2188446819782257,0.19999976456165314,0.37182122468948364,0.07127636671066284,0.1602267622947693,35.769134521484375,-22.727991104125977,-54.50802993774414,-13.424009323120117,54.41646194458008,-150.0,-0.03800242021679878,-0.0033920137211680412,0.376916766166687,0.1387568712234497,-0.06523984670639038,0.7080654501914978
1,176,2.6399999999999997,-0.002946604508906603,-0.1255590319633484,-0.2107161581516266,0.5472990274429321,0.16148889064788818,-0.51643967628479,-0.002082832157611847,-0.1887524425983429,0.20105352997779846,0.38686293363571167,0.014149762690067291,-0.015049681067466736,15.816086769104004,-21.092599868774414,-61.80269241333008,-2.2054500579833984,-71.28685760498047,26.248733520507812,-0.0447554849088192,-0.020723752677440643,0.38562509417533875,0.15851160883903503,-0.038877569139003754,0.6528968811035156
1,177,2.655,-0.1071653962135315,-0.12520940601825714,-0.2184281200170517,0.5702645182609558,0.08710107207298279,-0.7134889960289001,-0.07575076073408127,-0.18850530683994293,0.19560226798057556,0.4030962586402893,-0.038431886583566666,-0.15433558821678162,4.286991119384766,0.9842453002929688,-89.94602966308594,6.3245391845703125,-17.979351043701172,-138.58721923828125,-0.047076597809791565,-0.03906169906258583,0.3973069190979004,0.17394708096981049,-0.007083384320139885,0.5054098963737488
1,178,2.67,-0.10067149996757507,-0.17902277410030365,-0.19081386923789978,0.5132172703742981,0.020857345312833786,-0.8563214540481567,-0.07116049528121948,-0.22654373943805695,0.21512162685394287,0.3627719283103943,-0.08525681495666504,-0.2552979588508606,-3.2451608180999756,-12.691217422485352,-93.22023010253906,4.889381408691406,-91.8744125366211,150.0,-0.04753795266151428,-0.059390999376773834,0.4118106961250305,0.1705726683139801,-0.01124834269285202,0.4904332458972931
1,179,2.685,0.025797685608267784,-0.2721695303916931,-0.09708777815103531,0.35546350479125977,-0.05982886999845505,-0.9537901282310486,0.018235310912132263,-0.2923852801322937,0.28137269616127014,0.251262366771698,-0.14229053258895874,-0.32419443130493164,10.76883316040039,-8.658878326416016,-83.37425994873047,29.50887680053711,36.12596893310547,-150.0,-0.051178742200136185,-0.07894504815340042,0.422343909740448,0.1647592931985855,-0.011101782321929932,0.47873079776763916
1,180,2.6999999999999997,0.208589106798172,-0.39001619815826416,0.03259556367993355,0.20312266051769257,-0.14876458048820496,-1.0,0.14744296669960022,-0.3756861686706543,0.37304043769836426,0.14357896149158478,-0.20515547692775726,-0.3682711720466614,29.113216400146484,-35.35746765136719,-44.155479431152344,-5.433053970336914,-86.94847869873047,52.394134521484375,-0.04483639448881149,-0.10313192754983902,0.43990999460220337,0.15777327120304108,-0.0699734091758728,0.5602370500564575
1,181,2.715,0.4040670394897461,-0.5016952753067017,0.1250647008419037,0.10226991027593613,-0.21127834916114807,-1.0,0.2856181859970093,-0.45462745428085327,0.43840301036834717,0.0722903460264206,-0.2493438422679901,-0.39286887645721436,26.804828643798828,-19.296119689941406,-65.53832244873047,6.638552665710449,103.928466796875,-150.0,-0.03528527542948723,-0.12780046463012695,0.4593711793422699,0.1493169665336609,-0.09739602357149124,0.5405006408691406
1,182,2.73,0.5467863082885742,-0.589840292930603,0.1599479466676712,0.003902419935911894,-0.2354344129562378,-1.0,0.3865004777908325,-0.5169335007667542,0.46306052803993225,0.0027584582567214966,-0.2664187550544739,-0.40329283475875854,38.44071960449219,-43.713897705078125,-44.85224533081055,-7.5719709396362305,-60.79293441772461,5.806549072265625,-0.025334401056170464,-0.14897754788398743,0.4782524108886719,0.13838185369968414,-0.14171117544174194,0.5812751054763794
1,183,2.745,0.5753438472747803,-0.6445586681365967,0.16651175916194916,-0.05366584658622742,-0.24026057124137878,-1.0,0.4066866338253021,-0.5556116104125977,0.46770021319389343,-0.03793415427207947,-0.2698301672935486,-0.4042362570762634,42.601806640625,-43.89963912963867,-58.65177536010742,-8.158775329589844,75.84449768066406,-150.0,-0.016714544966816902,-0.16758786141872406,0.4955347776412964,0.1294548064470291,-0.16702699661254883,0.5881621241569519
1,184,2.76,0.5293518304824829,-0.6542644500732422,0.15319091081619263,-0.06584775447845459,-0.25580894947052,-1.0,0.3741768002510071,-0.5624722242355347,0.45828425884246826,-0.04654503986239433,-0.28082066774368286,-0.3766430616378784,35.30517578125,-63.55486297607422,-47.415809631347656,-9.662175178527832,7.409778594970703,-150.0,-0.0038175026420503855,-0.18409258127212524,0.5101653933525085,0.11703852564096451,-0.1830974966287613,0.5986985564231873
1,185,2.775,0.46744248270988464,-0.6058053374290466,0.10582805424928665,-0.12973535060882568,-0.2983905076980591,-0.9025367498397827,0.33041563630104065,-0.5282185077667236,0.4248054325580597,-0.09170452505350113,-0.31091979146003723,-0.2879655361175537,22.82500457763672,-44.932044982910156,-61.36741638183594,-8.539037704467773,0.7074680328369141,-150.0,0.004953810013830662,-0.1958242505788803,0.5185449123382568,0.10832136124372482,-0.19566933810710907,0.607891857624054
1,186,2.79,0.3964790403842926,-0.5028871297836304,0.031660839915275574,-0.21417327225208282,-0.3584043085575104,-0.7085475921630859,0.2802545428276062,-0.45546993613243103,0.37237972021102905,-0.1513901799917221,-0.3533410429954529,-0.15084274113178253,25.333436965942383,-43.69160842895508,-55.24473571777344,-23.29197883605957,-14.311853408813477,-150.0,0.012506699189543724,-0.20321471989154816,0.5227111577987671,0.10077022761106491,-0.20496711134910583,0.6140496134757996
1,187,2.8049999999999997,0.29824212193489075,-0.3801361620426178,-0.03966674953699112,-0.2144351601600647,-0.41668033599853516,-0.5234394669532776,0.2108149528503418,-0.36870238184928894,0.3219612240791321,-0.15157529711723328,-0.3945339322090149,-0.019997522234916687,15.881999969482422,-25.10700225830078,-62.823246002197266,-21.98574447631836,-22.89815330505371,-150.0,0.02216685377061367,-0.20905627310276031,0.5244209170341492,0.09096939116716385,-0.2123650759458542,0.6152304410934448
1,188,2.82,0.18862101435661316,-0.2710569202899933,-0.06499557942152023,-0.1785164326429367,-0.4709007441997528,-0.3956776559352875,0.13332834839820862,-0.2915988266468048,0.3040573298931122,-0.1261858344078064,-0.4328600764274597,0.07031195610761642,-1.3146753311157227,-13.103887557983398,-67.60274505615234,-10.980409622192383,-37.233306884765625,-150.0,0.02664150483906269,-0.2067352533340454,0.5187838077545166,0.08630625903606415,-0.2149343639612198,0.6155980229377747
1,189,2.835,0.1589820384979248,-0.19589655101299286,-0.017746224999427795,-0.2121930718421936,-0.5258954167366028,-0.31152546405792236,0.11237779259681702,-0.2384711056947708,0.3374559283256531,-0.14999045431613922,-0.4717335104942322,0.129795640707016,10.873087882995605,-15.26119613647461,-25.757719039916992,-28.410865783691406,-50.840694427490234,-147.10983276367188,0.03360707685351372,-0.20613433420658112,0.5118231773376465,0.0789162889122963,-0.2166162133216858,0.6124013066291809
1,190,2.85,0.23530860245227814,-0.15428678691387177,0.09192980080842972,-0.26403146982192993,-0.5756548643112183,-0.26223284006118774,0.16632986068725586,-0.20905889570713043,0.41498133540153503,-0.18663287162780762,-0.5069063901901245,0.16463854908943176,2.0239315032958984,-3.8984501361846924,-15.528425216674805,-17.309974670410156,-61.7374153137207,-115.56745910644531,0.03938189148902893,-0.2018783539533615,0.5050098299980164,0.07282600551843643,-0.2165319174528122,0.6109999418258667
1,191,2.8649999999999998,0.31757768988609314,-0.13070955872535706,0.24686460196971893,-0.2093135118484497,-0.6150568723678589,-0.2602205276489258,0.2244824469089508,-0.19239313900470734,0.5244982838630676,-0.1479550153017044,-0.5347580313682556,0.16606095433235168,19.91995620727539,-8.317316055297852,26.53561019897461,-23.871000289916992,-65.93333435058594,-131.89413452148438,0.04071114957332611,-0.20417223870754242,0.5183279514312744,0.07423536479473114,-0.22387224435806274,0.616506814956665
1,192,2.88,0.33575111627578735,-0.1102524921298027,0.42048946022987366,-0.09815322607755661,-0.6463435292243958,-0.30366504192352295,0.23732849955558777,-0.17793288826942444,0.6472264528274536,-0.06938043236732483,-0.5568732619285583,0.13535183668136597,22.657058715820312,13.800775527954102,-41.019535064697266,-22.96365737915039,-54.04890060424805,-150.0,0.04553058370947838,-0.19703106582164764,0.5066794157028198,0.07851557433605194,-0.2306355983018875,0.6247252821922302
1,193,2.895,0.2956353724002838,-0.052284546196460724,0.5813847184181213,-0.06427410244941711,-0.6714471578598022,-0.36986514925956726,0.20897233486175537,-0.13695776462554932,0.7609565854072571,-0.0454326868057251,-0.5746179819107056,0.08855773508548737,11.3762788772583,-14.150022506713867,150.0,-22.46219253540039,-62.98817443847656,-150.0,0.05688953399658203,-0.21492105722427368,0.5991482734680176,0.0776730552315712,-0.23969094455242157,0.6326361894607544
1,194,2.9099999999999997,0.17275533080101013,0.07000746577978134,0.7002125382423401,-0.09947613626718521,-0.7020231485366821,-0.40971454977989197,0.12211355566978455,-0.050514645874500275,0.8449510335922241,-0.07031553983688354,-0.5962308645248413,0.060389868915081024,-10.799158096313477,96.86454772949219,-150.0,-12.519104957580566,-57.806705474853516,-150.0,0.07055874913930893,-0.1947687268257141,0.6392357349395752,0.07546553760766983,-0.24379757046699524,0.637649416923523
1,195,2.925,-0.004331130068749189,0.21883420646190643,0.756991446018219,-0.12408110499382019,-0.7379987835884094,-0.3824666738510132,-0.0030614957213401794,0.05468476563692093,0.8850857019424438,-0.0877077728509903,-0.621660590171814,0.07965025305747986,-24.820234298706055,-43.876285552978516,150.0,-19.3631591796875,-76.08975219726562,-150.0,0.08240765333175659,-0.18109352886676788,0.7110256552696228,0.06552571058273315,-0.251522958278656,0.6386027336120605
1,196,2.94,-0.1312914937734604,0.3566478490829468,0.7599552273750305,-0.09367675334215164,-0.7507426738739014,-0.30148106813430786,-0.09280449151992798,0.15209949016571045,0.8871806263923645,-0.06621620059013367,-0.6306686997413635,0.13689559698104858,-32.88728332519531,87.69267272949219,-150.0,2.3454837799072266,-64.62770080566406,-145.7169647216797,0.08209347724914551,-0.13966628909111023,0.7380813360214233,0.05627279728651047,-0.2559545636177063,0.6379268169403076
1,197,2.955,-0.1494605988264084,0.4914242625236511,0.71067214012146,-0.012545390985906124,-0.7313469648361206,-0.22102081775665283,-0.10564747452735901,0.24736732244491577,0.8523445129394531,-0.008867815136909485,-0.6169586777687073,0.19376960396766663,-14.61825942993164,-41.934112548828125,150.0,2.307157039642334,-73.03665924072266,-119.39376831054688,0.07450472563505173,-0.10880941152572632,0.7951570153236389,0.042848773300647736,-0.2673153579235077,0.6359828114509583
1,198,2.9699999999999998,-0.09648875892162323,0.6207402348518372,0.5798792243003845,0.046430036425590515,-0.6985029578208923,-0.17728225886821747,-0.0682038888335228,0.3387753665447235,0.7598924040794373,0.032819461077451706,-0.5937426090240479,0.22468656301498413,-1.8233222961425781,80.00889587402344,-150.0,18.740901947021484,-46.158424377441406,-115.87743377685547,0.054499443620443344,-0.050191935151815414,0.805462658405304,0.03738175332546234,-0.27757516503334045,0.6385189890861511
1,199,2.985,-0.060032498091459274,0.7047135829925537,0.35708877444267273,0.026823727414011955,-0.6766374111175537,-0.1791624128818512,-0.04243447631597519,0.3981326222419739,0.602411150932312,0.018960576504468918,-0.5782867670059204,0.22335755825042725,18.96118927001953,-53.89239501953125,150.0,0.22780299186706543,-47.50971221923828,-125.3499526977539,0.03954660892486572,-0.0027417836245149374,0.8456041216850281,0.027425458654761314,-0.29314014315605164,0.6405459046363831
1,200,3.0,-0.07922651618719101,0.7168028950691223,0.07900354266166687,-0.05218975618481636,-0.6772637963294983,-0.22559568285942078,-0.056001927703619,0.4066780209541321,0.4058443009853363,-0.03689076751470566,-0.578729510307312,0.19053581357002258,4.2364044189453125,44.20798110961914,-150.0,10.123174667358398,-34.587066650390625,-136.26724243164062,0.02698390744626522,0.058904193341732025,0.8464314341545105,0.016327233985066414,-0.3036077320575714,0.6418662667274475
1,201,3.0149999999999997,-0.11180572956800461,0.6792775392532349,-0.20445330440998077,-0.1250067949295044,-0.6905487775802612,-0.3006618022918701,-0.07903081923723221,0.38015294075012207,0.20548048615455627,-0.08836210519075394,-0.5881201028823853,0.13747471570968628,4.031710624694824,-72.2558364868164,66.90434265136719,0.8259859085083008,-42.33580017089844,-143.83709716796875,0.0248466357588768,0.10778377205133438,0.8162773251533508,-0.006287219002842903,-0.31963199377059937,0.6357656717300415
1,202,3.03,-0.0818951427936554,0.6295211911201477,-0.4591658413410187,-0.0980943813920021,-0.6948055624961853,-0.3947334885597229,-0.05788826942443848,0.3449822664260864,0.025434821844100952,-0.0693388357758522,-0.5911290645599365,0.07097934931516647,-11.86172103881836,-5.859920501708984,-150.0,29.829833984375,-33.81135940551758,-142.1621551513672,0.017197739332914352,0.1638094037771225,0.7049018740653992,-0.028190424665808678,-0.3300592005252838,0.6285549402236938
1,203,3.045,-0.03778836503624916,0.598960280418396,-0.6683140397071838,0.040071651339530945,-0.678417980670929,-0.49506768584251404,-0.026711024343967438,0.3233800232410431,-0.12240332365036011,0.02832498401403427,-0.5795453786849976,5.731731653213501e-05,9.259262084960938,-82.3037109375,150.0,33.33729553222656,-34.62504577636719,-150.0,0.015818804502487183,0.1853693574666977,0.6402578949928284,-0.05806783586740494,-0.34268882870674133,0.6169934868812561
1,204,3.06,-0.08255676180124283,0.6052969694137573,-0.8209447264671326,0.2274269163608551,-0.6470257639884949,-0.5754519104957581,-0.05835593864321709,0.32785916328430176,-0.23029156029224396,0.1607586294412613,-0.557355523109436,-0.05676296725869179,-8.311487197875977,38.63053512573242,-150.0,69.22341918945312,-26.332456588745117,-150.0,-0.004227474331855774,0.22099806368350983,0.533044159412384,-0.07330355048179626,-0.3499263525009155,0.6121020913124084
