EASYMMMM/IGEvolution/isaacgymenvs/run_data/srl_policy_outputs_env0.csv
episode,step,time_sec,action_0,action_1,action_2,action_3,action_4,action_5,pd_target_0,pd_target_1,pd_target_2,pd_target_3,pd_target_4,pd_target_5,torque_0,torque_1,torque_2,torque_3,torque_4,torque_5,joint_pos_0,joint_pos_1,joint_pos_2,joint_pos_3,joint_pos_4,joint_pos_5
1,0,0.0,0.02031685784459114,-0.012585794553160667,-0.005272948648780584,-0.0245624128729105,0.00011380487558199093,0.00787255261093378,0.014361142180860043,-0.10889637470245361,0.3462727665901184,-0.017362147569656372,-0.09991955757141113,0.35556477308273315,1.723336935043335,-1.8682382106781006,-1.043623685836792,-2.0834574699401855,0.01689322106540203,1.558138132095337,0.00967761967331171,-0.09937700629234314,0.35067808628082275,-0.009754871018230915,-0.09774702787399292,0.34743785858154297
1,1,0.015,0.09847060590982437,-0.053736548870801926,-0.015055382624268532,-0.057506415992975235,-0.019689466804265976,0.03718072921037674,0.0696047767996788,-0.13798412680625916,0.33935797214508057,-0.040648892521858215,-0.11391766369342804,0.3762814998626709,-12.968255043029785,-12.344589233398438,-7.334826946258545,16.515302658081055,-17.434568405151367,18.918319702148438,0.013220992870628834,-0.09906864166259766,0.34585773944854736,-0.012832251377403736,-0.09714041650295258,0.36589282751083374
1,2,0.03,0.2372632622718811,-0.07951144874095917,-0.01999942772090435,-0.04887435957789421,-0.0682792067527771,0.09035991132259369,0.1677115261554718,-0.15620332956314087,0.33586323261260986,-0.03454725071787834,-0.14826372265815735,0.4138716459274292,21.429407119750977,-9.739986419677734,18.923477172851562,-6.623861312866211,-5.695780277252197,-76.85492706298828,0.011191804893314838,-0.10772673040628433,0.355850487947464,-0.00665920739993453,-0.08519614487886429,0.33141621947288513
1,3,0.045,0.40372204780578613,-0.017984680831432343,-0.01588154025375843,-0.0018380744149908423,-0.0799785852432251,0.15775525569915771,0.28537431359291077,-0.11271262168884277,0.3387739956378937,-0.0012992583215236664,-0.15653352439403534,0.4615105986595154,34.79656982421875,20.793970108032227,-66.32929229736328,-9.928836822509766,-52.57061004638672,150.0,0.019803082570433617,-0.10187824070453644,0.3142628073692322,-0.004952380433678627,-0.10829319804906845,0.3981694281101227
1,4,0.06,0.5520707964897156,0.11727984994649887,-0.015703998506069183,0.05926836282014847,-0.032670293003320694,0.20810142159461975,0.39023587107658386,-0.017099767923355103,0.33889949321746826,0.0418943390250206,-0.12309326976537704,0.4970982074737549,22.955039978027344,-12.885120391845703,150.0,9.97024917602539,87.15570831298828,-150.0,0.049404021352529526,-0.11922908574342728,0.37184643745422363,-0.015780054032802582,-0.10397341102361679,0.4137631952762604
1,5,0.075,0.6574608087539673,0.25186944007873535,-0.03686392679810524,0.11859483271837234,0.03281658515334129,0.2093447744846344,0.46473169326782227,0.07803598791360855,0.3239424228668213,0.08382975310087204,-0.07680332660675049,0.497977077960968,3.598907470703125,112.10324096679688,-150.0,27.07462501525879,-61.197044372558594,150.0,0.08276007324457169,-0.09952269494533539,0.3688666522502899,-0.019871482625603676,-0.10742155462503433,0.46805891394615173
1,6,0.09,0.7285637259483337,0.34579500555992126,-0.09021129459142685,0.18220877647399902,0.10705963522195816,0.17069323360919952,0.5149914026260376,0.1444280594587326,0.28623339533805847,0.1287958025932312,-0.02432401478290558,0.4706559181213379,6.721065521240234,-50.16427230834961,150.0,18.735130310058594,75.69944763183594,-150.0,0.12100229412317276,-0.0833263248205185,0.3996516466140747,-0.01973564550280571,-0.09193573147058487,0.47673022747039795
1,7,0.105,0.7742902040481567,0.38565224409103394,-0.1822481006383896,0.234327033162117,0.17316146194934845,0.12204726785421371,0.5473135113716125,0.17260149121284485,0.221176415681839,0.16563603281974792,0.022400613874197006,0.4362701177597046,-0.8481636047363281,77.57284545898438,-150.0,17.697507858276367,-54.68048858642578,150.0,0.1613762527704239,-0.04813889414072037,0.38272950053215027,-0.014574060216546059,-0.08950154483318329,0.5234479904174805
1,8,0.12,0.8051875233650208,0.3568315804004669,-0.2981150150299072,0.2567087709903717,0.23320059478282928,0.07211301475763321,0.5691535472869873,0.15222935378551483,0.13927492499351501,0.18145674467086792,0.06483978033065796,0.40097367763519287,-4.804557800292969,-72.57714080810547,150.0,13.917305946350098,82.4758071899414,-150.0,0.19579055905342102,-0.02992630936205387,0.4061359167098999,0.0009151278645731509,-0.07335832715034485,0.525855541229248
1,9,0.135,0.8247388601303101,0.26641058921813965,-0.41187313199043274,0.2490628957748413,0.2956070005893707,0.0053471955470740795,0.5829735994338989,0.08831451833248138,0.058864057064056396,0.17605219781398773,0.10895225405693054,0.35377970337867737,8.293834686279297,49.592254638671875,-150.0,-9.674173355102539,-39.409847259521484,150.0,0.2221648395061493,0.0019245360745117068,0.3868779242038727,0.024706656113266945,-0.06707050651311874,0.5650409460067749
1,10,0.15,0.783339262008667,0.14697036147117615,-0.5085334181785583,0.1877620965242386,0.33572110533714294,-0.08678384125232697,0.5537099242210388,0.0038872137665748596,-0.009461067616939545,0.1327212154865265,0.13730724155902863,0.2886561155319214,0.9265708923339844,-102.43305206298828,150.0,-14.099437713623047,76.25260925292969,-150.0,0.22460567951202393,-0.04942871630191803,0.5027924180030823,0.04835040867328644,-0.04249127581715584,0.5579830408096313
1,11,0.16499999999999998,0.6673865914344788,0.036857474595308304,-0.5915278792381287,0.07741502672433853,0.32573238015174866,-0.20726421475410461,0.47174781560897827,-0.0739469900727272,-0.0681263729929924,0.05472145974636078,0.13024663925170898,0.20349356532096863,38.45587158203125,150.0,-150.0,-34.214012145996094,-38.49015426635742,150.0,0.22410769760608673,-0.07840809971094131,0.5499629378318787,0.06805887818336487,-0.041737351566553116,0.5887758731842041
1,12,0.18,0.5490277409553528,-0.040563181042671204,-0.6565902829170227,0.0034859576262533665,0.2663995325565338,-0.3565157651901245,0.38808485865592957,-0.12867242097854614,-0.11411626636981964,0.002464078366756439,0.08830671012401581,0.097993865609169,10.986560821533203,-32.79899215698242,-8.459396362304688,-25.1989803314209,80.86947631835938,-150.0,0.23657241463661194,-0.09135773032903671,0.5330246686935425,0.06673812121152878,-0.024744898080825806,0.5710046887397766
1,13,0.195,0.43434205651283264,-0.09093555808067322,-0.670119047164917,0.010770775377750397,0.17397785186767578,-0.5158237218856812,0.30701833963394165,-0.1642785519361496,-0.12367922812700272,0.007613413035869598,0.022977687418460846,-0.014614254236221313,-4.048811912536621,76.5912094116211,-150.0,3.022071361541748,-64.93034362792969,150.0,0.23046447336673737,-0.12683521211147308,0.5794790983200073,0.06583130359649658,-0.029007235541939735,0.5921582579612732
1,14,0.21,0.31256967782974243,-0.1429229974746704,-0.5980818867683411,0.04559004306793213,0.07844322174787521,-0.663280725479126,0.22094249725341797,-0.2010263055562973,-0.07275914400815964,0.032225705683231354,-0.04455175995826721,-0.11884550750255585,14.538623809814453,50.00345230102539,-150.0,-2.8793344497680664,59.28483581542969,-150.0,0.23214279115200043,-0.15901893377304077,0.6228477358818054,0.052189603447914124,-0.023787062615156174,0.5692228078842163
1,15,0.22499999999999998,0.21621951460838318,-0.22281892597675323,-0.4450501501560211,0.04870036616921425,0.043142545968294144,-0.7873498797416687,0.15283657610416412,-0.25750139355659485,0.035412609577178955,0.03442426398396492,-0.06950433552265167,-0.20654478669166565,-19.490493774414062,29.43377113342285,-150.0,5.2428202629089355,-48.64701843261719,55.37760925292969,0.2340390533208847,-0.18592147529125214,0.6561462879180908,0.05428343638777733,-0.10546215623617172,0.6815131306648254
1,16,0.24,0.13139313459396362,-0.33733034133911133,-0.2557224631309509,-0.0003453250683378428,0.09312009811401367,-0.8831494450569153,0.09287634491920471,-0.3384447395801544,0.16924045979976654,-0.00024409592151641846,-0.03417728841304779,-0.274261474609375,-12.474588394165039,22.281898498535156,-150.0,-11.8906888961792,150.0,-150.0,0.24771539866924286,-0.2113092541694641,0.6854364275932312,0.04126288741827011,-0.13316717743873596,0.6804758310317993
1,17,0.255,0.013380192220211029,-0.4609803557395935,-0.07888945192098618,-0.033139701932668686,0.19555705785751343,-0.950964629650116,0.009457901120185852,-0.42584776878356934,0.29423633217811584,-0.02342507615685463,0.038231123238801956,-0.32219719886779785,-59.65522003173828,4.744235992431641,-150.0,22.391725540161133,3.087078094482422,16.75628662109375,0.2543310225009918,-0.23081153631210327,0.7020784616470337,0.03825675696134567,-0.16939318180084229,0.7036459445953369
1,18,0.27,-0.12428104132413864,-0.5637005567550659,0.06468362361192703,-0.01930035650730133,0.29531216621398926,-0.9800335764884949,-0.08784909546375275,-0.4984564185142517,0.3957221508026123,-0.013642619363963604,0.10874384641647339,-0.3427448570728302,-37.840885162353516,-23.638973236083984,-122.74708557128906,-15.950920104980469,150.0,-150.0,0.26186898350715637,-0.24020163714885712,0.7110950350761414,0.03342794254422188,-0.1856214702129364,0.6988959908485413
1,19,0.285,-0.2420474737882614,-0.6383908987045288,0.1624501645565033,-0.015324626117944717,0.33238673210144043,-0.9397889971733093,-0.17109328508377075,-0.5512518882751465,0.4648292362689972,-0.010832340456545353,0.13495030999183655,-0.3142976462841034,-71.92516326904297,-52.3515510559082,-90.11553955078125,12.660148620605469,101.33547973632812,-150.0,0.26754558086395264,-0.2432355135679245,0.7084304690361023,0.027928678318858147,-0.19752371311187744,0.7002875804901123
1,20,0.3,-0.3197996914386749,-0.6652209758758545,0.20390671491622925,-0.023754246532917023,0.27392348647117615,-0.8171839118003845,-0.22605308890342712,-0.570216953754425,0.4941331446170807,-0.01679088920354843,0.09362507611513138,-0.22763322293758392,-60.8033447265625,-69.29904174804688,-36.71864318847656,-3.2304556369781494,81.79261016845703,-150.0,0.27128130197525024,-0.25051024556159973,0.7057690620422363,0.019693264737725258,-0.20129111409187317,0.6910485625267029
1,21,0.315,-0.31478023529052734,-0.6156153678894043,0.2075231820344925,-0.03468634560704231,0.12379643321037292,-0.641718327999115,-0.22250504791736603,-0.535152792930603,0.49668946862220764,-0.02451833337545395,-0.012493468821048737,-0.10360391438007355,-64.04605865478516,-42.386741638183594,-59.85000228881836,9.377673149108887,45.42626190185547,-150.0,0.2704896926879883,-0.2476879507303238,0.6966134905815125,0.016235245391726494,-0.1996566355228424,0.676913321018219
1,22,0.32999999999999996,-0.21613545715808868,-0.5076809525489807,0.20166802406311035,-0.060592036694288254,-0.06901753693819046,-0.4566260278224945,-0.15277716517448425,-0.4588584899902344,0.49255070090293884,-0.04282999038696289,-0.14878562092781067,0.027230113744735718,-45.693782806396484,-63.929683685302734,-11.446125030517578,-9.622970581054688,7.028284072875977,-150.0,0.2692854702472687,-0.2531186640262604,0.6929605603218079,0.00826509203761816,-0.19249992072582245,0.6556416749954224
1,23,0.345,-0.043025340884923935,-0.4103296399116516,0.20487874746322632,-0.07411602884531021,-0.21565531194210052,-0.29343342781066895,-0.03041282296180725,-0.3900448977947235,0.494820237159729,-0.052389539778232574,-0.2524377405643463,0.14258414506912231,-32.50047302246094,-3.9410839080810547,-66.6510009765625,9.044200897216797,-25.893869400024414,-87.71346282958984,0.27271100878715515,-0.2531220316886902,0.6839795708656311,0.0005598050775006413,-0.18653446435928345,0.6331339478492737
1,24,0.36,0.16259527206420898,-0.3813474178314209,0.23443129658699036,-0.05199616402387619,-0.25032857060432434,-0.17226257920265198,0.11493183672428131,-0.36955857276916504,0.5157096982002258,-0.036753926426172256,-0.2769468128681183,0.22823476791381836,-23.66267967224121,-33.46632385253906,-13.561351776123047,2.0524516105651855,-30.16375732421875,-62.21673583984375,0.2646619379520416,-0.2525711953639984,0.6710668802261353,0.00417955731973052,-0.1842799335718155,0.6194943189620972
1,25,0.375,0.35216793417930603,-0.40628495812416077,0.28757143020629883,-0.05082796514034271,-0.19270095229148865,-0.10330522805452347,0.2489328533411026,-0.38718587160110474,0.5532722473144531,-0.03592817485332489,-0.23621225357055664,0.2769778370857239,16.60811996459961,-25.79367446899414,-1.76080322265625,-15.257576942443848,-11.280592918395996,-73.67015838623047,0.26532939076423645,-0.26337555050849915,0.6656879186630249,0.0015791560290381312,-0.18338477611541748,0.605748176574707
1,26,0.39,0.4885944426059723,-0.4309104084968567,0.3528711795806885,-0.13052155077457428,-0.11009735614061356,-0.0827644020318985,0.34536707401275635,-0.4045925736427307,0.5994299054145813,-0.09226025640964508,-0.1778232306241989,0.29149729013442993,1.664149284362793,-4.072301864624023,-10.377591133117676,-3.7905197143554688,0.6583821773529053,-54.878074645996094,0.2533629536628723,-0.27390602231025696,0.6545414328575134,0.01152473408728838,-0.1851244419813156,0.602036714553833
1,27,0.40499999999999997,0.5217392444610596,-0.4249223470687866,0.4325942397117615,-0.23334161937236786,-0.0603673979640007,-0.0872902050614357,0.3687957525253296,-0.4003598690032959,0.6557828187942505,-0.16493947803974152,-0.14267119765281677,0.28829818964004517,42.932804107666016,-11.042939186096191,43.78673553466797,-45.79944610595703,17.929323196411133,-97.30445861816406,0.2570250630378723,-0.2966299057006836,0.6788086295127869,0.013934353366494179,-0.19054827094078064,0.5955216288566589
1,28,0.42,0.4353847801685333,-0.3843900263309479,0.5214084982872009,-0.2792920470237732,-0.07657168805599213,-0.10402931272983551,0.30775538086891174,-0.37170925736427307,0.7185618877410889,-0.1974199265241623,-0.15412533283233643,0.2764660120010376,-16.260700225830078,35.40340805053711,-126.6166000366211,-19.850791931152344,22.80021095275879,-70.38519287109375,0.2607194185256958,-0.29740238189697266,0.6239823698997498,0.017979539930820465,-0.2034502625465393,0.5863301753997803
1,29,0.435,0.27644509077072144,-0.31602150201797485,0.6093138456344604,-0.2847157418727875,-0.14237572252750397,-0.1326022744178772,0.19540752470493317,-0.3233824074268341,0.7806985378265381,-0.2012537121772766,-0.20063945651054382,0.2562689781188965,33.161380767822266,-53.81602478027344,99.55839538574219,-43.20683288574219,20.88239097595215,-71.02459716796875,0.24062378704547882,-0.3008701503276825,0.6964576840400696,0.022433573380112648,-0.2116391360759735,0.5752678513526917
1,30,0.44999999999999996,0.11786917597055435,-0.23388530313968658,0.6816584467887878,-0.2992229759693146,-0.23374557495117188,-0.1554667353630066,0.08331681787967682,-0.2653237581253052,0.831835925579071,-0.21150827407836914,-0.26522499322891235,0.24010704457759857,0.09403610229492188,47.681758880615234,-150.0,-30.16028594970703,7.409402847290039,-71.81326293945312,0.2165827751159668,-0.28069958090782166,0.6953793168067932,0.03587660565972328,-0.2253950536251068,0.5674867033958435
1,31,0.46499999999999997,0.0027937896084040403,-0.14108289778232574,0.7264991402626038,-0.32922592759132385,-0.3252986967563629,-0.1540895402431488,0.0019748136401176453,-0.19972561299800873,0.8635318875312805,-0.23271611332893372,-0.3299400806427002,0.24108052253723145,14.017585754394531,-68.22532653808594,150.0,-59.217933654785156,-0.5343704223632812,-79.33328247070312,0.1962709128856659,-0.27584192156791687,0.7339520454406738,0.0449773408472538,-0.23517875373363495,0.5594659447669983
1,32,0.48,-0.07153625786304474,-0.026083894073963165,0.7458577156066895,-0.33703723549842834,-0.3649693727493286,-0.12746453285217285,-0.05056600645184517,-0.11843761801719666,0.8772157430648804,-0.23823758959770203,-0.3579816222190857,0.25990062952041626,-7.237415313720703,75.89252471923828,-150.0,-40.67200469970703,-2.312856674194336,-69.48455047607422,0.16627438366413116,-0.24960021674633026,0.7280009388923645,0.06362583488225937,-0.24921154975891113,0.5561522841453552
1,33,0.495,-0.12205130606889725,0.10450734198093414,0.7452755570411682,-0.33009669184684753,-0.3356461822986603,-0.08351243287324905,-0.08627299219369888,-0.026128120720386505,0.8768041729927063,-0.2333316206932068,-0.33725428581237793,0.29096853733062744,18.271148681640625,-52.955509185791016,150.0,-69.29450988769531,3.978616714477539,-72.41170501708984,0.14962926506996155,-0.2318045049905777,0.7585273385047913,0.06953967362642288,-0.2570559084415436,0.5472919344902039
1,34,0.51,-0.13055124878883362,0.2374923974275589,0.7274428606033325,-0.3599059283733368,-0.2694234549999237,-0.03144083917140961,-0.09228124469518661,0.06787347793579102,0.8641990423202515,-0.2544025182723999,-0.29044419527053833,0.327775776386261,-17.7696590423584,81.26493835449219,-150.0,-36.175575256347656,9.818288803100586,-38.118350982666016,0.12604837119579315,-0.19271431863307953,0.7439379692077637,0.08090993016958237,-0.26939696073532104,0.5412836074829102
1,35,0.525,-0.09227556735277176,0.35623541474342346,0.6920928359031677,-0.3908034861087799,-0.20474426448345184,0.01825747638940811,-0.0652257576584816,0.15180794894695282,0.8392115235328674,-0.276242733001709,-0.24472518265247345,0.36290544271469116,20.032434463500977,-47.196800231933594,150.0,-67.88439178466797,30.646934509277344,-41.49241256713867,0.10417333245277405,-0.15976347029209137,0.7606341242790222,0.08977185189723969,-0.281917005777359,0.5358704328536987
1,36,0.54,-0.06388948857784271,0.4428997337818146,0.6379871368408203,-0.3786059617996216,-0.17964129149913788,0.06244577094912529,-0.045160822570323944,0.21306735277175903,0.8009665012359619,-0.2676208019256592,-0.22698093950748444,0.3941403031349182,5.859987258911133,69.20333099365234,-150.0,-49.64832305908203,38.480674743652344,-31.305404663085938,0.08208189904689789,-0.10563664883375168,0.7319219708442688,0.10195578634738922,-0.29599642753601074,0.5320454239845276
1,37,0.5549999999999999,-0.10979070514440536,0.5048193335533142,0.5610350966453552,-0.3616180121898651,-0.20219643414020538,0.10221058875322342,-0.07760648429393768,0.2568357288837433,0.7465723156929016,-0.25561273097991943,-0.24292422831058502,0.42224839329719543,11.793203353881836,-65.41605377197266,150.0,-63.25514221191406,36.05105972290039,-22.82883644104004,0.06592240184545517,-0.06448075920343399,0.7377627491950989,0.10881192982196808,-0.31225642561912537,0.5272765159606934
1,38,0.57,-0.23258665204048157,0.5486394762992859,0.45475855469703674,-0.3628551959991455,-0.21285346150398254,0.1340407431125641,-0.16440582275390625,0.287810355424881,0.6714498400688171,-0.25648725032806396,-0.250457227230072,0.44474780559539795,-7.899097442626953,55.512939453125,-150.0,-49.70810317993164,47.498451232910156,-17.991655349731445,0.0480365976691246,-0.010201887227594852,0.7028360962867737,0.11579401791095734,-0.32733792066574097,0.5230903625488281
1,39,0.585,-0.3769931495189667,0.5504266023635864,0.31414324045181274,-0.4046177268028259,-0.15364953875541687,0.1567416787147522,-0.26648077368736267,0.2890735864639282,0.5720547437667847,-0.28600743412971497,-0.2086084485054016,0.4607941508293152,-13.474403381347656,-72.85327911376953,150.0,-57.69007873535156,46.7896728515625,-5.663458824157715,0.03264346718788147,0.025281375274062157,0.7090557217597961,0.11434789001941681,-0.3388015031814575,0.5165495276451111
1,40,0.6,-0.45231857895851135,0.5033627152442932,0.13952761888504028,-0.4954778254032135,-0.0330008938908577,0.17337429523468018,-0.3197251856327057,0.2558061182498932,0.44862625002861023,-0.35023266077041626,-0.12332695722579956,0.47255104780197144,-17.291582107543945,42.83148956298828,-150.0,-52.122406005859375,71.39360809326172,-3.1518898010253906,0.010580642148852348,0.06613939255475998,0.6793125867843628,0.11192208528518677,-0.34974050521850586,0.5092180371284485
1,41,0.615,-0.38636109232902527,0.45013928413391113,-0.06312663853168488,-0.5899184346199036,0.0890091136097908,0.1751282662153244,-0.2731025815010071,0.2181846797466278,0.30537840723991394,-0.4169888198375702,-0.03708317130804062,0.47379085421562195,-2.670440673828125,-73.43624877929688,150.0,-59.783233642578125,86.21371459960938,11.673463821411133,-0.018609924241900444,0.08680655807256699,0.688948929309845,0.11121247708797455,-0.3622452914714813,0.5043661594390869
1,42,0.63,-0.2267090529203415,0.4328642785549164,-0.27830615639686584,-0.6608259677886963,0.15699845552444458,0.15909598767757416,-0.1602512001991272,0.20597369968891144,0.1532769799232483,-0.46711039543151855,0.010975658893585205,0.4624583125114441,28.72911834716797,42.599491119384766,-150.0,-71.64297485351562,110.13069915771484,-9.961143493652344,-0.03764651343226433,0.11437615752220154,0.6616626977920532,0.10322186350822449,-0.37137436866760254,0.492790549993515
1,43,0.645,-0.09609875082969666,0.44331878423690796,-0.4828607738018036,-0.7251298427581787,0.1543278694152832,0.13847114145755768,-0.06792820990085602,0.21336354315280914,0.008685842156410217,-0.5125641226768494,0.009087927639484406,0.44787946343421936,10.857937812805176,-61.55839157104492,147.81484985351562,-59.45600128173828,96.92472076416016,26.25421142578125,-0.04362449795007706,0.12294312566518784,0.672236979007721,0.08123356848955154,-0.3722342550754547,0.48342567682266235
1,44,0.6599999999999999,-0.07235191762447357,0.4564926326274872,-0.658957302570343,-0.7910916805267334,0.10265576839447021,0.11789451539516449,-0.051142558455467224,0.22267557680606842,-0.11578942090272903,-0.5591897964477539,-0.02743692323565483,0.43333470821380615,9.786639213562012,54.36459732055664,-150.0,-45.24213790893555,77.74008178710938,-2.0108280181884766,-0.056657589972019196,0.14416588842868805,0.6381294131278992,0.07185916602611542,-0.3843255043029785,0.4722485840320587
1,45,0.6749999999999999,-0.1532585173845291,0.46803930401802063,-0.7995222210884094,-0.8482651710510254,0.036417845636606216,0.09726489335298538,-0.1083320677280426,0.23083744943141937,-0.2151488959789276,-0.5996033549308777,-0.0742577463388443,0.4187524914741516,12.373899459838867,-56.986236572265625,117.09693908691406,-74.62120819091797,92.57270812988281,13.703635215759277,-0.06879853457212448,0.1590939611196518,0.6124468445777893,0.06565123051404953,-0.39679771661758423,0.4623335599899292
1,46,0.69,-0.27632197737693787,0.4605995714664459,-0.8895125985145569,-0.8558042645454407,-0.04043348878622055,0.072089783847332,-0.1953205168247223,0.22557863593101501,-0.27875933051109314,-0.604932427406311,-0.1285807490348816,0.40095725655555725,4.033496856689453,27.18321990966797,-150.0,-74.71498107910156,85.37689971923828,1.4380645751953125,-0.08958053588867188,0.1871052235364914,0.5243918299674988,0.06865297257900238,-0.4120236933231354,0.45691120624542236
1,47,0.705,-0.3425757586956024,0.41343584656715393,-0.9211516380310059,-0.7395473718643188,-0.12026603519916534,0.03999093174934387,-0.24215254187583923,0.19224056601524353,-0.3011236786842346,-0.5227552652359009,-0.18501104414463043,0.37826791405677795,11.832138061523438,-80.44454193115234,150.0,-80.93479919433594,78.71723937988281,-12.524386405944824,-0.10380987823009491,0.18687912821769714,0.48456403613090515,0.0681762546300888,-0.4288223385810852,0.44981905817985535
1,48,0.72,-0.292574018239975,0.3083557188510895,-0.9094782471656799,-0.49266430735588074,-0.19137564301490784,0.0023414480965584517,-0.206808403134346,0.1179637759923935,-0.29287219047546387,-0.3482438921928406,-0.23527544736862183,0.3516550660133362,6.45719051361084,44.77429962158203,-150.0,-48.98450469970703,75.68544006347656,-14.213821411132812,-0.11154212802648544,0.19722972810268402,0.4065133333206177,0.06122325733304024,-0.4400753378868103,0.4373362064361572
1,49,0.735,-0.16397354006767273,0.13560442626476288,-0.8684065341949463,-0.2371421754360199,-0.2749474048614502,-0.04694916680455208,-0.11590607464313507,-0.004146888852119446,-0.26384037733078003,-0.16762593388557434,-0.2943488359451294,0.316813588142395,5.256782531738281,-104.96992492675781,150.0,-16.069089889526367,50.78709030151367,4.291393280029297,-0.11510483920574188,0.17648760974407196,0.38121286034584045,0.05191367119550705,-0.45615720748901367,0.42515116930007935
1,50,0.75,-0.03472980111837387,-0.08079405128955841,-0.8070012927055359,-0.07244832068681717,-0.3725106716156006,-0.10921499133110046,-0.024549052119255066,-0.15710994601249695,-0.2204355150461197,-0.05121070146560669,-0.3633122444152832,0.272800475358963,17.87989044189453,31.50493621826172,-150.0,-0.8077707290649414,53.539573669433594,-20.266036987304688,-0.11936493217945099,0.1585880070924759,0.3406091332435608,0.04645659774541855,-0.4708312153816223,0.4164007008075714
1,51,0.765,0.024509310722351074,-0.2946246564388275,-0.7028422951698303,0.0602443665266037,-0.45008888840675354,-0.17815923690795898,0.01732461154460907,-0.3082578778266907,-0.1468098908662796,0.04258423671126366,-0.41814905405044556,0.22406665980815887,28.352249145507812,-86.58680725097656,-150.0,-4.284604072570801,21.592330932617188,-37.17167282104492,-0.12419789284467697,0.14118757843971252,0.34884515404701233,0.04521331936120987,-0.4818987250328064,0.40162885189056396
1,52,0.78,0.0062520853243768215,-0.44889259338378906,-0.5325313210487366,0.18955658376216888,-0.47860974073410034,-0.23469947278499603,0.0044193388894200325,-0.4173034429550171,-0.026424169540405273,0.13398966193199158,-0.4383092522621155,0.18410073220729828,19.288711547851562,-93.12389373779297,-130.155029296875,15.815567016601562,19.62991714477539,-15.751529693603516,-0.12676341831684113,0.12526297569274902,0.35543420910835266,0.042781900614500046,-0.48920994997024536,0.38365083932876587
1,53,0.7949999999999999,0.0026519051752984524,-0.48274722695350647,-0.3320799171924591,0.27472496032714844,-0.44540679454803467,-0.25046032667160034,0.0018745213747024536,-0.44123387336730957,0.11526656150817871,0.19419164955615997,-0.4148394763469696,0.1729600429534912,18.699907302856445,-91.36735534667969,-91.15046691894531,19.889190673828125,26.23400115966797,-14.689384460449219,-0.13037598133087158,0.10714733600616455,0.3625987470149994,0.04206124693155289,-0.4983808994293213,0.3665090501308441
1,54,0.8099999999999999,0.08614718168973923,-0.36812493205070496,-0.16378198564052582,0.34909680485725403,-0.3906232714653015,-0.2001418024301529,0.06089385971426964,-0.36021214723587036,0.23422934114933014,0.2467620074748993,-0.3761152923107147,0.20852810144424438,29.75235366821289,-70.6696548461914,-56.12522888183594,25.339956283569336,40.7696533203125,-2.7286148071289062,-0.13763192296028137,0.08808586001396179,0.3700913190841675,0.04644906148314476,-0.5100446939468384,0.35421285033226013
1,55,0.825,0.23699107766151428,-0.15194089710712433,-0.0670982226729393,0.43114516139030457,-0.3812110126018524,-0.07195554673671722,0.16751913726329803,-0.20740067958831787,0.30257105827331543,0.30475857853889465,-0.36946216225624084,0.2991376221179962,46.70875549316406,-27.689857482910156,-41.33171081542969,22.758390426635742,51.935157775878906,9.045927047729492,-0.14242959022521973,0.06894893199205399,0.3812091648578644,0.049089495092630386,-0.5193697214126587,0.34162989258766174
1,56,0.84,0.4080940783023834,0.0776125118136406,-0.03774818405508995,0.5013837218284607,-0.43270301818847656,0.11425655335187912,0.2884647250175476,-0.04513895511627197,0.32331737875938416,0.35440731048583984,-0.40585970878601074,0.4307631850242615,56.77496337890625,8.981246948242188,-50.406829833984375,36.31814956665039,39.57675552368164,61.649688720703125,-0.14661042392253876,0.04954281076788902,0.39360636472702026,0.05840502679347992,-0.5287888646125793,0.37437498569488525
1,57,0.855,0.5507802367210388,0.2523171305656433,-0.049240607768297195,0.5783702731132507,-0.5233104825019836,0.32107749581336975,0.3893236517906189,0.0783524364233017,0.31519386172294617,0.4088258743286133,-0.4699063301086426,0.5769562721252441,71.61383056640625,42.95198440551758,-59.49001693725586,20.878128051757812,31.535871505737305,-117.944580078125,-0.1452990621328354,0.03408185392618179,0.4047831892967224,0.0646921843290329,-0.5112189054489136,0.3434942066669464
1,58,0.87,0.6314405798912048,0.3432733714580536,-0.08052781224250793,0.6705411672592163,-0.620227038860321,0.518123209476471,0.44633907079696655,0.14264561235904694,0.2930782437324524,0.473977655172348,-0.5384126305580139,0.7162396907806396,64.61186218261719,43.14592742919922,-50.82539367675781,83.5242919921875,-2.951941728591919,142.92578125,-0.15415163338184357,0.02557653747498989,0.4045400321483612,0.07369145005941391,-0.5391925573348999,0.4620027542114258
1,59,0.885,0.6748223900794983,0.35906490683555603,-0.11971079558134079,0.7475653886795044,-0.6922881603240967,0.6731582283973694,0.47700387239456177,0.15380799770355225,0.26538142561912537,0.5284228920936584,-0.589349627494812,0.8258274793624878,95.0820541381836,45.85584259033203,-41.67937088012695,16.2384033203125,67.18783569335938,-150.0,-0.15806104242801666,0.01799195632338524,0.40368378162384033,0.09908758103847504,-0.5318436026573181,0.5184643268585205
1,60,0.8999999999999999,0.7233960628509521,0.33461794257164,-0.15029548108577728,0.7933289408683777,-0.6872777938842773,0.7707096934318542,0.5113385915756226,0.13652747869491577,0.24376238882541656,0.5607712268829346,-0.5858079791069031,0.894782543182373,80.82682800292969,38.736480712890625,-43.92727279663086,20.357566833496094,-80.10846710205078,150.0,-0.16178128123283386,0.006202877964824438,0.404452383518219,0.12765498459339142,-0.5394425988197327,0.612460732460022
1,61,0.9149999999999999,0.744831383228302,0.2784366011619568,-0.15023468434810638,0.8262109756469727,-0.5524115562438965,0.8204860687255859,0.526490330696106,0.09681522101163864,0.24380536377429962,0.5840141773223877,-0.49047666788101196,0.9299674034118652,88.65057373046875,46.41065979003906,-65.54095458984375,16.529762268066406,76.98262786865234,-150.0,-0.15892045199871063,-0.001082029310055077,0.4069599211215973,0.15679527819156647,-0.5231001377105713,0.6613876223564148
1,62,0.9299999999999999,0.6747536063194275,0.17680241167545319,-0.12419018149375916,0.8584341406822205,-0.31700366735458374,0.8322319984436035,0.47695523500442505,0.024974249303340912,0.26221513748168945,0.6067913770675659,-0.32407665252685547,0.938270092010498,69.48450469970703,15.58711051940918,-45.3350830078125,11.602432250976562,-42.770652770996094,150.0,-0.1588061898946762,-0.009437335655093193,0.4074484705924988,0.19076257944107056,-0.5098443627357483,0.7395167946815491
1,63,0.945,0.542601466178894,0.07990696281194687,-0.09528713673353195,0.8749982714653015,-0.04031813517212868,0.8135476112365723,0.38354238867759705,-0.043517105281353,0.28264549374580383,0.6184998750686646,-0.12849920988082886,0.9250628352165222,68.60149383544922,13.719243049621582,-46.91994094848633,3.4280128479003906,99.38603973388672,-150.0,-0.15227986872196198,-0.01892944797873497,0.41043031215667725,0.2236599177122116,-0.4649403393268585,0.7671447992324829
1,64,0.96,0.4431675672531128,0.054474618285894394,-0.07355621457099915,0.8418293595314026,0.23460142314434052,0.7616962194442749,0.31325671076774597,-0.061494167894124985,0.29800617694854736,0.5950541496276855,0.06582995504140854,0.888411283493042,44.30522155761719,8.056978225708008,-37.19060134887695,-1.008453369140625,-20.761253356933594,150.0,-0.15005818009376526,-0.029996611177921295,0.41175949573516846,0.2586228847503662,-0.4151809811592102,0.8185544610023499
1,65,0.975,0.4027703106403351,0.09226430952548981,-0.05767779052257538,0.7512032389640808,0.47444307804107666,0.6648775339126587,0.2847015857696533,-0.034782204777002335,0.3092299699783325,0.5309942960739136,0.23536401987075806,0.8199741840362549,52.90213394165039,23.889984130859375,-40.35561752319336,-13.586048126220703,86.8595962524414,-150.0,-0.1489831954240799,-0.03565888851881027,0.4107033312320709,0.2919006645679474,-0.3336513340473175,0.821760892868042
1,66,0.99,0.37285012006759644,0.12982279062271118,-0.049111258238554,0.6103478670120239,0.6543183922767639,0.5107116103172302,0.2635522484779358,-0.008233692497015,0.3152852952480316,0.43142950534820557,0.3625103831291199,0.7110007405281067,49.093910217285156,12.188233375549316,-16.80693244934082,-27.95252799987793,-42.010650634765625,150.0,-0.15163399279117584,-0.04525202140212059,0.4089594781398773,0.316887766122818,-0.25774890184402466,0.8520034551620483
1,67,1.005,0.33039191365242004,0.115836001932621,-0.04662637412548065,0.4064020812511444,0.7316259145736694,0.2994937598705292,0.23354029655456543,-0.018120361492037773,0.3170417547225952,0.287268728017807,0.41715580224990845,0.561699628829956,51.12429428100586,29.86005401611328,-32.71159744262695,-27.08723258972168,55.656883239746094,-150.0,-0.1525890976190567,-0.05337902903556824,0.40774309635162354,0.3277071416378021,-0.1668553501367569,0.8391342759132385
1,68,1.02,0.304095983505249,0.0706535279750824,-0.045325517654418945,0.18366310000419617,0.6772049069404602,0.04601633921265602,0.21495279669761658,-0.050057969987392426,0.31796127557754517,0.12982380390167236,0.37868788838386536,0.38252702355384827,47.1693000793457,11.914154052734375,-15.474418640136719,-35.629638671875,-75.86418151855469,150.0,-0.15546663105487823,-0.06558011472225189,0.4082663357257843,0.3244442045688629,-0.10108862072229385,0.8606806993484497
1,69,1.035,0.31333816051483154,0.02071787416934967,-0.03956231474876404,0.0453755147755146,0.5393081307411194,-0.21932156383991241,0.2214857041835785,-0.08535540103912354,0.3220350444316864,0.03207406401634216,0.2812144160270691,0.1949707269668579,48.282169342041016,24.066274642944336,-41.004150390625,-18.14331817626953,23.04593276977539,-150.0,-0.14754736423492432,-0.08106915652751923,0.41706129908561707,0.29778751730918884,-0.03611994534730911,0.8454617261886597
1,70,1.05,0.3092731237411499,-0.05295369401574135,-0.017121220007538795,0.025934310629963875,0.42808905243873596,-0.45673614740371704,0.21861229836940765,-0.13743075728416443,0.33789771795272827,0.01833188533782959,0.20259828865528107,0.02715228497982025,28.153968811035156,16.08304786682129,-51.731571197509766,9.828742980957031,-87.69192504882812,55.07011413574219,-0.14320780336856842,-0.10027112811803818,0.4247850179672241,0.27476105093955994,0.009294409304857254,0.7941810488700867
1,71,1.065,0.25211039185523987,-0.14865177869796753,0.027024995535612106,0.0847809761762619,0.40183135867118835,-0.6309109330177307,0.17820635437965393,-0.20507574081420898,0.3691028356552124,0.05992814525961876,0.18403781950473785,-0.09596460312604904,35.87063217163086,13.911989212036133,-44.11185073852539,0.7182941436767578,-0.6168937683105469,-150.0,-0.12933973968029022,-0.12303680926561356,0.4393860697746277,0.24383588135242462,0.054670244455337524,0.6571963429450989
1,72,1.08,0.17151668667793274,-0.2476814091205597,0.09194692224264145,0.17069336771965027,0.43546196818351746,-0.7279052138328552,0.12123800814151764,-0.27507564425468445,0.41499343514442444,0.12065604329109192,0.20780989527702332,-0.1645258516073227,5.878639221191406,9.377872467041016,-55.14727020263672,30.636693954467773,-65.20282745361328,150.0,-0.1256479173898697,-0.14699694514274597,0.45074161887168884,0.230484277009964,0.0706627145409584,0.586683452129364
1,73,1.095,0.07768072932958603,-0.3307473063468933,0.16411268711090088,0.21872030198574066,0.47154855728149414,-0.7548850774765015,0.054909273982048035,-0.33379146456718445,0.4660044014453888,0.15460428595542908,0.2333180010318756,-0.18359673023223877,22.652803421020508,4.120449066162109,-30.13936996459961,-1.3321709632873535,55.178558349609375,-150.0,-0.10761210322380066,-0.17625604569911957,0.47194454073905945,0.20526504516601562,0.10098689049482346,0.4708925783634186
1,74,1.1099999999999999,-0.025312457233667374,-0.37897324562072754,0.22488681972026825,0.2122473269701004,0.44412142038345337,-0.7269192337989807,-0.017892323434352875,-0.36788037419319153,0.5089631080627441,0.15002880990505219,0.2139309048652649,-0.16382884979248047,-22.376617431640625,10.521976470947266,-56.51457595825195,35.14398956298828,-72.82195281982422,150.0,-0.10188096016645432,-0.20533713698387146,0.4879007041454315,0.19994717836380005,0.11133964359760284,0.41174039244651794
1,75,1.125,-0.09960954636335373,-0.3998693823814392,0.2664371430873871,0.15562042593955994,0.31872063875198364,-0.6622213125228882,-0.07040984183549881,-0.3826509714126587,0.5383332967758179,0.11000160127878189,0.12529031932353973,-0.11809660494327545,4.60655403137207,16.94338607788086,-28.246213912963867,-16.775732040405273,41.468505859375,-150.0,-0.0830550566315651,-0.23673146963119507,0.5089978575706482,0.18344829976558685,0.10149554163217545,0.3846726417541504
1,76,1.14,-0.16273394227027893,-0.4076840281486511,0.26486873626708984,0.06874264776706696,0.12193945050239563,-0.5500890016555786,-0.11502985656261444,-0.388174831867218,0.5372246503829956,0.04859131574630737,-0.013806089758872986,-0.03883497416973114,-42.8300895690918,17.146419525146484,-50.01149368286133,14.489139556884766,51.326148986816406,-150.0,-0.06399079412221909,-0.2518364489078522,0.5157681703567505,0.1680247038602829,0.07455620169639587,0.3984508216381073
1,77,1.155,-0.2201070934534073,-0.41974076628685,0.20611919462680817,-0.0011270021786913276,-0.08942154794931412,-0.37955543398857117,-0.15558454394340515,-0.3966972231864929,0.4956970512866974,-0.0007966309785842896,-0.16320836544036865,0.08170811831951141,-30.660625457763672,-9.191913604736328,-4.954432964324951,-3.684783935546875,-3.8191375732421875,-131.9056396484375,-0.049364056438207626,-0.27016839385032654,0.5159028768539429,0.15016372501850128,0.04846641793847084,0.4008239507675171
1,78,1.17,-0.2451673448085785,-0.4458223879337311,0.11811047047376633,-0.04373829439282417,-0.2459273487329483,-0.18783552944660187,-0.17329859733581543,-0.4151332378387451,0.4334873557090759,-0.03091678023338318,-0.27383577823638916,0.21722689270973206,-31.154552459716797,-1.8001365661621094,-22.230802536010742,2.979623794555664,-22.637584686279297,-55.66708755493164,-0.03800462558865547,-0.2876240313053131,0.5116251111030579,0.13886436820030212,0.019592395052313805,0.404372900724411
1,79,1.185,-0.2600462734699249,-0.45873093605041504,0.05826796963810921,-0.017110280692577362,-0.27778375148773193,-0.033702053129673004,-0.18381589651107788,-0.424257755279541,0.3911871910095215,-0.012094545178115368,-0.2963537275791168,0.3261774182319641,-33.415199279785156,2.798675537109375,-21.538896560668945,-5.072660446166992,-15.197856903076172,-39.234886169433594,-0.026851067319512367,-0.3098253607749939,0.5069822669029236,0.13004928827285767,-0.014389639720320702,0.4105934202671051
1,80,1.2,-0.25048354268074036,-0.42806339263916016,0.06861570477485657,0.0826813206076622,-0.19447177648544312,0.053235385566949844,-0.17705640196800232,-0.4025801420211792,0.39850157499313354,0.058443985879421234,-0.23746399581432343,0.3876298666000366,-28.973066329956055,16.784975051879883,-17.045650482177734,-1.1691088676452637,12.707706451416016,-31.58176040649414,-0.023278893902897835,-0.3255317211151123,0.49866145849227905,0.1291072517633438,-0.04605817794799805,0.42235055565834045
1,81,1.2149999999999999,-0.18589024245738983,-0.3747621774673462,0.1459445059299469,0.18602797389030457,-0.0733497366309166,0.08114767074584961,-0.13139808177947998,-0.3649037480354309,0.4531620740890503,0.1314954310655594,-0.15184786915779114,0.40735989809036255,-17.8419246673584,21.26244354248047,8.03890609741211,2.4116711616516113,32.18799591064453,-37.64928436279297,-0.005754578858613968,-0.34681272506713867,0.5000724792480469,0.11249890178442001,-0.07266105711460114,0.42228826880455017
1,82,1.23,-0.09880121052265167,-0.33565014600753784,0.2697010636329651,0.26683834195137024,0.02543882094323635,0.06856654584407806,-0.06983846426010132,-0.3372570872306824,0.5406404137611389,0.18861693143844604,-0.08201836049556732,0.3984668254852295,-37.117881774902344,37.919837951660156,-2.69235897064209,37.92045593261719,41.68369674682617,1.3778629302978516,-0.0005848347209393978,-0.3600032329559326,0.49517127871513367,0.10923498868942261,-0.09431945532560349,0.4264186918735504
1,83,1.2449999999999999,-0.018017658963799477,-0.30083513259887695,0.4189809262752533,0.291601300239563,0.07995223253965378,0.031446151435375214,-0.012735933065414429,-0.3126477897167206,0.6461601257324219,0.2061208188533783,-0.04348510503768921,0.3722279667854309,-4.322475910186768,37.95469284057617,67.22467041015625,7.411763668060303,46.16073226928711,-31.16824722290039,0.009518285281956196,-0.37744778394699097,0.5394971966743469,0.09899996221065521,-0.11725737154483795,0.427347332239151
1,84,1.26,0.08055754005908966,-0.2658642828464508,0.5713444352149963,0.2345990687608719,0.09115375578403473,-0.02005035988986492,0.05694277212023735,-0.28792837262153625,0.7538595199584961,0.16582831740379333,-0.03556722030043602,0.3358272314071655,-8.824131965637207,49.54632568359375,-150.0,24.963638305664062,58.447784423828125,-25.224746704101562,0.011386091820895672,-0.3557235300540924,0.4961152970790863,0.09536632895469666,-0.1322198361158371,0.42695388197898865
1,85,1.275,0.20291723310947418,-0.25956758856773376,0.7085384130477905,0.15172404050827026,0.04399200901389122,-0.07287918031215668,0.14343374967575073,-0.2834774851799011,0.8508362770080566,0.10724741220474243,-0.06890388578176498,0.298484742641449,16.649612426757812,25.423500061035156,98.37496948242188,1.0948370695114136,13.89926528930664,-30.63640022277832,0.029645323753356934,-0.38473373651504517,0.5796616673469543,0.0793403834104538,-0.14232948422431946,0.41287997364997864
1,86,1.29,0.3224499225616455,-0.2527158856391907,0.8215406537055969,0.11390478163957596,-0.04181985184550285,-0.12036266177892685,0.22792643308639526,-0.27863430976867676,0.9307128190994263,0.08051455020904541,-0.1295607089996338,0.2649206519126892,-11.661785125732422,84.09588623046875,-150.0,29.889894485473633,22.07141876220703,0.08156585693359375,0.0478319488465786,-0.3678531348705292,0.5749629735946655,0.06750798970460892,-0.1491243839263916,0.39951038360595703
1,87,1.305,0.42093634605407715,-0.16961117088794708,0.9077512621879578,0.1617175191640854,-0.09947457909584045,-0.16035974025726318,0.29754239320755005,-0.21989105641841888,0.9916515350341797,0.11431138962507248,-0.17031443119049072,0.23664838075637817,9.29188346862793,-50.66615295410156,150.0,17.294078826904297,6.827316761016846,-10.333480834960938,0.07276210188865662,-0.36608827114105225,0.6069952249526978,0.04678506404161453,-0.1633288413286209,0.38489753007888794
1,88,1.3199999999999998,0.5153094530105591,0.0004327367933001369,0.9686300158500671,0.22952762246131897,-0.11231853812932968,-0.18159572780132294,0.3642508089542389,-0.09969411790370941,1.034684181213379,0.1622435301542282,-0.17939329147338867,0.2216375470161438,-0.6157302856445312,102.40550231933594,-150.0,45.1735954284668,29.598491668701172,-15.600963592529297,0.08494984358549118,-0.33094528317451477,0.5856271386146545,0.040923554450273514,-0.17867738008499146,0.38014665246009827
1,89,1.335,0.5992398858070374,0.21162563562393188,1.0,0.19212877750396729,-0.08584729582071304,-0.1823704093694687,0.4235777258872986,0.049589335918426514,1.0624120235443115,0.1358078420162201,-0.16068187355995178,0.22108995914459229,29.58214569091797,-40.94367980957031,150.0,11.670255661010742,29.366741180419922,-36.48540115356445,0.11294230818748474,-0.3017226457595825,0.5961199998855591,0.022679029032588005,-0.1927725225687027,0.3683578073978424
1,90,1.3499999999999999,0.608756422996521,0.4174399673938751,1.0,0.039378948509693146,-0.03239436820149422,-0.17399100959300995,0.4303045868873596,0.19507089257240295,1.0780671834945679,0.027835339307785034,-0.12289822846651077,0.2270130068063736,-9.31231689453125,101.60678100585938,-150.0,32.63882064819336,44.343544006347656,-10.292186737060547,0.13513194024562836,-0.23605725169181824,0.5516577959060669,0.012567270547151566,-0.20446807146072388,0.36018961668014526
1,91,1.365,0.5519519448280334,0.5911670923233032,1.0,-0.1610015481710434,0.016284668818116188,-0.16388435661792755,0.39015185832977295,0.3178713619709015,1.0797439813613892,-0.11380529403686523,-0.08848904818296432,0.23415698111057281,8.473367691040039,-55.5941162109375,150.0,-8.751184463500977,44.64301300048828,-17.226850509643555,0.1545867621898651,-0.17685513198375702,0.5370252132415771,0.0016137195052579045,-0.21860235929489136,0.35268399119377136
1,92,1.38,0.4638276994228363,0.7265025973320007,1.0,-0.34251582622528076,0.06006649136543274,-0.14781907200813293,0.3278605043888092,0.41353434324264526,1.0648250579833984,-0.24211019277572632,-0.05754150450229645,0.24551285803318024,-4.989236831665039,74.41542053222656,-76.69924926757812,-12.316215515136719,65.93545532226562,-18.76074981689453,0.16970114409923553,-0.10545042902231216,0.5370020866394043,-0.00806443765759468,-0.22868913412094116,0.34534451365470886
1,93,1.395,0.2998453974723816,0.8074569702148438,0.9597337245941162,-0.47843557596206665,0.11509507894515991,-0.1306856870651245,0.2119482457637787,0.4707576334476471,1.0283957719802856,-0.33818620443344116,-0.018644094467163086,0.25762373208999634,-10.24477767944336,-36.659568786621094,150.0,-29.975849151611328,61.084716796875,-7.482999801635742,0.18423591554164886,-0.0506022647023201,0.6118777990341187,-0.02360604517161846,-0.23693519830703735,0.33475062251091003
1,94,1.41,0.07838986814022064,0.8166162371635437,0.8300061821937561,-0.5969396233558655,0.17722488939762115,-0.11646924167871475,0.055410534143447876,0.4772319197654724,0.9366967082023621,-0.4219517707824707,0.025272883474826813,0.26767274737358093,-33.53764724731445,64.05937957763672,-150.0,-23.209213256835938,76.85901641845703,5.552312850952148,0.18276748061180115,0.02927435375750065,0.6365235447883606,-0.03376927599310875,-0.2442961037158966,0.3258362412452698
1,95,1.425,-0.10166273266077042,0.7595057487487793,0.5836904644966125,-0.7114086747169495,0.23127667605876923,-0.09289121627807617,-0.0718611553311348,0.43686291575431824,0.7625864148139954,-0.502865195274353,0.06347984075546265,0.2843390703201294,-17.98131561279297,-96.08970642089844,150.0,-47.158782958984375,77.51698303222656,9.752782821655273,0.16779685020446777,0.08514673262834549,0.6977852582931519,-0.04231531545519829,-0.2570567727088928,0.3189898133277893
1,96,1.44,-0.19681905210018158,0.6438151001930237,0.2626379728317261,-0.7998629808425903,0.2791793644428253,-0.05618586018681526,-0.13912320137023926,0.3550860285758972,0.5356478095054626,-0.56538987159729,0.09734024107456207,0.3102845549583435,-7.505058288574219,21.410675048828125,-150.0,-52.24777603149414,108.24120330810547,4.1977996826171875,0.14219386875629425,0.1449047476053238,0.7242087125778198,-0.04902505502104759,-0.267046183347702,0.31176531314849854
1,97,1.4549999999999998,-0.19692100584506989,0.49951067566871643,-0.06650121510028839,-0.8523014783859253,0.3303442895412445,-0.0176482405513525,-0.1391952633857727,0.2530832588672638,0.3029930591583252,-0.6024564504623413,0.13350659608840942,0.3375251889228821,3.0526809692382812,-109.15571594238281,64.00465393066406,-58.81237030029297,99.45429229736328,26.964523315429688,0.11689788848161697,0.18410217761993408,0.7232323884963989,-0.05965038761496544,-0.2738906443119049,0.3062024414539337
1,98,1.47,-0.0899568721652031,0.4023064374923706,-0.3625349998474121,-0.8886478543281555,0.3639020621776581,0.010580681264400482,-0.0635867714881897,0.1843736320734024,0.09373912215232849,-0.6281481981277466,0.15722717344760895,0.3574790358543396,13.078361511230469,-19.77823829650879,-150.0,-53.377628326416016,111.29025268554688,27.61800193786621,0.09503744542598724,0.2191516011953354,0.6449809670448303,-0.07224970310926437,-0.2783859074115753,0.2996280789375305
1,99,1.4849999999999999,0.07290742546319962,0.3965751528739929,-0.604976236820221,-0.9099757671356201,0.33975905179977417,0.02562691457569599,0.0515352264046669,0.18032242357730865,-0.07763247191905975,-0.6432240009307861,0.14016149938106537,0.3681145906448364,21.995025634765625,-89.30482482910156,150.0,-56.70370101928711,98.90821075439453,43.4830322265625,0.07655292004346848,0.21594460308551788,0.6161981225013733,-0.08522901684045792,-0.2776218056678772,0.3109271228313446
1,100,1.5,0.2077338695526123,0.4524744749069214,-0.785700798034668,-0.8995441794395447,0.24400028586387634,0.021212376654148102,0.14683842658996582,0.2198353409767151,-0.20537908375263214,-0.6358503699302673,0.07247362285852432,0.3649941384792328,31.803787231445312,68.30892181396484,-150.0,-41.32292938232422,66.58231353759766,-53.124549865722656,0.0678010880947113,0.22523096203804016,0.5447501540184021,-0.09430822730064392,-0.28770074248313904,0.30665674805641174
1,101,1.515,0.25542017817497253,0.5047467947006226,-0.8975450992584229,-0.8623342514038086,0.09619477391242981,-0.014150846749544144,0.1805458962917328,0.25678446888923645,-0.2844371795654297,-0.6095482110977173,-0.03200393170118332,0.3399973511695862,17.6203670501709,-59.14501953125,150.0,-51.420562744140625,71.60285949707031,27.183197021484375,0.061188675463199615,0.2206394225358963,0.5096496343612671,-0.0992303341627121,-0.2997080981731415,0.31160998344421387
1,102,1.53,0.17790639400482178,0.47573962807655334,-0.9290956854820251,-0.775775671005249,-0.07497432827949524,-0.07349280267953873,0.12575462460517883,0.23628050088882446,-0.3067389726638794,-0.5483635663986206,-0.152996227145195,0.29805099964141846,16.06378173828125,66.84292602539062,-150.0,-44.97228240966797,58.42056655883789,-34.0997314453125,0.05984940752387047,0.23714764416217804,0.4280339777469635,-0.10405445843935013,-0.31377655267715454,0.3087533414363861
1,103,1.545,0.03745720908045769,0.32439127564430237,-0.8960204124450684,-0.646826982498169,-0.2332581877708435,-0.13340984284877777,0.026476942002773285,0.12929865717887878,-0.2833594083786011,-0.4572150707244873,-0.2648804783821106,0.25569814443588257,-2.9498698711395264,-108.2284164428711,150.0,-37.35428237915039,32.30603790283203,-5.878395080566406,0.056560322642326355,0.2247365415096283,0.39527374505996704,-0.10652416199445724,-0.3365943729877472,0.309523344039917
1,104,1.56,-0.04634230211377144,0.08797305822372437,-0.8318387269973755,-0.5636682510375977,-0.3546890318393707,-0.1829817146062851,-0.03275744616985321,-0.03781551867723465,-0.2379920929670334,-0.398433655500412,-0.35071486234664917,0.2206578552722931,-2.719698905944824,37.80476379394531,-150.0,-33.13066864013672,46.942562103271484,-39.54240036010742,0.05415235832333565,0.20349302887916565,0.3872721493244171,-0.11049990355968475,-0.3549858033657074,0.3076173663139343
1,105,1.575,-0.08201544731855392,-0.16753461956977844,-0.7140510678291321,-0.5416463017463684,-0.45219874382019043,-0.24280567467212677,-0.05797330662608147,-0.21842323243618011,-0.15473289787769318,-0.3828672468662262,-0.4196404218673706,0.17837078869342804,-10.499313354492188,-42.73269271850586,-150.0,-30.85699462890625,9.203559875488281,-20.997440338134766,0.039813607931137085,0.1858837604522705,0.3959820568561554,-0.10069109499454498,-0.3714965581893921,0.30667513608932495
1,106,1.5899999999999999,-0.1165747120976448,-0.3762069344520569,-0.5161211490631104,-0.49714720249176025,-0.5333511233329773,-0.3217974305152893,-0.0824018120765686,-0.36592498421669006,-0.014824509620666504,-0.35141268372535706,-0.47700366377830505,0.12253482639789581,7.64369010925293,-84.12101745605469,-145.58428955078125,-45.91014099121094,4.951051712036133,-48.582420349121094,0.03147725760936737,0.16557681560516357,0.4055088758468628,-0.09691490232944489,-0.3854312002658844,0.29662492871284485
1,107,1.605,-0.12676335871219635,-0.4792649447917938,-0.2824084460735321,-0.4080611765384674,-0.5765836834907532,-0.38940611481666565,-0.08960374444723129,-0.43877238035202026,0.15037724375724792,-0.2884414792060852,-0.5075629353523254,0.0747450664639473,-7.729532718658447,-95.0065689086914,-107.66815185546875,-24.841541290283203,-10.263797760009766,-30.568117141723633,0.016707412898540497,0.14507780969142914,0.4115801155567169,-0.0870923101902008,-0.40325379371643066,0.29065266251564026
1,108,1.6199999999999999,-0.13071975111961365,-0.4494769275188446,-0.07604493200778961,-0.3162299692630768,-0.5487461090087891,-0.4103243350982666,-0.09240035712718964,-0.41771647334098816,0.2962470054626465,-0.22352980077266693,-0.4878857433795929,0.05995885282754898,13.012670516967773,-85.5219955444336,-48.060428619384766,-34.176368713378906,15.849193572998047,-60.176719665527344,0.0018979966407641768,0.12169744819402695,0.4213128387928009,-0.07789812982082367,-0.42261558771133423,0.28543779253959656
1,109,1.635,-0.12846727669239044,-0.294036328792572,0.06949326395988464,-0.19511468708515167,-0.4396423399448395,-0.357624351978302,-0.09080817550420761,-0.3078420162200928,0.39912188053131104,-0.13791845738887787,-0.41076481342315674,0.09721027314662933,5.726255416870117,-52.00391387939453,-40.334327697753906,-17.64748764038086,32.55150604248047,-43.69820785522461,-0.005978238768875599,0.10022135078907013,0.4355892539024353,-0.07600315660238266,-0.43653419613838196,0.2750844955444336
1,110,1.65,-0.06341149657964706,-0.0808769017457962,0.14624351263046265,-0.008234087377786636,-0.3122311234474182,-0.2211151421070099,-0.044822946190834045,-0.15716850757598877,0.45337343215942383,-0.005820333957672119,-0.3207031488418579,0.19370292127132416,2.0950889587402344,-18.334125518798828,-39.41686248779297,10.59311294555664,45.62281036376953,8.506439208984375,-0.013897277414798737,0.07849521934986115,0.450865238904953,-0.07424377650022507,-0.4499354660511017,0.2639905512332916
1,111,1.665,0.06478151679039001,0.11207153648138046,0.15454067289829254,0.21380643546581268,-0.25567126274108887,-0.01825633831322193,0.04579136148095131,-0.02078130841255188,0.45923835039138794,0.15113086998462677,-0.28072333335876465,0.33709535002708435,20.874460220336914,19.192014694213867,-35.01476287841797,21.52619743347168,64.56830596923828,43.8081169128418,-0.03424471244215965,0.05687906593084335,0.45694270730018616,-0.0547095350921154,-0.4629569947719574,0.28336015343666077
1,112,1.68,0.21606478095054626,0.2644772231578827,0.09991370141506195,0.4317390024662018,-0.28427574038505554,0.21321985125541687,0.15272720158100128,0.08694791793823242,0.42062482237815857,0.30517834424972534,-0.30094265937805176,0.5007162094116211,58.80628204345703,51.394874572753906,-14.279006958007812,1.1361961364746094,58.02961730957031,-40.79341125488281,-0.04775524139404297,0.036630868911743164,0.4625536799430847,-0.043854087591171265,-0.47737500071525574,0.27715879678726196
1,113,1.6949999999999998,0.35064297914505005,0.333604097366333,0.003977784421294928,0.6229743361473083,-0.35540926456451416,0.4367557764053345,0.24785493314266205,0.13581082224845886,0.352811723947525,0.4403546452522278,-0.35122397541999817,0.6587244272232056,44.03828048706055,59.52979278564453,-54.778526306152344,55.774837493896484,48.38650894165039,148.98904418945312,-0.0755160003900528,0.02008070796728134,0.4543894827365875,-0.012307939119637012,-0.5140697956085205,0.3925688564777374
1,114,1.71,0.4470210373401642,0.29053911566734314,-0.10408277809619904,0.7772294878959656,-0.4309600591659546,0.618979811668396,0.31598058342933655,0.10536998510360718,0.27642822265625,0.5493912100791931,-0.4046276807785034,0.7875310182571411,98.13819122314453,44.67527770996094,-14.743976593017578,-0.7364730834960938,105.21601867675781,-150.0,-0.09040321409702301,0.010096581652760506,0.4467255771160126,0.024029439315199852,-0.4886208474636078,0.4333086609840393
1,115,1.7249999999999999,0.5377246141433716,0.19203606247901917,-0.18852466344833374,0.8925902247428894,-0.45067110657691956,0.7280162572860718,0.38009515404701233,0.03574228286743164,0.21673977375030518,0.6309348940849304,-0.41856059432029724,0.8646042943000793,65.7397689819336,26.720739364624023,-52.69617462158203,32.4508056640625,-97.6841812133789,150.0,-0.1101953461766243,-0.0045364489778876305,0.438414603471756,0.06593266874551773,-0.4815278947353363,0.5119194984436035
1,116,1.74,0.6424759030342102,0.07518544048070908,-0.2184828221797943,0.9722673892974854,-0.35149410367012024,0.7604542970657349,0.45413947105407715,-0.046854548156261444,0.19556359946727753,0.6872553825378418,-0.3484565019607544,0.88753342628479,99.99626159667969,16.96215057373047,-58.49726867675781,11.254119873046875,74.63301086425781,-150.0,-0.11952710151672363,-0.013017015531659126,0.4364902377128601,0.10673952102661133,-0.44786548614501953,0.5469042658805847
1,117,1.755,0.7142510414123535,-0.03354233503341675,-0.19850488007068634,1.0,-0.14813894033432007,0.7391648292541504,0.5048743486404419,-0.12370967864990234,0.20968517661094666,0.7224954962730408,-0.20471324026584625,0.8724848031997681,81.34293365478516,-9.804168701171875,-63.75813293457031,20.88172149658203,-63.45335006713867,150.0,-0.1387222856283188,-0.025071721524000168,0.4305010437965393,0.15959802269935608,-0.43114814162254333,0.6178204417228699
1,118,1.77,0.7005676031112671,-0.08377362042665482,-0.16329389810562134,1.0,0.0979524776339531,0.6685905456542969,0.49520209431648254,-0.15921607613563538,0.2345743477344513,0.7414360046386719,-0.0307614803314209,0.8225987553596497,110.60430908203125,-4.646783828735352,-43.881473541259766,-9.611465454101562,106.384033203125,-150.0,-0.14634597301483154,-0.03457844629883766,0.4313344359397888,0.20438000559806824,-0.3771657943725586,0.6364019513130188
1,119,1.785,0.639241099357605,-0.06369119137525558,-0.13581043481826782,1.0,0.33257538080215454,0.5342816710472107,0.451852947473526,-0.14502064883708954,0.254001259803772,0.721641480922699,0.13508367538452148,0.7276614308357239,76.00672912597656,-11.009414672851562,-55.452476501464844,8.788375854492188,-49.412254333496094,150.0,-0.1582832634449005,-0.04932823404669762,0.43198713660240173,0.2510773539543152,-0.32886171340942383,0.6824771761894226
1,120,1.7999999999999998,0.5694083571434021,0.0040409741923213005,-0.1164063811302185,0.9084469676017761,0.5086212158203125,0.3346143364906311,0.40249109268188477,-0.09714360535144806,0.267717182636261,0.6421433687210083,0.2595231235027313,0.5865249037742615,89.38065338134766,23.43382453918457,-55.11805725097656,-19.217147827148438,90.3333511352539,-150.0,-0.16388818621635437,-0.062092602252960205,0.43507182598114014,0.2868950366973877,-0.25272271037101746,0.6771118640899658
1,121,1.815,0.48543983697891235,0.0669441744685173,-0.10550126433372498,0.7800766825675964,0.5889497995376587,0.08386144787073135,0.3431372344493866,-0.05267995595932007,0.2754255533218384,0.5514037609100342,0.3163040578365326,0.40927815437316895,66.18186950683594,19.237125396728516,-52.62773132324219,-9.190271377563477,-62.153968811035156,150.0,-0.1720878779888153,-0.07737429440021515,0.43719327449798584,0.31576743721961975,-0.1882554143667221,0.7010653018951416
1,122,1.8299999999999998,0.435465544462204,0.061653200536966324,-0.08964746445417404,0.7120992541313171,0.5586390495300293,-0.1840948611497879,0.30781248211860657,-0.05641992762684822,0.2866319417953491,0.5033533573150635,0.29487866163253784,0.21987101435661316,69.85552215576172,40.36244583129883,-60.38578414916992,-11.105035781860352,40.77501678466797,-150.0,-0.17346447706222534,-0.09242694079875946,0.44145673513412476,0.3312900960445404,-0.11113549023866653,0.6814808249473572
1,123,1.845,0.44394561648368835,-0.01960950717329979,-0.05445752665400505,0.6843527555465698,0.4440728425979614,-0.4322873651981354,0.3138066828250885,-0.11386114358901978,0.3115062415599823,0.48374050855636597,0.21389657258987427,0.044434115290641785,58.757328033447266,19.706756591796875,-48.842430114746094,1.8318862915039062,-98.87118530273438,134.46994018554688,-0.18138328194618225,-0.11059970408678055,0.44284504652023315,0.3487866520881653,-0.0664059966802597,0.6911391615867615
1,124,1.8599999999999999,0.47897204756736755,-0.13980823755264282,-0.010510777123272419,0.6540549397468567,0.31346726417541504,-0.6412217020988464,0.3385654091835022,-0.19882461428642273,0.34257036447525024,0.46232423186302185,0.12157692015171051,-0.10325287282466888,76.62676239013672,16.3248291015625,-43.0125846862793,-9.824030876159668,21.09485626220703,-150.0,-0.18257111310958862,-0.1277332454919815,0.4493121802806854,0.35578951239585876,-0.02013382501900196,0.6581827402114868
1,125,1.875,0.5188590884208679,-0.2595125138759613,0.032252367585897446,0.6023235321044922,0.24253274500370026,-0.8038312792778015,0.36675989627838135,-0.2834385633468628,0.3727978467941284,0.42575743794441223,0.07143628597259521,-0.21819479763507843,63.1987419128418,-5.583625793457031,-45.52777099609375,5.24029016494751,-95.71154022216797,94.65499877929688,-0.18024449050426483,-0.15256325900554657,0.46136578917503357,0.3570763170719147,0.0011002670507878065,0.6244609951972961
1,126,1.89,0.5322905778884888,-0.3510667383670807,0.07893650233745575,0.4953899681568146,0.262769490480423,-0.9202431440353394,0.3762540817260742,-0.3481544256210327,0.40579691529273987,0.3501705527305603,0.08574078977108002,-0.30048149824142456,64.04047393798828,8.773063659667969,-61.713985443115234,-0.6473088264465332,33.8341064453125,-150.0,-0.17384588718414307,-0.1761462688446045,0.4765392243862152,0.35415560007095337,0.03143124282360077,0.5225543975830078
1,127,1.905,0.45511266589164734,-0.4277549386024475,0.12999339401721954,0.3255499601364136,0.3528050184249878,-0.9956802129745483,0.32170021533966064,-0.4023621082305908,0.44188690185546875,0.23011772334575653,0.14938315749168396,-0.3538047969341278,50.377708435058594,-12.677009582519531,-51.684242248535156,-10.92320442199707,-71.53959655761719,150.0,-0.16971151530742645,-0.20373491942882538,0.49297910928726196,0.35020461678504944,0.037547893822193146,0.46740594506263733
1,128,1.92,0.29550281167030334,-0.5198168754577637,0.17360824346542358,0.12334268540143967,0.4384908974170685,-1.0,0.20887863636016846,-0.46743685007095337,0.47271642088890076,0.0871858149766922,0.20995090901851654,-0.3785451054573059,42.03781509399414,0.5444755554199219,-58.653907775878906,-23.43821907043457,86.08258056640625,-150.0,-0.1626048982143402,-0.23163987696170807,0.5103441476821899,0.33651551604270935,0.06375487893819809,0.3647042214870453
1,129,1.9349999999999998,0.12752774357795715,-0.6253378391265869,0.2038882076740265,-0.07668984681367874,0.4296998083591461,-1.0,0.09014405310153961,-0.5420252084732056,0.4941200613975525,-0.05420885980129242,0.20373685657978058,-0.3781109154224396,20.932905197143555,-21.879562377929688,-47.94358825683594,-25.857303619384766,-73.63488006591797,150.0,-0.14992646872997284,-0.2589567005634308,0.5283569097518921,0.3236120939254761,0.0028283463325351477,0.45208749175071716
1,130,1.95,0.007712832652032375,-0.7162145376205444,0.21399545669555664,-0.21265284717082977,0.3035581111907959,-1.0,0.005451880395412445,-0.60626220703125,0.5012644529342651,-0.15031544864177704,0.11457256227731705,-0.36921870708465576,4.533605575561523,-18.16415786743164,-57.60569381713867,-39.51854705810547,150.0,-150.0,-0.13476842641830444,-0.2827642560005188,0.5445204377174377,0.29915302991867065,-0.03298935294151306,0.4970793128013611
1,131,1.9649999999999999,-0.038305193185806274,-0.761826753616333,0.18539901077747345,-0.22568419575691223,0.12790974974632263,-1.0,-0.027076348662376404,-0.6385035514831543,0.4810508191585541,-0.1595267653465271,-0.009585939347743988,-0.3600781559944153,-8.294306755065918,-41.31848907470703,-54.87133026123047,-15.909675598144531,-13.738182067871094,-53.990509033203125,-0.12415537983179092,-0.3048803508281708,0.5557769536972046,0.28205230832099915,-0.040467746555805206,0.4477154016494751
1,132,1.98,-0.06388933956623077,-0.7653393149375916,0.12395714968442917,-0.1409095823764801,-0.016481753438711166,-0.9671613574028015,-0.04516071826219559,-0.640986442565918,0.4376201331615448,-0.09960312396287918,-0.1116502657532692,-0.3336460292339325,-2.078052520751953,-31.39138412475586,-55.72075653076172,-40.30003356933594,72.4379653930664,-150.0,-0.11191732436418533,-0.3207288980484009,0.5615366101264954,0.2722894251346588,-0.06790884584188461,0.4639173746109009
1,133,1.9949999999999999,-0.10601197928190231,-0.7568150758743286,0.0551033578813076,-0.07204960286617279,-0.13101987540721893,-0.8701521754264832,-0.07493545860052109,-0.6349610090255737,0.38895025849342346,-0.05092886835336685,-0.19261248409748077,-0.2650742828845978,-13.688800811767578,-49.20384216308594,-54.984134674072266,-23.7939453125,16.739606857299805,-150.0,-0.09646202623844147,-0.33265671133995056,0.5626181364059448,0.2581445872783661,-0.08720909059047699,0.4703899919986725
1,134,2.01,-0.11469309777021408,-0.7328407764434814,0.007669797167181969,-0.08893628418445587,-0.2448667287826538,-0.7075889706611633,-0.08107177913188934,-0.6180145740509033,0.3554214537143707,-0.06286536157131195,-0.2730860710144043,-0.1501651257276535,-18.22576141357422,-44.75619888305664,-53.55278015136719,-19.245885848999023,-8.936822891235352,-150.0,-0.08560661226511002,-0.34091249108314514,0.556545078754425,0.24793757498264313,-0.10243094712495804,0.47348248958587646
1,135,2.025,-0.05531604215502739,-0.6700055599212646,0.0075059570372104645,-0.14277921617031097,-0.333638072013855,-0.508734405040741,-0.039100609719753265,-0.5735989809036255,0.35530564188957214,-0.10092468559741974,-0.3358348309993744,-0.009603127837181091,-6.921181678771973,-41.637454986572266,-34.87388229370117,-30.7987060546875,-24.261205673217773,-150.0,-0.07407538592815399,-0.3474886119365692,0.5484849214553833,0.23625078797340393,-0.11263151466846466,0.47160258889198303
1,136,2.04,0.054646383970975876,-0.5794905424118042,0.06408695131540298,-0.1456802785396576,-0.358928918838501,-0.314525842666626,0.0386272557079792,-0.5096176862716675,0.39530038833618164,-0.10297533124685287,-0.353711873292923,0.12767478823661804,-0.15714359283447266,-25.436965942382812,-18.079723358154297,-26.163509368896484,-35.28409194946289,-102.13986206054688,-0.06773846596479416,-0.35278061032295227,0.5369110703468323,0.23026666045188904,-0.12525790929794312,0.47224122285842896
1,137,2.0549999999999997,0.17734995484352112,-0.4968445301055908,0.1777578443288803,-0.06664878875017166,-0.30793818831443787,-0.16516102850437164,0.12536130845546722,-0.45119866728782654,0.4756495952606201,-0.047111257910728455,-0.3176686465740204,0.2332545518875122,18.613805770874023,-16.754135131835938,16.126182556152344,-30.52401351928711,-15.042364120483398,-81.12303924560547,-0.060130201280117035,-0.36329710483551025,0.5404838919639587,0.22560840845108032,-0.13846206665039062,0.47532665729522705
1,138,2.07,0.2679451107978821,-0.43326500058174133,0.33157119154930115,0.035235244780778885,-0.191003680229187,-0.07845607399940491,0.18939925730228424,-0.40625694394111633,0.5843738317489624,0.024906329810619354,-0.23501253128051758,0.29454267024993896,18.28367042541504,17.17603302001953,-26.07972526550293,-17.869333267211914,2.4987258911132812,-67.62490844726562,-0.04391434043645859,-0.36941447854042053,0.5278871655464172,0.21789808571338654,-0.15151286125183105,0.4771142303943634
1,139,2.085,0.3029050827026367,-0.3596022129058838,0.4963363707065582,0.1278955489397049,-0.0640290156006813,-0.038483019918203354,0.21411100029945374,-0.3541877865791321,0.7008394598960876,0.09040404111146927,-0.14525943994522095,0.322797954082489,4.439502716064453,0.09502649307250977,135.14556884765625,-4.89415168762207,26.742891311645508,-51.640907287597656,-0.02618987485766411,-0.38877421617507935,0.6118962168693542,0.20936134457588196,-0.1648690104484558,0.47969892621040344
1,140,2.1,0.315661758184433,-0.26175257563591003,0.6364399790763855,0.21478857100009918,-0.009439101442694664,-0.023317888379096985,0.22312815487384796,-0.28502196073532104,0.799872875213623,0.15182510018348694,-0.10667210817337036,0.33351755142211914,10.29640007019043,82.67779541015625,-150.0,3.415980815887451,40.7387809753418,-58.99677276611328,-0.008472691290080547,-0.3729945421218872,0.6323439478874207,0.20438814163208008,-0.17498861253261566,0.48006880283355713
1,141,2.1149999999999998,0.33705440163612366,-0.1463606059551239,0.7240663766860962,0.22583641111850739,-0.06459174305200577,-0.00852260086685419,0.238249734044075,-0.20345620810985565,0.8618123531341553,0.15963436663150787,-0.14565721154212952,0.3439757227897644,2.8437252044677734,-47.663333892822266,150.0,-0.7746682167053223,23.79216766357422,-35.719688415527344,0.005126644391566515,-0.36062049865722656,0.6832888126373291,0.20234329998493195,-0.18700523674488068,0.4825747013092041
1,142,2.13,0.35047245025634766,0.004252183251082897,0.7621400952339172,0.11556655913591385,-0.19980564713478088,0.024058416485786438,0.24773439764976501,-0.0969943106174469,0.8887250423431396,0.08168919384479523,-0.24123427271842957,0.3670058846473694,17.328048706054688,80.86140441894531,-150.0,-13.316723823547363,15.021889686584473,-53.694419860839844,0.026248613372445107,-0.3279734253883362,0.6898289918899536,0.19692769646644592,-0.19635425508022308,0.4820898473262787
1,143,2.145,0.3172822594642639,0.19465471804141998,0.7683224678039551,-0.07347065210342407,-0.3284120261669159,0.06680089980363846,0.22427363693714142,0.0375932976603508,0.893095076084137,-0.051933348178863525,-0.3321407437324524,0.3972187638282776,-12.061256408691406,-31.30925750732422,150.0,-21.91899871826172,-13.466971397399902,-17.008817672729492,0.039763931185007095,-0.2967188060283661,0.7239438891410828,0.19738002121448517,-0.2122182846069336,0.48843324184417725
1,144,2.16,0.2519848644733429,0.3961525857448578,0.7519386410713196,-0.287671834230423,-0.35729098320007324,0.10999603569507599,0.17811761796474457,0.18002372980117798,0.8815140724182129,-0.2033432573080063,-0.3525540828704834,0.4277516007423401,9.413833618164062,87.10232543945312,-150.0,-53.47840118408203,4.8759002685546875,-51.72538757324219,0.055273186415433884,-0.23807752132415771,0.7107643485069275,0.19738651812076569,-0.2287246435880661,0.49505293369293213
1,145,2.175,0.20126180350780487,0.5699805617332458,0.7083937525749207,-0.4927718937397003,-0.27468857169151306,0.15856504440307617,0.14226359128952026,0.3028954863548279,0.8507339954376221,-0.348319947719574,-0.29416587948799133,0.46208301186561584,-16.69898223876953,-38.94969177246094,150.0,-63.75358581542969,15.267049789428711,-20.92746353149414,0.0692785307765007,-0.18395276367664337,0.726753830909729,0.19354435801506042,-0.2467683106660843,0.5017792582511902
1,146,2.19,0.11467485129833221,0.6860034465789795,0.6188153028488159,-0.6696741580963135,-0.1431334912776947,0.2136114537715912,0.08105888217687607,0.38490721583366394,0.7874147295951843,-0.47336480021476746,-0.20117509365081787,0.500993013381958,-10.526944160461426,72.03634643554688,-150.0,-74.70596313476562,43.76881790161133,-27.596847534179688,0.08200421929359436,-0.10679380595684052,0.6981576681137085,0.18530389666557312,-0.2606383264064789,0.5054200291633606
1,147,2.205,-0.04969733953475952,0.7379545569419861,0.4648175537586212,-0.7953556776046753,-0.0271616093814373,0.266404926776886,-0.03512898087501526,0.42162925004959106,0.6785601377487183,-0.5622038245201111,-0.11919941008090973,0.5383105278015137,-34.470191955566406,-65.87641143798828,150.0,-75.1793212890625,52.98321533203125,9.348052978515625,0.08940274268388748,-0.04579945653676987,0.7052775025367737,0.16555599868297577,-0.2739008069038391,0.5087769031524658
1,148,2.2199999999999998,-0.25207141041755676,0.7319486737251282,0.2564571499824524,-0.8419051766395569,0.04963647574186325,0.30459514260292053,-0.1781788021326065,0.41738396883010864,0.5312788486480713,-0.5951077342033386,-0.0649140477180481,0.5653055906295776,-30.406984329223633,46.623207092285156,-150.0,-63.72182846069336,69.94969940185547,-5.00321102142334,0.07560042291879654,0.02460678108036518,0.6716793775558472,0.1566690057516098,-0.29025888442993164,0.5139787197113037
1,149,2.235,-0.4240611493587494,0.6721609234809875,0.019569041207432747,-0.7856301665306091,0.096530482172966,0.32450202107429504,-0.2997511923313141,0.3751225173473358,0.3638325333595276,-0.5553292632102966,-0.031766630709171295,0.5793769359588623,-14.081684112548828,-83.02912139892578,150.0,-81.9722900390625,88.91867065429688,0.27099037170410156,0.051892027258872986,0.07023061811923981,0.6780788898468018,0.1484592705965042,-0.30785849690437317,0.5185848474502563
1,150,2.25,-0.47319573163986206,0.5689017176628113,-0.22489656507968903,-0.6642969250679016,0.12479863315820694,0.3375733196735382,-0.3344823718070984,0.30213290452957153,0.19102999567985535,-0.46956387162208557,-0.011785052716732025,0.5886164903640747,-9.837894439697266,28.68784523010254,-150.0,-61.736549377441406,97.14324951171875,0.22943115234375,0.01590702123939991,0.12110762298107147,0.647480309009552,0.14525547623634338,-0.32280072569847107,0.524013102054596
1,151,2.265,-0.3634457290172577,0.4627462923526764,-0.4510059654712677,-0.5844510793685913,0.14401443302631378,0.34642019867897034,-0.256904661655426,0.2270960509777069,0.031202703714370728,-0.413124144077301,0.0017977859824895859,0.5948699712753296,22.013545989990234,-97.40922546386719,150.0,-68.51399230957031,97.78706359863281,-0.36383628845214844,-0.015638573095202446,0.13927608728408813,0.6620593667030334,0.1388697624206543,-0.3403231203556061,0.5274630784988403
1,152,2.28,-0.1579045206308365,0.402386337518692,-0.6390594840049744,-0.5838964581489563,0.1528518944978714,0.34619730710983276,-0.11161613464355469,0.18443012237548828,-0.10172446072101593,-0.4127320945262909,0.008044620975852013,0.5947124361991882,28.588897705078125,39.940345764160156,-150.0,-56.97285079956055,113.29093933105469,3.157576560974121,-0.040811937302351,0.16315507888793945,0.6404908299446106,0.13234521448612213,-0.3533673882484436,0.5290461778640747
1,153,2.295,0.061385877430438995,0.4082771837711334,-0.7776830792427063,-0.6299411058425903,0.14204905927181244,0.3363560438156128,0.04339112341403961,0.18859410285949707,-0.19971168041229248,-0.44527918100357056,0.000408554682508111,0.5877560377120972,38.32414245605469,-72.8487777709961,82.03144836425781,-63.40676498413086,98.60509490966797,13.502021789550781,-0.04610102251172066,0.17491514980793,0.603729248046875,0.1172516942024231,-0.366292268037796,0.5255087614059448
1,154,2.31,0.21065030992031097,0.4420534670352936,-0.8445501327514648,-0.6769447922706604,0.10216133296489716,0.3139912188053131,0.14889994263648987,0.2124691605567932,-0.24697726964950562,-0.47850412130355835,-0.027786418795585632,0.5719472765922546,23.53960609436035,30.648406982421875,-150.0,-50.06317138671875,103.02413940429688,19.70476722717285,-0.045023635029792786,0.20325759053230286,0.4876128137111664,0.10271339863538742,-0.3744658827781677,0.5242455005645752
1,155,2.3249999999999997,0.21030941605567932,0.418865442276001,-0.8335481286048889,-0.6713833212852478,0.010187807492911816,0.278848797082901,0.14865897595882416,0.19607850909233093,-0.2392003834247589,-0.47457292675971985,-0.09279866516590118,0.5471065640449524,20.05158805847168,-88.43022918701172,150.0,-55.225101470947266,77.95500183105469,11.644320487976074,-0.029756534844636917,0.20203572511672974,0.42822903394699097,0.08130210638046265,-0.38944393396377563,0.5169470310211182
1,156,2.34,0.075233593583107,0.2939237654209137,-0.7592860460281372,-0.5905588865280151,-0.14277389645576477,0.22661004960536957,0.05317949503660202,0.10776244103908539,-0.18670763075351715,-0.4174415171146393,-0.20092090964317322,0.510181188583374,-14.374993324279785,45.397003173828125,-150.0,-28.187437057495117,75.48716735839844,18.932540893554688,-0.027412012219429016,0.19886991381645203,0.38030385971069336,0.0725298821926117,-0.4069947600364685,0.5170654654502869
1,157,2.355,-0.10324742645025253,0.08693277835845947,-0.6090946197509766,-0.4270777404308319,-0.3264223337173462,0.1372344046831131,-0.07298131287097931,-0.03855084627866745,-0.08054357767105103,-0.3018834888935089,-0.3307343125343323,0.4470052719116211,3.558342456817627,6.0746612548828125,-150.0,-48.05298614501953,35.592315673828125,-27.722187042236328,-0.02987109124660492,0.1768849790096283,0.3907886743545532,0.07158321887254715,-0.42383235692977905,0.5079769492149353
1,158,2.37,-0.220475435256958,-0.144257053732872,-0.378242164850235,-0.22413213551044464,-0.48005056381225586,0.007551660295575857,-0.15584491193294525,-0.20196929574012756,0.08263639360666275,-0.15842968225479126,-0.4393277168273926,0.3553379476070404,-13.511777877807617,-42.70691680908203,-116.36766052246094,-22.972169876098633,21.50040054321289,-7.3794403076171875,-0.030789660289883614,0.16040660440921783,0.3950556218624115,0.06767375767230988,-0.4355625808238983,0.4925948679447174
1,159,2.385,-0.2630917429924011,-0.32668179273605347,-0.11622790992259979,-0.09627935290336609,-0.5403380990028381,-0.12980400025844574,-0.18596860766410828,-0.33091771602630615,0.2678433358669281,-0.06805586814880371,-0.48194244503974915,0.2582469582557678,-19.410892486572266,-74.32792663574219,-54.57881164550781,-10.612634658813477,6.026865005493164,-23.613494873046875,-0.023485654965043068,0.13495251536369324,0.40504029393196106,0.05683271214365959,-0.45046401023864746,0.4737710952758789
1,160,2.4,-0.26828694343566895,-0.3900802433490753,0.11176951974630356,-0.06785178929567337,-0.4841143786907196,-0.23465870320796967,-0.18964087963104248,-0.3757314383983612,0.4290052056312561,-0.047961607575416565,-0.442200243473053,0.18412955105304718,-34.549400329589844,-66.37051391601562,-30.258853912353516,8.622056007385254,24.142057418823242,-28.30712890625,-0.024167075753211975,0.10532837361097336,0.42170536518096924,0.05037285014986992,-0.4650656580924988,0.45967942476272583
1,161,2.415,-0.22255225479602814,-0.3049555718898773,0.26097652316093445,-0.03405124321579933,-0.3617909848690033,-0.2797556519508362,-0.15731292963027954,-0.31556037068367004,0.5344734191894531,-0.0240694060921669,-0.3557349443435669,0.1522524058818817,-8.93022346496582,-26.008556365966797,-21.275074005126953,-6.058253288269043,52.767948150634766,-60.467037200927734,-0.012060162611305714,0.06996364146471024,0.4456998109817505,0.03282296285033226,-0.47537410259246826,0.4381089210510254
1,162,2.4299999999999997,-0.16618365049362183,-0.12012696266174316,0.3214265704154968,0.07135152071714401,-0.2646556794643402,-0.2475382685661316,-0.11746831238269806,-0.18491274118423462,0.5772030353546143,0.050435423851013184,-0.2870740592479706,0.17502552270889282,-40.7041130065918,0.10096359252929688,-27.744556427001953,36.70322036743164,51.656707763671875,-4.9102325439453125,-0.0010628649033606052,0.046444714069366455,0.4610210061073303,0.01719888485968113,-0.4832312762737274,0.41601046919822693
1,163,2.445,-0.1353425532579422,0.0822654515504837,0.313436359167099,0.21911102533340454,-0.24115894734859467,-0.1334725320339203,-0.0956680178642273,-0.04184998571872711,0.5715550780296326,0.15488046407699585,-0.2704651951789856,0.25565382838249207,-22.807331085205078,24.02965545654297,-3.0532684326171875,30.94886016845703,64.86753845214844,5.1918792724609375,0.006048104260116816,0.026634689420461655,0.47060978412628174,0.00584373576566577,-0.4923543930053711,0.3954821825027466
1,164,2.46,-0.08231311291456223,0.2417973279953003,0.26123785972595215,0.35552990436553955,-0.29572343826293945,0.043462857604026794,-0.058183714747428894,0.07091643661260605,0.5346581339836121,0.2513093054294586,-0.3090345561504364,0.3807220757007599,-14.083369255065918,36.79882049560547,0.8432273864746094,44.234649658203125,56.385650634765625,49.06151580810547,0.002755691995844245,0.020032478496432304,0.4719127416610718,0.011740551330149174,-0.49473249912261963,0.40924620628356934
1,165,2.475,0.04014992713928223,0.33406415581703186,0.18135882914066315,0.46951058506965637,-0.3988264501094818,0.2503803074359894,0.028380312025547028,0.1361360251903534,0.4781949818134308,0.3318774998188019,-0.38191378116607666,0.526983380317688,11.398624420166016,36.06363296508789,3.228578567504883,15.768678665161133,22.901283264160156,-63.58671569824219,0.010559233836829662,0.015057849697768688,0.4731259346008301,0.01469493005424738,-0.4870932400226593,0.39366236329078674
1,166,2.4899999999999998,0.21899065375328064,0.3515699803829193,0.08622545748949051,0.5822212100028992,-0.4779341518878937,0.45536112785339355,0.15479537844657898,0.14851014316082,0.410949170589447,0.4115479588508606,-0.43783169984817505,0.6718757748603821,-2.064056396484375,30.13178062438965,-12.823856353759766,72.497314453125,32.51930236816406,141.00448608398438,0.010312284342944622,0.005900311749428511,0.4733811318874359,0.028698349371552467,-0.5153948068618774,0.4941857159137726
1,167,2.505,0.41099071502685547,0.29246553778648376,-0.010653283447027206,0.6916080713272095,-0.4824112057685852,0.6141976714134216,0.29051223397254944,0.10673167556524277,0.34246963262557983,0.48886895179748535,-0.44099634885787964,0.7841507196426392,39.325931549072266,68.31070709228516,-65.80645751953125,12.36337661743164,83.7826919555664,-150.0,0.01885632611811161,-0.013447166420519352,0.48130878806114197,0.05444514378905296,-0.4929156005382538,0.5240700244903564
1,168,2.52,0.5739710927009583,0.17596295475959778,-0.07367072254419327,0.7835318446159363,-0.4023118019104004,0.6857036352157593,0.40571630001068115,0.024380870163440704,0.2979252338409424,0.5538460612297058,-0.3843774199485779,0.8346952795982361,26.734312057495117,38.77518081665039,-76.79975128173828,29.790218353271484,-81.14430236816406,150.0,0.023439472541213036,-0.033141128718853,0.48588573932647705,0.08503521233797073,-0.4840412735939026,0.5892062783241272
1,169,2.5349999999999997,0.6567932963371277,0.052527058869600296,-0.07223233580589294,0.8231923580169678,-0.22919751703739166,0.6767221093177795,0.4642598628997803,-0.0628708153963089,0.298941969871521,0.5818804502487183,-0.2620101571083069,0.8283466100692749,51.40827560424805,35.357391357421875,-77.60442352294922,14.14450454711914,89.2987289428711,-150.0,0.034232236444950104,-0.05192779749631882,0.4909546971321106,0.11749051511287689,-0.4503234624862671,0.605828046798706
1,170,2.55,0.619818389415741,-0.014140021055936813,-0.026847537606954575,0.7484976053237915,0.009387221187353134,0.6178656220436096,0.43812382221221924,-0.10999499261379242,0.33102259039878845,0.5290818214416504,-0.09336456656455994,0.7867434024810791,30.968948364257812,17.646705627441406,-57.046478271484375,4.6931610107421875,-43.35601043701172,150.0,0.040981847792863846,-0.06984640657901764,0.4928496181964874,0.15227454900741577,-0.41722798347473145,0.6509642601013184
1,171,2.565,0.4891078770160675,-0.0076304287649691105,0.02324882708489895,0.5771838426589966,0.25406119227409363,0.5181021690368652,0.3457300066947937,-0.10539363324642181,0.36643362045288086,0.40798723697662354,0.0795852541923523,0.7162247896194458,30.34508514404297,28.93334197998047,-50.3592643737793,-14.871826171875,90.0386734008789,-150.0,0.05517891049385071,-0.08405128121376038,0.49686819314956665,0.1749287098646164,-0.35335129499435425,0.6439480185508728
1,172,2.58,0.3178393840789795,0.018238557502627373,0.06485994905233383,0.4153457581996918,0.45158013701438904,0.3660207986831665,0.22466742992401123,-0.08710792660713196,0.39584678411483765,0.29359063506126404,0.2192031592130661,0.60872483253479,-1.3400554656982422,20.005462646484375,-38.3153190612793,-9.16132640838623,-40.89087677001953,150.0,0.06451365351676941,-0.0976230651140213,0.4991104304790497,0.19207049906253815,-0.2955320179462433,0.6649691462516785
1,173,2.5949999999999998,0.11449691653251648,0.022510651499032974,0.10068277269601822,0.30358490347862244,0.5463113784790039,0.15895551443099976,0.0809331089258194,-0.08408816158771515,0.4211684465408325,0.21459154784679413,0.2861647307872772,0.4623590111732483,-7.4278130531311035,32.054229736328125,-36.74946594238281,-17.372596740722656,68.29010009765625,-150.0,0.07293075323104858,-0.11000804603099823,0.4999465346336365,0.20498836040496826,-0.21556724607944489,0.6397474408149719
1,174,2.61,-0.09680651873350143,0.020512176677584648,0.12374444305896759,0.23278874158859253,0.5087423324584961,-0.08313529938459396,-0.06842850148677826,-0.0855007991194725,0.4374697804450989,0.16454868018627167,0.25960874557495117,0.2912351191043854,-28.112407684326172,25.943023681640625,-16.410079956054688,-20.1851806640625,-82.2927017211914,150.0,0.07151412963867188,-0.12322492897510529,0.49792519211769104,0.21668417751789093,-0.16028384864330292,0.6541546583175659
1,175,2.625,-0.2496887445449829,0.03094402700662613,0.12984785437583923,0.2282920777797699,0.3795672655105591,-0.3273976445198059,-0.17649458348751068,-0.07812695950269699,0.4417840242385864,0.1613701730966568,0.16830025613307953,0.11857625842094421,-25.151203155517578,37.28327560424805,-20.533578872680664,-17.194438934326172,34.289676666259766,-150.0,0.08326133340597153,-0.138748437166214,0.505346953868866,0.2065669596195221,-0.0991269126534462,0.6294758915901184
1,176,2.6399999999999997,-0.2906627655029297,0.059853728860616684,0.13374966382980347,0.23619110882282257,0.24869193136692047,-0.5457141399383545,-0.2054574191570282,-0.057691898196935654,0.4445420503616333,0.1669536679983139,0.07578994333744049,-0.035742565989494324,-59.367733001708984,45.333457946777344,-46.85596466064453,19.94722557067871,-106.031005859375,142.18975830078125,0.08850254118442535,-0.15589457750320435,0.5113076567649841,0.20164333283901215,-0.06976737082004547,0.6453434228897095
1,177,2.655,-0.26368457078933716,0.08089203387498856,0.14836567640304565,0.16494759917259216,0.19443731009960175,-0.7244735360145569,-0.18638765811920166,-0.04282079637050629,0.4548735022544861,0.1165945902466774,0.03743962198495865,-0.16210013628005981,-34.764522552490234,58.384429931640625,-39.291751861572266,-9.29238510131836,33.71977996826172,-150.0,0.09500271081924438,-0.16828888654708862,0.5171086192131042,0.19465133547782898,-0.03688637167215347,0.6241647601127625
1,178,2.67,-0.27146995067596436,0.044524289667606354,0.1700325608253479,0.061841655522584915,0.23840704560279846,-0.8600953817367554,-0.19189080595970154,-0.06852763891220093,0.4701889157295227,0.043713293969631195,0.06851998716592789,-0.2579655349254608,-47.39547348022461,42.06955337524414,-34.006858825683594,-3.403571128845215,-71.70793151855469,68.01808166503906,0.10044437646865845,-0.182387113571167,0.5222305059432983,0.1851194202899933,-0.01506432332098484,0.5755082964897156
1,179,2.685,-0.31828856468200684,-0.05541572347283363,0.19910120964050293,0.028898337855935097,0.3490849435329437,-0.9451630115509033,-0.22498494386672974,-0.1391710638999939,0.49073633551597595,0.020427033305168152,0.14675356447696686,-0.3180963397026062,-44.280921936035156,37.277530670166016,-29.61160659790039,-6.475486755371094,34.451541900634766,-150.0,0.10872093588113785,-0.19845592975616455,0.5281100869178772,0.17090271413326263,0.022956764325499535,0.4413318932056427
1,180,2.6999999999999997,-0.3630790114402771,-0.18315276503562927,0.24564486742019653,0.07680286467075348,0.46366894245147705,-0.9809574484825134,-0.25664544105529785,-0.22946304082870483,0.5236361026763916,0.054288752377033234,0.22774823009967804,-0.3433978855609894,-59.03499221801758,25.710453033447266,-22.688350677490234,9.499175071716309,-54.40200424194336,150.0,0.11162222921848297,-0.21745994687080383,0.5338512063026428,0.16169415414333344,0.036055926233530045,0.3773784637451172
1,181,2.715,-0.41014352440834045,-0.28610488772392273,0.2993743419647217,0.12432482093572617,0.48914456367492676,-0.9756300449371338,-0.2899133861064911,-0.30223560333251953,0.5616152286529541,0.08788004517555237,0.2457558810710907,-0.33963215351104736,-48.5877685546875,19.0556640625,-13.660331726074219,0.4695301055908203,72.89115142822266,-150.0,0.1103816106915474,-0.23747174441814423,0.539397120475769,0.15719585120677948,0.07206785678863525,0.2663380801677704
1,182,2.73,-0.45500439405441284,-0.3240679204463959,0.33797451853752136,0.08839880675077438,0.3786526620388031,-0.9385478496551514,-0.32162368297576904,-0.3290700912475586,0.588900089263916,0.06248543784022331,0.16765375435352325,-0.31342029571533203,-54.66712951660156,19.446992874145508,-4.211539268493652,-4.407357692718506,-91.03014373779297,150.0,0.10625754296779633,-0.2584589719772339,0.5467615127563477,0.15866313874721527,0.03408670797944069,0.3092508912086487
1,183,2.745,-0.507696270942688,-0.3260248303413391,0.3498363792896271,0.005264462903141975,0.17849145829677582,-0.9052961468696594,-0.35886937379837036,-0.3304533362388611,0.597284734249115,0.0037212297320365906,0.02616816759109497,-0.28991609811782837,-46.15596008300781,23.59046173095703,-8.543924331665039,-23.81871795654297,150.0,-150.0,0.10034027695655823,-0.27417102456092834,0.5552580952644348,0.15539196133613586,0.013105833902955055,0.3417928218841553
1,184,2.76,-0.5362913012504578,-0.3496484160423279,0.32643893361091614,-0.03946869820356369,-0.016072649508714676,-0.8963338136672974,-0.3790820240974426,-0.34715187549591064,0.580746054649353,-0.02789878100156784,-0.11136108636856079,-0.2835809886455536,-53.10687255859375,10.783939361572266,-15.124715805053711,-12.08086109161377,-70.09761810302734,64.72825622558594,0.09902027994394302,-0.2962341904640198,0.5635809898376465,0.1487157791852951,0.002771401545032859,0.3275068700313568
1,185,2.775,-0.4481434226036072,-0.4048629105091095,0.2853429317474365,-0.05580608919262886,-0.13269206881523132,-0.8808153867721558,-0.3167739510536194,-0.38618069887161255,0.5516970157623291,-0.03944700211286545,-0.19379448890686035,-0.27261167764663696,-50.62055206298828,23.059518814086914,-32.32969665527344,-11.353650093078613,12.417976379394531,-150.0,0.09844252467155457,-0.3126976490020752,0.5699576139450073,0.1485832929611206,-0.01860726624727249,0.33907708525657654
1,186,2.79,-0.2403041422367096,-0.48056915402412415,0.25215110182762146,-0.10445816814899445,-0.1894272267818451,-0.810591995716095,-0.16986100375652313,-0.43969428539276123,0.5282350778579712,-0.07383713126182556,-0.23389820754528046,-0.22297367453575134,-32.7844352722168,-3.4259281158447266,-21.395265579223633,-28.914085388183594,3.5262603759765625,-150.0,0.10668492317199707,-0.3280276954174042,0.5746671557426453,0.14170719683170319,-0.03867550194263458,0.35051265358924866
1,187,2.8049999999999997,0.019899101927876472,-0.5536012649536133,0.23068219423294067,-0.19562052190303802,-0.22925561666488647,-0.6732373237609863,0.014065846800804138,-0.49131762981414795,0.5130596160888672,-0.13827601075172424,-0.26205122470855713,-0.12588337063789368,-25.894283294677734,-14.042844772338867,-28.029197692871094,-20.535289764404297,-20.51616096496582,-150.0,0.11435895413160324,-0.3370727598667145,0.574923038482666,0.13492333889007568,-0.05110732465982437,0.3540951609611511
1,188,2.82,0.25381791591644287,-0.5833269357681274,0.2223607450723648,-0.3054128885269165,-0.25596877932548523,-0.5066474676132202,0.1794133186340332,-0.5123294591903687,0.5071775317192078,-0.21588367223739624,-0.2809336483478546,-0.008127972483634949,-0.4392118453979492,-27.309282302856445,-14.49217414855957,-35.98979568481445,-24.647932052612305,-119.77012634277344,0.12554457783699036,-0.34737876057624817,0.5761607885360718,0.12453165650367737,-0.06201101467013359,0.3513447940349579
1,189,2.835,0.372233510017395,-0.553091824054718,0.24303852021694183,-0.3991507589817047,-0.2513198256492615,-0.3579298257827759,0.26311638951301575,-0.4909575283527374,0.521793782711029,-0.2821430563926697,-0.2776474952697754,0.09699434041976929,1.304595947265625,-13.654993057250977,-18.508060455322266,-33.30414962768555,-31.687015533447266,-68.89990234375,0.135785773396492,-0.3566339313983917,0.5776543617248535,0.11501745879650116,-0.07139558345079422,0.3505456745624542
1,190,2.85,0.35582274198532104,-0.47009891271591187,0.3129799962043762,-0.3991360366344452,-0.18659745156764984,-0.25432121753692627,0.25151628255844116,-0.4322932958602905,0.5712324976921082,-0.28213265538215637,-0.23189795017242432,0.1702309399843216,1.446319580078125,-1.2743091583251953,-7.476171016693115,-36.80638885498047,-13.890487670898438,-56.40019989013672,0.14466409385204315,-0.3648236393928528,0.5802839994430542,0.10751311480998993,-0.08292828500270844,0.3527969717979431
1,191,2.8649999999999998,0.2762128412723541,-0.36222511529922485,0.42603927850723267,-0.29752838611602783,-0.060737937688827515,-0.1999768763780594,0.19524337351322174,-0.356041818857193,0.6511493921279907,-0.2103104293346405,-0.14293311536312103,0.20864468812942505,-3.7603073120117188,13.487408638000488,12.696828842163086,-30.100252151489258,6.272436141967773,-55.20726013183594,0.14856038987636566,-0.3709767758846283,0.5899313688278198,0.10236403346061707,-0.09336727857589722,0.3579602539539337
1,192,2.88,0.20523911714553833,-0.2714037001132965,0.5563576817512512,-0.19475579261779785,0.06107546389102936,-0.17702963948249817,0.1450749933719635,-0.2918439507484436,0.7432660460472107,-0.1376647651195526,-0.05682830512523651,0.22486512362957,-2.9865729808807373,27.172664642333984,4.353824615478516,-22.918790817260742,30.83293342590332,-57.32762145996094,0.1474858820438385,-0.36816832423210144,0.6017055511474609,0.09875926375389099,-0.10331817716360092,0.36232641339302063
1,193,2.895,0.17499184608459473,-0.2165011167526245,0.6822834014892578,-0.13816656172275543,0.11954391002655029,-0.16686081886291504,0.12369445711374283,-0.25303560495376587,0.8322776556015015,-0.09766419231891632,-0.015499398112297058,0.23205304145812988,2.4667551517486572,11.33918571472168,39.8388557434082,-19.982149124145508,36.16435241699219,-52.44064712524414,0.13798052072525024,-0.3614368140697479,0.640157163143158,0.09969484061002731,-0.1125558614730835,0.3676339387893677
1,194,2.9099999999999997,0.16780942678451538,-0.1824823021888733,0.7915976047515869,-0.11225640773773193,0.10748958587646484,-0.16591991484165192,0.11861749738454819,-0.2289891242980957,0.9095473289489746,-0.07934938371181488,-0.02402009814977646,0.23271812498569489,17.013286590576172,19.45570945739746,-79.84950256347656,-28.172161102294922,43.673683166503906,-63.56789779663086,0.13100802898406982,-0.33711668848991394,0.6261210441589355,0.10126467049121857,-0.12248703092336655,0.36920273303985596
1,195,2.925,0.16121640801429749,-0.12667728960514069,0.8789805173873901,-0.12852680683135986,0.03770637884736061,-0.1671876311302185,0.11395717412233353,-0.18954288959503174,0.9713146686553955,-0.09085024893283844,-0.07334693521261215,0.23182202875614166,2.135385513305664,-31.001310348510742,150.0,-23.502071380615234,26.323795318603516,-42.08027267456055,0.11716783791780472,-0.331784725189209,0.6889102458953857,0.10729516297578812,-0.13410598039627075,0.3749427795410156
1,196,2.94,0.1748376488685608,-0.026608744636178017,0.9348295331001282,-0.20707543194293976,-0.05038176849484444,-0.15669550001621246,0.12358545511960983,-0.11880861222743988,1.0107920169830322,-0.14637300372123718,-0.13561277091503143,0.23923848569393158,31.634275436401367,76.14427947998047,-150.0,-46.48030471801758,33.1396598815918,-75.01163482666016,0.1129421815276146,-0.30251550674438477,0.704351544380188,0.11103050410747528,-0.14626444876194,0.37513625621795654
1,197,2.955,0.20078308880329132,0.09466446936130524,0.9536056518554688,-0.28965142369270325,-0.1104479506611824,-0.13393323123455048,0.14192521572113037,-0.03308563679456711,1.024064064025879,-0.20474255084991455,-0.1780710518360138,0.2553281784057617,-6.1861891746521,-46.785560607910156,150.0,-37.57573699951172,10.332952499389648,-20.27602767944336,0.11177116632461548,-0.279883474111557,0.751234233379364,0.11279477924108505,-0.16165180504322052,0.37543901801109314
1,198,2.9699999999999998,0.18370619416236877,0.21084186434745789,0.9397398233413696,-0.31074437499046326,-0.12071862071752548,-0.10436787456274033,0.1298542618751526,0.049035318195819855,1.0142629146575928,-0.21965226531028748,-0.18533095717430115,0.2762266993522644,13.214303970336914,77.2542953491211,-150.0,-45.846683502197266,30.163143157958984,-46.65580368041992,0.11116566509008408,-0.23531010746955872,0.7539917826652527,0.115602508187294,-0.174335777759552,0.37596723437309265
1,199,2.985,0.08324386179447174,0.31142956018447876,0.8881359696388245,-0.3271920680999756,-0.09580415487289429,-0.07186460494995117,0.05884162336587906,0.1201365515589714,0.9777862429618835,-0.2312784641981125,-0.16771996021270752,0.2992019057273865,-11.79896354675293,-51.683128356933594,150.0,-44.678955078125,21.190134048461914,-15.967248916625977,0.10379280149936676,-0.20298925042152405,0.785391092300415,0.12189579010009766,-0.1986488699913025,0.37995171546936035
1,200,3.0,-0.0814843699336052,0.39567533135414124,0.7857531309127808,-0.3988388776779175,-0.048605918884277344,-0.039339322596788406,-0.05759791284799576,0.17968638241291046,0.9054161310195923,-0.2819226086139679,-0.1343574970960617,0.3221926689147949,2.619579315185547,71.86332702636719,-150.0,-62.21471405029297,62.91029739379883,-45.949371337890625,0.09955611824989319,-0.14678463339805603,0.7759400010108948,0.12252599745988846,-0.20823951065540314,0.378623902797699
1,201,3.0149999999999997,-0.2730497419834137,0.44983214139938354,0.620378851890564,-0.5078826546669006,0.003861787263303995,-0.0035210472997277975,-0.19300749897956848,0.21796756982803345,0.7885199189186096,-0.359001100063324,-0.09727026522159576,0.3475111126899719,-37.012962341308594,-68.2346420288086,150.0,-53.47330856323242,35.93177795410156,6.965217590332031,0.07123631983995438,-0.1022796705365181,0.7949879765510559,0.1362048238515854,-0.23134499788284302,0.3860650658607483
1,202,3.03,-0.42450904846191406,0.4448409080505371,0.39521631598472595,-0.62672358751297,0.025694215670228004,0.041795745491981506,-0.3000677824020386,0.2144394814968109,0.6293619275093079,-0.443004846572876,-0.08183783292770386,0.379543662071228,19.23566436767578,37.78369903564453,-150.0,-102.17474365234375,81.45889282226562,-51.66718292236328,0.048191070556640625,-0.04594461992383003,0.7794537544250488,0.14128272235393524,-0.2399197816848755,0.3863566219806671
1,203,3.045,-0.4661919176578522,0.3762689232826233,0.13364459574222565,-0.7380712628364563,0.026501284912228584,0.08846782147884369,-0.3295316696166992,0.16596880555152893,0.44446778297424316,-0.5217118859291077,-0.081267349421978,0.4125342071056366,-29.263484954833984,-87.17625427246094,150.0,-76.75189208984375,45.55498504638672,25.541900634765625,0.014895126223564148,-0.01609528437256813,0.8008896112442017,0.14161358773708344,-0.25438162684440613,0.399242103099823
1,204,3.06,-0.397691011428833,0.3087961673736572,-0.13579559326171875,-0.827437698841095,0.044401850551366806,0.12031223624944687,-0.2811112403869629,0.11827513575553894,0.25401175022125244,-0.5848813056945801,-0.0686141848564148,0.43504369258880615,25.712749481201172,34.1619987487793,-150.0,-87.4113540649414,65.8479995727539,-60.66710662841797,-0.009065845981240273,0.015957320109009743,0.7914984226226807,0.14068281650543213,-0.2641829550266266,0.39787670969963074
1,205,3.0749999999999997,-0.2700781524181366,0.31290873885154724,-0.3877924680709839,-0.8887694478034973,0.0732075497508049,0.13806188106536865,-0.19090701639652252,0.12118213623762131,0.07588568329811096,-0.6282341480255127,-0.048252638429403305,0.447590172290802,-3.542776107788086,-67.85240173339844,70.03240966796875,-83.98626708984375,60.683414459228516,31.751588821411133,-0.044278789311647415,0.0383196622133255,0.7484280467033386,0.14478303492069244,-0.2790261209011078,0.416057825088501
1,206,3.09,-0.1570078432559967,0.36208248138427734,-0.5879371166229248,-0.9164612889289856,0.07925057411193848,0.1497361809015274,-0.11098231375217438,0.15594100952148438,-0.06558820605278015,-0.6478083729743958,-0.04398107901215553,0.4558422565460205,54.20906066894531,22.809207916259766,-150.0,-104.96211242675781,77.330810546875,-81.62322235107422,-0.06191343069076538,0.07647214829921722,0.6240196824073792,0.15190286934375763,-0.2912156581878662,0.4186043441295624
1,207,3.105,-0.10414667427539825,0.38152724504470825,-0.7109218239784241,-0.9109723567962646,0.05497409403324127,0.15852676331996918,-0.07361695170402527,0.16968569159507751,-0.15252096951007843,-0.6439284682273865,-0.061141107231378555,0.4620559513568878,2.507432460784912,-80.4905776977539,150.0,-96.34760284423828,65.98918914794922,20.5936336517334,-0.079569011926651,0.088758684694767,0.5491828322410583,0.16248002648353577,-0.3111872673034668,0.42924419045448303
