EASYMMMM/IGEvolution/run_data/srl_policy_outputs_env0.csv
episode,step,time_sec,action_0,action_1,action_2,action_3,action_4,action_5,pd_target_0,pd_target_1,pd_target_2,pd_target_3,pd_target_4,pd_target_5,torque_0,torque_1,torque_2,torque_3,torque_4,torque_5,joint_pos_0,joint_pos_1,joint_pos_2,joint_pos_3,joint_pos_4,joint_pos_5
1,0,0.0,0.025485597550868988,-0.01935809664428234,-0.02785971201956272,0.011365554295480251,0.0023198085837066174,0.004077244084328413,0.018014708533883095,-0.11368343234062195,0.33030712604522705,0.00803383719176054,-0.09836022555828094,0.3528820276260376,2.1617648601531982,-2.8735203742980957,-5.514002799987793,0.9640604257583618,0.34435293078422546,0.806969404220581,0.005678416229784489,-0.10087046027183533,0.34564653038978577,-0.005106985103338957,-0.10190467536449432,0.3482334017753601
1,1,0.015,0.11643445491790771,-0.0924190953373909,-0.12468574941158295,0.067360520362854,0.01138355489820242,0.019536493346095085,0.08230267465114594,-0.16532720625400543,0.2618648409843445,0.04761435091495514,-0.09195344150066376,0.3638095259666443,-1.2595443725585938,-13.794144630432129,-5.059606552124023,15.37468433380127,0.8797974586486816,9.985857963562012,0.008922897279262543,-0.10428671538829803,0.3359568119049072,-0.004768611863255501,-0.10311440378427505,0.35565197467803955
1,2,0.03,0.26459330320358276,-0.2050003856420517,-0.27855899930000305,0.16409796476364136,0.0321204848587513,0.05234046280384064,0.18702998757362366,-0.2449062168598175,0.15309825539588928,0.11599402129650116,-0.07729537039995193,0.3869972825050354,18.71697235107422,-19.831565856933594,-21.34668731689453,9.960371017456055,8.6732177734375,-27.25710105895996,0.015722541138529778,-0.10967271775007248,0.3094564974308014,-0.00039665529038757086,-0.09503044188022614,0.3418382704257965
1,3,0.045,0.37516334652900696,-0.29750001430511475,-0.4482668340206146,0.24112778902053833,0.06957568228244781,0.10509786009788513,0.2651873528957367,-0.3102903366088867,0.03313887119293213,0.17044320702552795,-0.05081985518336296,0.4242892861366272,16.2139949798584,-33.485042572021484,22.602317810058594,13.897808074951172,-15.763562202453613,112.15545654296875,0.029271960258483887,-0.12957139313220978,0.30105727910995483,0.005335909314453602,-0.10784461349248886,0.4151454269886017
1,4,0.06,0.368935763835907,-0.363671213388443,-0.5934109687805176,0.26038381457328796,0.10660900920629501,0.15734004974365234,0.2607853412628174,-0.35706400871276855,-0.06945746392011642,0.18405449390411377,-0.024642542004585266,0.46121710538864136,6.747707366943359,1.8484954833984375,-136.38253784179688,12.717656135559082,71.27400207519531,-150.0,0.044948987662792206,-0.12455578148365021,0.1828627586364746,0.01856199838221073,-0.08921351283788681,0.4138728082180023
1,5,0.075,0.3013553321361542,-0.39324814081192017,-0.6930181980133057,0.2574998736381531,0.1400138884782791,0.17963753640651703,0.21301554143428802,-0.37797069549560547,-0.1398656815290451,0.18201595544815063,-0.0010300297290086746,0.47697827219963074,0.6296443939208984,-104.11537170410156,150.0,-5.117088317871094,-70.1950912475586,150.0,0.03847809135913849,-0.14304794371128082,0.3164200782775879,0.028992902487516403,-0.0875529870390892,0.45291846990585327
1,6,0.09,0.2501598000526428,-0.3667841851711273,-0.7702441215515137,0.26837873458862305,0.18265359103679657,0.1719580888748169,0.1768275648355484,-0.35926443338394165,-0.19445346295833588,0.1897057592868805,0.029110204428434372,0.47154998779296875,23.152664184570312,33.47233963012695,-150.0,13.13199520111084,78.65189361572266,-150.0,0.037736497819423676,-0.14100056886672974,0.3775387704372406,0.03909560292959213,-0.06376530975103378,0.4475564956665039
1,7,0.105,0.2484714239835739,-0.31624162197113037,-0.8394734263420105,0.23107042908668518,0.22665248811244965,0.1690051257610321,0.17563411593437195,-0.32353800535202026,-0.24338874220848083,0.16333407163619995,0.060211192816495895,0.46946266293525696,14.717171669006348,-96.02395629882812,-55.88874053955078,-5.0374908447265625,-72.83531188964844,150.0,0.041268493980169296,-0.13443434238433838,0.34396129846572876,0.05220901966094971,-0.06213391572237015,0.484626442193985
1,8,0.12,0.285144180059433,-0.2630629539489746,-0.8744800090789795,0.09295118600130081,0.2795073091983795,0.19557198882102966,0.20155656337738037,-0.2859482169151306,-0.2681334614753723,0.06570332497358322,0.09757204353809357,0.48824167251586914,18.410551071166992,39.311981201171875,-150.0,-16.696352005004883,96.68054962158203,-150.0,0.038388289511203766,-0.1563124805688858,0.3854105770587921,0.06687922030687332,-0.039504822343587875,0.4737899601459503
1,9,0.135,0.27494633197784424,-0.23594489693641663,-0.8438653945922852,-0.05419161170721054,0.318755179643631,0.21288374066352844,0.19434812664985657,-0.2667796015739441,-0.24649325013160706,-0.038305796682834625,0.12531474232673645,0.5004786252975464,25.67670249938965,8.398242950439453,-150.0,-31.99657440185547,-65.44718933105469,150.0,0.03756603226065636,-0.1773443967103958,0.4194302558898926,0.06532119959592819,-0.02601335197687149,0.49513694643974304
1,10,0.15,0.16050724685192108,-0.24022860825061798,-0.754048764705658,-0.07879399508237839,0.31047993898391724,0.1827743649482727,0.1134558916091919,-0.2698075771331787,-0.18300558626651764,-0.05569619685411453,0.11946532130241394,0.47919556498527527,4.628406524658203,26.069355010986328,-150.0,5.186777114868164,59.253684997558594,-150.0,0.042855244129896164,-0.1957273632287979,0.44822025299072266,0.05024098604917526,0.004894149489700794,0.46986517310142517
1,11,0.16499999999999998,-0.009704538621008396,-0.2505875527858734,-0.6371185779571533,-0.0032220229040831327,0.26438501477241516,0.11080583184957504,-0.006859734654426575,-0.2771298885345459,-0.10035252571105957,-0.0022775139659643173,0.08688273280858994,0.42832401394844055,-14.542543411254883,12.039813995361328,-150.0,14.249771118164062,-85.45655059814453,150.0,0.03749892860651016,-0.21080107986927032,0.46553197503089905,0.04501096159219742,0.0096350759267807,0.48984619975090027
1,12,0.18,-0.17505231499671936,-0.26184260845184326,-0.5176621079444885,0.09251435846090317,0.19637668132781982,-0.0008389750146307051,-0.12373720109462738,-0.28508561849594116,-0.015913762152194977,0.06539455056190491,0.038810476660728455,0.3494069576263428,-7.315147399902344,13.609516143798828,-150.0,6.419206619262695,58.92958068847656,-150.0,0.027504650875926018,-0.21824540197849274,0.4734135866165161,0.04440832510590553,0.028715675696730614,0.4689352512359619
1,13,0.195,-0.3071064054965973,-0.26405197381973267,-0.4151196777820587,0.2163006216287613,0.12034400552511215,-0.14759968221187592,-0.2170807421207428,-0.28664731979370117,0.05656922608613968,0.15289391577243805,-0.014933843165636063,0.2456679344177246,-17.021833419799805,-5.363551139831543,-134.46685791015625,13.472616195678711,-98.42384338378906,150.0,0.013597981072962284,-0.22827452421188354,0.4762803912162781,0.047477837651968,0.021832462400197983,0.49327075481414795
1,14,0.21,-0.38222014904022217,-0.23515541851520538,-0.3379948139190674,0.3538229167461395,0.03660321980714798,-0.3138260245323181,-0.2701755166053772,-0.2662215530872345,0.11108557134866714,0.250102698802948,-0.0741267129778862,0.1281694620847702,-15.201610565185547,14.502498626708984,-121.89460754394531,21.761428833007812,54.48421859741211,-150.0,-0.0012318056542426348,-0.23051774501800537,0.47546133399009705,0.05518060177564621,0.027062702924013138,0.4795815944671631
1,15,0.22499999999999998,-0.38362130522727966,-0.17842674255371094,-0.2804926931858063,0.4360734820365906,-0.05611998960375786,-0.4839162826538086,-0.2711659371852875,-0.2261224240064621,0.15173140168190002,0.30824220180511475,-0.13966888189315796,0.007939755916595459,-13.567886352539062,-0.01527637243270874,-86.93055725097656,16.2025089263916,-98.94375610351562,150.0,-0.008598824962973595,-0.2386254519224167,0.48020341992378235,0.05827191844582558,0.007749806623905897,0.5095972418785095
1,16,0.24,-0.2753027677536011,-0.13665659725666046,-0.2298002392053604,0.4565087854862213,-0.13643594086170197,-0.6412574648857117,-0.19460007548332214,-0.19659684598445892,0.18756379187107086,0.3226870596408844,-0.19644087553024292,-0.10327815264463425,-19.744224548339844,34.320518493652344,-118.09547424316406,36.04307556152344,51.880489349365234,-150.0,-0.012497704476118088,-0.24543631076812744,0.4846803545951843,0.06462956219911575,-0.0026643292512744665,0.49997541308403015
1,17,0.255,-0.10773294419050217,-0.16592669486999512,-0.16794846951961517,0.45283523201942444,-0.18742744624614716,-0.7735819816589355,-0.07615193724632263,-0.21728666126728058,0.2312842309474945,0.3200903832912445,-0.2324846386909485,-0.19681283831596375,-2.975588321685791,16.36573600769043,-81.0216064453125,15.24519157409668,-79.92256164550781,105.71292114257812,-0.019046783447265625,-0.25469085574150085,0.4866671860218048,0.07905151695013046,-0.028022143989801407,0.4943867623806
1,18,0.27,0.037815824151039124,-0.26570260524749756,-0.10157381743192673,0.38600069284439087,-0.21846315264701843,-0.8764775991439819,0.026730433106422424,-0.28781408071517944,0.278201699256897,0.27284783124923706,-0.25442248582839966,-0.2695454955101013,14.07563591003418,15.484189987182617,-75.4497299194336,4.83329963684082,42.331565856933594,-150.0,-0.019516315311193466,-0.26213210821151733,0.4909490644931793,0.08678316324949265,-0.03451553359627724,0.4391745328903198
1,19,0.285,0.13662363588809967,-0.37528783082962036,-0.03304643929004669,0.21498845517635345,-0.246669739484787,-0.9079115986824036,0.09657356142997742,-0.3652752935886383,0.3266408443450928,0.151966392993927,-0.2743605375289917,-0.2917648255825043,5.656421661376953,-31.428592681884766,-62.134010314941406,18.401329040527344,-79.10134887695312,-150.0,-0.012506929226219654,-0.26546308398246765,0.4922785460948944,0.07877681404352188,-0.03333393111824989,0.4369073808193207
1,20,0.3,0.12367111444473267,-0.4169575870037079,0.04990149289369583,0.02635512687265873,-0.2661456763744354,-0.8072496056556702,0.08741796761751175,-0.3947299122810364,0.385273277759552,0.018629342317581177,-0.28812727332115173,-0.22061105072498322,1.165522575378418,-24.098892211914062,-37.32367706298828,5.911473274230957,-61.39722442626953,-150.0,-0.005123135168105364,-0.2700763940811157,0.49278002977371216,0.07004299759864807,-0.031437214463949203,0.4309884011745453
1,21,0.315,-0.009151825681328773,-0.34707504510879517,0.11174814403057098,-0.10446498543024063,-0.26158830523490906,-0.6343910098075867,-0.0064690448343753815,-0.3453328609466553,0.42899009585380554,-0.07384195178747177,-0.2849058508872986,-0.09842453896999359,-6.964321613311768,-11.684715270996094,-15.818770408630371,-9.227411270141602,-53.525535583496094,-145.0575408935547,0.0033512001391500235,-0.27559736371040344,0.4933255910873413,0.060674574226140976,-0.030972357839345932,0.4229125380516052
1,22,0.32999999999999996,-0.19475190341472626,-0.2279307246208191,0.124343141913414,-0.2279789000749588,-0.25407618284225464,-0.5042343735694885,-0.13766202330589294,-0.2611147165298462,0.43789297342300415,-0.161148801445961,-0.27959585189819336,-0.0064222365617752075,-29.540210723876953,10.534259796142578,-18.74578094482422,-12.919014930725098,-53.01887512207031,-102.71846771240234,0.008189694955945015,-0.2779882550239563,0.49146899580955505,0.055029574781656265,-0.029481111094355583,0.4166869521141052
1,23,0.345,-0.38786932826042175,-0.14990317821502686,0.11877737939357758,-0.37464433908462524,-0.27463439106941223,-0.42593759298324585,-0.2741686999797821,-0.20596030354499817,0.4339587688446045,-0.26482048630714417,-0.29412758350372314,0.04892247915267944,-37.795616149902344,14.804459571838379,-10.25390338897705,-33.42670822143555,-60.47297668457031,-94.9828109741211,0.0072898901998996735,-0.2762565016746521,0.4873324930667877,0.055825453251600266,-0.02908480539917946,0.4155920445919037
1,24,0.36,-0.5171061754226685,-0.13589105010032654,0.12322328984737396,-0.47193843126296997,-0.31095895171165466,-0.369049072265625,-0.3655208349227905,-0.19605571031570435,0.4371013939380646,-0.3335936367511749,-0.3198038935661316,0.0891345888376236,-39.63895034790039,10.09991455078125,-2.1082019805908203,-52.74433135986328,-59.509273529052734,-101.01747131347656,0.00010976303019560874,-0.2735964059829712,0.4840680658817291,0.05961228907108307,-0.030703231692314148,0.418094277381897
1,25,0.375,-0.5167127847671509,-0.1705540418624878,0.12211759388446808,-0.4321441054344177,-0.3335980176925659,-0.34176933765411377,-0.36524277925491333,-0.2205575406551361,0.43631982803344727,-0.3054646849632263,-0.3358065187931061,0.10841751098632812,-31.74774932861328,6.095637321472168,-9.421772003173828,-48.559913635253906,-61.342586517333984,-98.70643615722656,-0.009939818643033504,-0.2724185585975647,0.4805182218551636,0.0661190077662468,-0.0350862480700016,0.42464280128479004
1,26,0.39,-0.40314504504203796,-0.22439154982566833,0.09801486879587173,-0.3182159960269928,-0.3395441174507141,-0.35238757729530334,-0.28496646881103516,-0.2586130201816559,0.41928261518478394,-0.22493363916873932,-0.34000957012176514,0.10091192275285721,-19.640464782714844,1.6553980112075806,-6.161651611328125,-46.852577209472656,-55.014774322509766,-118.18272399902344,-0.017020175233483315,-0.27343788743019104,0.4770711064338684,0.07295006513595581,-0.040639713406562805,0.4328571557998657
1,27,0.40499999999999997,-0.20488078892230988,-0.2586198151111603,0.07093577831983566,-0.2766727805137634,-0.33990925550460815,-0.39214059710502625,-0.14482170343399048,-0.2828075587749481,0.40014153718948364,-0.19556847214698792,-0.3402676582336426,0.07281216233968735,-5.944181442260742,-1.8374029397964478,-14.153592109680176,-42.05393981933594,-53.07748794555664,-129.82923889160156,-0.020866163074970245,-0.2758769392967224,0.47577744722366333,0.07694712281227112,-0.046527598053216934,0.43908676505088806
1,28,0.42,0.045755159109830856,-0.26303645968437195,0.08405594527721405,-0.2771776020526886,-0.34025126695632935,-0.4513683021068573,0.032342419028282166,-0.28592950105667114,0.4094156324863434,-0.19592532515525818,-0.34050941467285156,0.030946578830480576,12.105141639709473,-0.8250570297241211,-15.257576942443848,-39.07326889038086,-52.00653076171875,-137.62277221679688,-0.022736135870218277,-0.27757999300956726,0.4748588800430298,0.07893744111061096,-0.050617992877960205,0.44317135214805603
1,29,0.435,0.28422874212265015,-0.2499081790447235,0.16632823646068573,-0.24658551812171936,-0.34691211581230164,-0.5142205953598022,0.20090948045253754,-0.2766496539115906,0.4675704836845398,-0.17430104315280914,-0.3452177047729492,-0.013481123372912407,28.05147361755371,0.8850206732749939,-1.8716586828231812,-31.880535125732422,-56.022369384765625,-142.81753540039062,-0.017285415902733803,-0.279712438583374,0.4767468273639679,0.0751359611749649,-0.05292844772338867,0.44299668073654175
1,30,0.44999999999999996,0.45913296937942505,-0.2107410877943039,0.30404719710350037,-0.20115116238594055,-0.36199241876602173,-0.5626497268676758,0.32454198598861694,-0.2489640712738037,0.5649182796478271,-0.14218538999557495,-0.3558773398399353,-0.04771362990140915,31.01714324951172,6.454448223114014,18.881380081176758,-20.420185089111328,-60.23854064941406,-142.83848571777344,-0.005430908408015966,-0.279632568359375,0.49104347825050354,0.07231857627630234,-0.056263793259859085,0.4436627924442291
1,31,0.46499999999999997,0.5216000080108643,-0.14667347073554993,0.4624335765838623,-0.10485202819108963,-0.3712638318538666,-0.5966823697090149,0.3686973452568054,-0.20367735624313354,0.6768749952316284,-0.07411553710699081,-0.3624309003353119,-0.07176986336708069,26.49713706970215,12.018594741821289,-9.213489532470703,-16.279529571533203,-58.05324935913086,-150.0,0.012152870185673237,-0.26984384655952454,0.5007984042167664,0.07216005027294159,-0.05744316801428795,0.4459224343299866
1,32,0.48,0.47373345494270325,-0.09196022897958755,0.6152994632720947,0.03163735568523407,-0.36392664909362793,-0.615575909614563,0.33486247062683105,-0.16500285267829895,0.7849295139312744,0.022363130003213882,-0.3572445511817932,-0.08512493222951889,12.827718734741211,-7.006626129150391,78.31160736083984,-7.682619094848633,-63.67615509033203,-150.0,0.03477437049150467,-0.2698103189468384,0.5696792602539062,0.07038713246583939,-0.05864527076482773,0.4487653970718384
1,33,0.495,0.42553263902664185,-0.059544023126363754,0.7478901147842407,0.10690554231405258,-0.35551968216896057,-0.6052755117416382,0.30079132318496704,-0.14208918809890747,0.8786523342132568,0.0755670815706253,-0.35130202770233154,-0.07784397900104523,2.338275909423828,41.531246185302734,-150.0,2.1915698051452637,-56.34214401245117,-150.0,0.05908721312880516,-0.23954837024211884,0.5470622181892395,0.07034359127283096,-0.0581037737429142,0.4501810073852539
1,34,0.51,0.44974371790885925,-0.006256654392927885,0.8527460098266602,0.1010034829378128,-0.3513985872268677,-0.5903000831604004,0.31790512800216675,-0.10442256927490234,0.9527705311775208,0.0713951587677002,-0.34838899970054626,-0.06725850701332092,-3.0031814575195312,-70.7269287109375,150.0,-0.34853237867355347,-65.87203216552734,-149.427001953125,0.07460077106952667,-0.22846157848834991,0.5646153688430786,0.07417558878660202,-0.06334488093852997,0.4554293155670166
1,35,0.525,0.48966437578201294,0.10551857203245163,0.9223771691322327,0.05095311254262924,-0.3499992787837982,-0.5984594225883484,0.3461233675479889,-0.025413326919078827,1.0019899606704712,0.03601663559675217,-0.34739989042282104,-0.07302600145339966,21.872377395629883,73.97523498535156,-150.0,-13.607833862304688,-45.03462219238281,-150.0,0.09887073934078217,-0.19906026124954224,0.5400390028953552,0.0722646564245224,-0.06187046319246292,0.4550352692604065
1,36,0.54,0.4563656449317932,0.2490633726119995,0.9554437398910522,-0.059368379414081573,-0.35875779390335083,-0.6111485362052917,0.3225858807563782,0.07605250924825668,1.0253633260726929,-0.04196503758430481,-0.3535909056663513,-0.0819953978061676,-16.902280807495117,-47.23069381713867,150.0,-5.454289436340332,-71.57942199707031,-139.91574096679688,0.12390708923339844,-0.1829432100057602,0.5500632524490356,0.06490607559680939,-0.06452687829732895,0.4517010748386383
1,37,0.5549999999999999,0.32131215929985046,0.37790820002555847,0.9475606679916382,-0.21078185737133026,-0.366682231426239,-0.6107340455055237,0.22712218761444092,0.16712753474712372,1.0197911262512207,-0.14899292588233948,-0.3591923713684082,-0.08170244097709656,-10.600090026855469,91.90589904785156,-150.0,-18.508638381958008,-50.4063835144043,-150.0,0.13675722479820251,-0.1362568736076355,0.5082913041114807,0.06420985609292984,-0.06358196586370468,0.44939860701560974
1,38,0.57,0.10813885927200317,0.46805620193481445,0.877323567867279,-0.35128018260002136,-0.36051690578460693,-0.6003958582878113,0.07643885910511017,0.23084941506385803,0.9701433777809143,-0.24830535054206848,-0.35483434796333313,-0.07439477741718292,-21.22369956970215,-65.88778686523438,150.0,-38.84697341918945,-68.87699127197266,-139.36244201660156,0.13912048935890198,-0.09876527637243271,0.5013643503189087,0.0641091987490654,-0.0637902170419693,0.44747307896614075
1,39,0.585,-0.11329400539398193,0.5211919546127319,0.7463633418083191,-0.43215513229370117,-0.3376046419143677,-0.5905076265335083,-0.08008281886577606,0.2684088349342346,0.8775731325149536,-0.3054724931716919,-0.33863863348960876,-0.06740520894527435,-18.3991641998291,62.780250549316406,-148.05250549316406,-47.27680587768555,-52.57788848876953,-150.0,0.12543755769729614,-0.040501974523067474,0.45029416680336,0.07184826582670212,-0.062021054327487946,0.44821739196777344
1,40,0.6,-0.23200611770153046,0.5538633465766907,0.5725966691970825,-0.3757437765598297,-0.29250067472457886,-0.57246994972229,-0.16399547457695007,0.2915028929710388,0.7547447085380554,-0.2655976414680481,-0.30675652623176575,-0.05465513840317726,-11.45960807800293,-84.34552764892578,150.0,-53.40765380859375,-59.93988037109375,-146.7124786376953,0.10571014136075974,-0.00906949769705534,0.44448262453079224,0.07665936648845673,-0.06318994611501694,0.44821348786354065
1,41,0.615,-0.1929338574409485,0.5525560975074768,0.3539498448371887,-0.18932326138019562,-0.2302137017250061,-0.5264104604721069,-0.13637691736221313,0.29057884216308594,0.6001923680305481,-0.13382473587989807,-0.2627284526824951,-0.022097576409578323,2.598440170288086,73.17626953125,-150.0,-30.732759475708008,-33.39139938354492,-144.64996337890625,0.09050650894641876,0.03917146846652031,0.39601418375968933,0.07453463226556778,-0.05986043065786362,0.4408140480518341
1,42,0.63,-0.03706216439604759,0.4756247103214264,0.09965208917856216,-0.0030919041018933058,-0.16544128954410553,-0.4586021304130554,-0.026197701692581177,0.2361992597579956,0.4204398989677429,-0.002185538411140442,-0.21694354712963104,0.025833280757069588,0.9702672958374023,-103.38208770751953,150.0,-3.086916446685791,-45.995906829833984,-88.88726043701172,0.08236286044120789,0.06152007356286049,0.3970314860343933,0.0633285641670227,-0.0564642995595932,0.43024367094039917
1,43,0.645,0.15458087623119354,0.31166547536849976,-0.16193819046020508,0.10655547678470612,-0.09689345955848694,-0.38517045974731445,0.10926678776741028,0.12030333280563354,0.23553264141082764,0.07531963288784027,-0.1684899479150772,0.07773905992507935,15.189671516418457,43.02046203613281,-150.0,18.69744300842285,-25.43523597717285,-83.63823699951172,0.07907334715127945,0.08871664851903915,0.3643589913845062,0.04938482120633125,-0.050589583814144135,0.4198823869228363
1,44,0.6599999999999999,0.2856839895248413,0.09717442095279694,-0.40627098083496094,0.18494132161140442,-0.02256733737885952,-0.3103489279747009,0.20193812251091003,-0.031311459839344025,0.06282396614551544,0.13072732090950012,-0.11595191061496735,0.13062728941440582,14.13376235961914,-123.05377960205078,150.0,28.911251068115234,-27.039304733276367,-54.53150177001953,0.07498597353696823,0.07844454050064087,0.38748565316200256,0.03871636837720871,-0.05447067320346832,0.4176034927368164
1,45,0.6749999999999999,0.2962604761123657,-0.12213736027479172,-0.6158393025398254,0.20643047988414764,0.03978772088885307,-0.23739869892597198,0.20941421389579773,-0.1863338053226471,-0.08531111478805542,0.1459171175956726,-0.07187572121620178,0.18219275772571564,28.25170135498047,34.411895751953125,-150.0,21.828777313232422,12.729454040527344,-85.74644470214844,0.06597793847322464,0.07049988210201263,0.377297967672348,0.038222536444664,-0.05951777100563049,0.42338839173316956
1,46,0.69,0.25407037138938904,-0.3122563362121582,-0.7733712792396545,0.11050548404455185,0.06241738423705101,-0.17883895337581635,0.17959177494049072,-0.32072097063064575,-0.19666390120983124,0.07811173051595688,-0.055879756808280945,0.22358620166778564,24.11760711669922,-119.02207946777344,145.88235473632812,1.3484649658203125,8.913086891174316,-78.16845703125,0.058750301599502563,0.031173691153526306,0.42187583446502686,0.041300587356090546,-0.07076693326234818,0.4336613416671753
1,47,0.705,0.23953357338905334,-0.4280167520046234,-0.8745287656784058,-0.04503515362739563,0.04124107584357262,-0.14098696410655975,0.16931632161140442,-0.4025471806526184,-0.2681678533554077,-0.031833477318286896,-0.07084840536117554,0.2503421902656555,24.105501174926758,38.894020080566406,-150.0,-15.110527038574219,27.652685165405273,-97.84515380859375,0.060401059687137604,-0.0022272560745477676,0.43503618240356445,0.04178379103541374,-0.07595222443342209,0.44024989008903503
1,48,0.72,0.20462074875831604,-0.4551771283149719,-0.9316746592521667,-0.1937187761068344,-0.00812610238790512,-0.10996828973293304,0.14463789761066437,-0.4217457175254822,-0.30856192111968994,-0.13693174719810486,-0.10574400424957275,0.27226799726486206,-0.6269626617431641,-80.12461853027344,29.584152221679688,-18.741662979125977,-4.2265729904174805,-59.65428161621094,0.0627632588148117,-0.023487649857997894,0.44181570410728455,0.04035806283354759,-0.08173489570617676,0.445466548204422
1,49,0.735,0.09041377156972885,-0.4354388117790222,-0.9348774552345276,-0.31955331563949585,-0.058423031121492386,-0.08938918262720108,0.06390973180532455,-0.4077935218811035,-0.31082582473754883,-0.22587893903255463,-0.14129680395126343,0.28681451082229614,0.353453665971756,-19.696617126464844,-150.0,-30.40567398071289,1.5228233337402344,-70.23612213134766,0.0625816360116005,-0.035142045468091965,0.44634661078453064,0.04038306698203087,-0.08850044012069702,0.4506707191467285
1,50,0.75,-0.08979135006666183,-0.4088832139968872,-0.8603323698043823,-0.3778587579727173,-0.09132536500692368,-0.09526538103818893,-0.0634697675704956,-0.38902246952056885,-0.25813305377960205,-0.26709264516830444,-0.16455408930778503,0.2826608717441559,-12.077963829040527,-69.22433471679688,-150.0,-40.114776611328125,-8.769551277160645,-61.309715270996094,0.06223795562982559,-0.037888213992118835,0.4511323571205139,0.040603987872600555,-0.09181379526853561,0.45113837718963623
1,51,0.765,-0.2969900667667389,-0.36839208006858826,-0.7239421010017395,-0.37896111607551575,-0.10307101160287857,-0.1261933594942093,-0.2099299132823944,-0.3604009747505188,-0.1617245078086853,-0.2678718566894531,-0.17285659909248352,0.2607991695404053,-34.02717971801758,-65.07122802734375,-150.0,-35.74671936035156,-16.084135055541992,-53.926856994628906,0.060963042080402374,-0.03808482363820076,0.45257052779197693,0.04170610010623932,-0.09287754446268082,0.4499078691005707
1,52,0.78,-0.4442877471446991,-0.29120469093322754,-0.5674093961715698,-0.4109759032726288,-0.08404809236526489,-0.17365173995494843,-0.31404852867126465,-0.3058404326438904,-0.05107802152633667,-0.29050177335739136,-0.15941008925437927,0.22725282609462738,-42.749778747558594,-60.73208999633789,-149.0034637451172,-42.26418685913086,-17.590538024902344,-60.970272064208984,0.06009136885404587,-0.03548038378357887,0.4513407349586487,0.04228613153100014,-0.09124128520488739,0.4454260468482971
1,53,0.7949999999999999,-0.43839460611343384,-0.19253306090831757,-0.4226319491863251,-0.4396868050098419,-0.032895900309085846,-0.21355265378952026,-0.30988290905952454,-0.23609359562397003,0.051259107887744904,-0.310796320438385,-0.1232527419924736,0.19904853403568268,-44.15616226196289,-46.79046630859375,-112.4552001953125,-42.64248275756836,-11.451358795166016,-55.734928131103516,0.06377946585416794,-0.03377951681613922,0.4503656029701233,0.038237106055021286,-0.0875735953450203,0.4352661073207855
1,54,0.8099999999999999,-0.34693649411201477,-0.11805906146764755,-0.31838300824165344,-0.36384448409080505,0.029583629220724106,-0.2334851771593094,-0.24523496627807617,-0.18345102667808533,0.12494831532239914,-0.25718653202056885,-0.07908856868743896,0.1849590688943863,-45.96004867553711,-34.75271987915039,-98.6714096069336,-26.189851760864258,-8.435803413391113,-40.432861328125,0.0688965916633606,-0.029040157794952393,0.44923707842826843,0.03278122842311859,-0.07993284612894058,0.422952264547348
1,55,0.825,-0.3170696496963501,-0.10709597170352936,-0.2731461524963379,-0.20415236055850983,0.08098220825195312,-0.2386709451675415,-0.22412334382534027,-0.17570167779922485,0.15692436695098877,-0.14430680871009827,-0.0427570566534996,0.18129345774650574,-40.74612045288086,-41.7305793762207,-80.77393341064453,-15.545459747314453,-7.968486785888672,-39.32698059082031,0.07274780422449112,-0.0234866663813591,0.44730448722839355,0.028664113953709602,-0.07145161926746368,0.4115001857280731
1,56,0.84,-0.31992581486701965,-0.12981419265270233,-0.2915855646133423,-0.023072777315974236,0.12569785118103027,-0.2102036029100418,-0.2261422574520111,-0.19176024198532104,0.14389032125473022,-0.016309186816215515,-0.011149436235427856,0.20141583681106567,-41.91469192504883,-45.49611282348633,-85.57235717773438,0.5493679046630859,-3.460521697998047,-32.02324295043945,0.07796262204647064,-0.021423669531941414,0.44737884402275085,0.023371389135718346,-0.06401672214269638,0.40024206042289734
1,57,0.855,-0.2302303910255432,-0.12868493795394897,-0.36484429240226746,0.16586604714393616,0.16304948925971985,-0.13375893235206604,-0.1627402901649475,-0.190962016582489,0.09210679680109024,0.11724380403757095,0.015252881683409214,0.25545138120651245,-36.724945068359375,-36.029701232910156,-105.16136932373047,18.8138370513916,5.423056602478027,-14.385189056396484,0.08192465454339981,-0.019706012681126595,0.44726577401161194,0.019294310361146927,-0.05765550956130028,0.3898255228996277
1,58,0.87,-0.047178685665130615,-0.11099116504192352,-0.46938270330429077,0.36041662096977234,0.18758484721183777,-0.01316384132951498,-0.033348649740219116,-0.17845502495765686,0.018212929368019104,0.25476351380348206,0.03259589523077011,0.34069502353668213,-19.342256546020508,-36.04736328125,-125.76162719726562,33.93314743041992,8.503095626831055,12.641122817993164,0.07768512517213821,-0.014933103695511818,0.4424112141132355,0.028585368767380714,-0.05172150582075119,0.38998380303382874
1,59,0.885,0.12919706106185913,-0.12660464644432068,-0.5730386972427368,0.5063099265098572,0.21533317863941193,0.14663207530975342,0.09132403135299683,-0.18949154019355774,-0.05505715310573578,0.35788941383361816,0.052210040390491486,0.45364809036254883,10.321231842041016,-44.084068298339844,-131.30746459960938,18.793657302856445,8.908344268798828,1.0567703247070312,0.07588916271924973,-0.011017885990440845,0.4387390613555908,0.042176757007837296,-0.03869693726301193,0.39160627126693726
1,60,0.8999999999999999,0.23157988488674164,-0.20028743147850037,-0.6435024738311768,0.5121007561683655,0.25522083044052124,0.322801798582077,0.16369418799877167,-0.24157482385635376,-0.10486504435539246,0.3619827330112457,0.08040496706962585,0.5781751275062561,7.904552459716797,-54.95725631713867,-150.0,23.203960418701172,-5.972707748413086,56.046573638916016,0.07043604552745819,-0.006256681401282549,0.43317079544067383,0.06280707567930222,-0.03652133047580719,0.44169920682907104
1,61,0.9149999999999999,0.2871762216091156,-0.2929392158985138,-0.677615225315094,0.38292768597602844,0.2911529839038849,0.47719767689704895,0.20299293100833893,-0.30706650018692017,-0.1289779543876648,0.2706756591796875,0.10580389201641083,0.6873111128807068,28.142108917236328,-68.39579010009766,-144.66676330566406,-9.411703109741211,40.95537567138672,-150.0,0.06991136819124222,-0.0028534720186144114,0.4277997314929962,0.0798216387629509,-0.002256695879623294,0.38081786036491394
1,62,0.9299999999999999,0.34263134002685547,-0.34928014874458313,-0.6919851899147034,0.24828588962554932,0.32950854301452637,0.5854198336601257,0.2421918362379074,-0.3468915522098541,-0.1391354352235794,0.1755029708147049,0.13291583955287933,0.7638088464736938,16.612756729125977,-79.64067077636719,-150.0,-5.4193010330200195,-79.49524688720703,150.0,0.07625079154968262,-0.006346916779875755,0.4296054244041443,0.08323610574007034,0.00559445284307003,0.36630311608314514
1,63,0.945,0.3558221459388733,-0.3806001842021942,-0.6800200343132019,0.1753348708152771,0.3901877999305725,0.6564030647277832,0.25151586532592773,-0.3690303862094879,-0.13067777454853058,0.12393692135810852,0.17580746114253998,0.8139839172363281,9.687649726867676,-65.81592559814453,-150.0,8.7018461227417,81.84843444824219,-127.35164642333984,0.08207036554813385,-0.006636632140725851,0.43037399649620056,0.08709367364645004,0.02920123189687729,0.3265819847583771
1,64,0.96,0.27235525846481323,-0.4012388586997986,-0.6334097385406494,0.14089752733707428,0.4604650139808655,0.7091718912124634,0.19251661002635956,-0.3836190104484558,-0.09773090481758118,0.0995946004986763,0.2254835069179535,0.8512840270996094,7.850345134735107,-85.02799987792969,-146.8316192626953,-8.831178665161133,-59.8146858215332,150.0,0.08475442975759506,-0.008741762489080429,0.43088629841804504,0.090442955493927,0.0373392254114151,0.3415603041648865
1,65,0.975,0.11692983657121658,-0.38650986552238464,-0.5644047260284424,0.14516626298427582,0.5187265872955322,0.7271430492401123,0.08265283703804016,-0.373207688331604,-0.04895417392253876,0.10261199623346329,0.2666661739349365,0.8639870882034302,-3.3464529514312744,-70.04090118408203,-149.2634735107422,2.1197681427001953,90.42080688476562,-150.0,0.08222246915102005,-0.00667392136529088,0.4265432357788086,0.09768859297037125,0.06971149146556854,0.30693352222442627
1,66,0.99,-0.08044752478599548,-0.32376930117607117,-0.49007511138916016,0.14899149537086487,0.5567220449447632,0.6672048568725586,-0.05686500668525696,-0.32885900139808655,0.003586355596780777,0.10531589388847351,0.2935236096382141,0.8216192722320557,-12.054421424865723,-76.15348815917969,-103.55532836914062,-11.953191757202148,-76.42839813232422,150.0,0.07627356052398682,-0.009795857593417168,0.42334893345832825,0.10390938818454742,0.08316252380609512,0.31485989689826965
1,67,1.005,-0.2633324861526489,-0.22216440737247467,-0.43762317299842834,0.14374324679374695,0.5626984238624573,0.5179401636123657,-0.18613877892494202,-0.25703874230384827,0.04066244140267372,0.10160611569881439,0.29774805903434753,0.7161102890968323,-22.765947341918945,-42.37098693847656,-113.3848876953125,-4.3503265380859375,85.08692169189453,-150.0,0.0732605904340744,-0.012349837459623814,0.4218907058238983,0.1044134646654129,0.11973269283771515,0.273862361907959
1,68,1.02,-0.35819628834724426,-0.1135348230600357,-0.42151424288749695,0.1395462304353714,0.5183318257331848,0.303282231092453,-0.25319406390190125,-0.1802530288696289,0.052049167454242706,0.09863942861557007,0.2663871645927429,0.5643775463104248,-38.80142593383789,-33.907020568847656,-103.73494720458984,1.9070765972137451,-99.69346618652344,150.0,0.0722004845738411,-0.016485825181007385,0.42426714301109314,0.0993158295750618,0.1325371265411377,0.2803077697753906
1,69,1.035,-0.40128394961357117,-0.027282655239105225,-0.41213035583496094,0.1183360368013382,0.42641955614089966,0.04667903482913971,-0.2836509346961975,-0.1192849725484848,0.058682240545749664,0.08364681899547577,0.2014181911945343,0.38299545645713806,-43.930419921875,-10.766996383666992,-128.07284545898438,10.791117668151855,63.05915069580078,-150.0,0.06963062286376953,-0.014778590761125088,0.42453521490097046,0.09614823013544083,0.15760774910449982,0.2473595291376114
1,70,1.05,-0.45278722047805786,0.014686436392366886,-0.39007067680358887,0.09217657148838043,0.2993972897529602,-0.22056736052036285,-0.3200564384460449,-0.08961877226829529,0.07427531480789185,0.06515578180551529,0.11163145303726196,0.1940901279449463,-41.62169647216797,-21.590940475463867,-96.19300842285156,-3.8987131118774414,-111.73221588134766,150.0,0.06502032279968262,-0.01726703904569149,0.42490196228027344,0.0926249772310257,0.1518983095884323,0.26873263716697693
1,71,1.065,-0.5120875835418701,0.000865800364408642,-0.3682187497615814,0.05522053688764572,0.14055681228637695,-0.4642787277698517,-0.3619734048843384,-0.0993880033493042,0.08972153067588806,0.03903310000896454,-0.0006462559103965759,0.02182072401046753,-48.20039367675781,-6.384635925292969,-113.1401596069336,5.1962571144104,46.62940216064453,-150.0,0.06673981249332428,-0.018512148410081863,0.42782703042030334,0.0813426598906517,0.15610074996948242,0.25286781787872314
1,72,1.08,-0.585310161113739,-0.04131222516298294,-0.3359057307243347,0.060958731919527054,-0.04166804626584053,-0.667017936706543,-0.4137313961982727,-0.12920188903808594,0.11256223917007446,0.04308919236063957,-0.1294534057378769,-0.12148718535900116,-64.04825592041016,-23.837575912475586,-101.33111572265625,12.801151275634766,-125.48275756835938,150.0,0.06352657079696655,-0.0250418558716774,0.43017444014549255,0.07492668926715851,0.1204640120267868,0.29714834690093994
1,73,1.095,-0.6744986176490784,-0.06160735338926315,-0.2840430438518524,0.10776425153017044,-0.21802935004234314,-0.8219713568687439,-0.47677499055862427,-0.1435476690530777,0.14922182261943817,0.0761740654706955,-0.25411584973335266,-0.23101727664470673,-58.97378158569336,-6.578737258911133,-99.74269104003906,8.112513542175293,58.78175354003906,-150.0,0.06278294324874878,-0.030595185235142708,0.43418553471565247,0.06768089532852173,0.09224522858858109,0.30515146255493164
1,74,1.1099999999999999,-0.7440418601036072,-0.05247266963124275,-0.22444795072078705,0.08132993429899216,-0.35410329699516296,-0.930465042591095,-0.525932252407074,-0.1370907425880432,0.19134710729122162,0.05748874694108963,-0.3503008484840393,-0.30770692229270935,-75.2796630859375,-14.466357231140137,-84.67424011230469,11.140548706054688,-107.43106842041016,103.04499816894531,0.06687245517969131,-0.041217755526304245,0.44348591566085815,0.0563456155359745,0.04698437079787254,0.31893664598464966
1,75,1.125,-0.7752284407615662,-0.02361391671001911,-0.15391705930233002,-0.04351712390780449,-0.4393896162509918,-0.9738218188285828,-0.5479767322540283,-0.1166916936635971,0.2412024438381195,-0.030760444700717926,-0.4105861783027649,-0.33835405111312866,-83.0699234008789,8.392711639404297,-100.48014831542969,9.144482612609863,34.84508514404297,-150.0,0.06855329871177673,-0.047642242163419724,0.44948601722717285,0.05141860246658325,0.02038864977657795,0.32113829255104065
1,76,1.14,-0.7585996389389038,0.02784862369298935,-0.0741686075925827,-0.2201913446187973,-0.47616612911224365,-0.915014922618866,-0.536222517490387,-0.08031497150659561,0.2975732982158661,-0.15564410388469696,-0.43658196926116943,-0.2967858910560608,-75.08234405517578,-6.286588668823242,-52.07613754272461,-22.635047912597656,-101.56266021728516,-150.0,0.07419849932193756,-0.05321416258811951,0.4532361924648285,0.045653607696294785,0.02196257747709751,0.31520727276802063
1,77,1.155,-0.6918095350265503,0.09526167809963226,0.001102401060052216,-0.38770875334739685,-0.4568128287792206,-0.7654099464416504,-0.48901137709617615,-0.032663494348526,0.3507792353630066,-0.2740551829338074,-0.4229019284248352,-0.1910364031791687,-78.10284423828125,12.26965618133545,-45.81100082397461,-28.196815490722656,-99.64537811279297,-126.02386474609375,0.08225345611572266,-0.05897846817970276,0.4581834375858307,0.037484392523765564,0.02586408331990242,0.3068050444126129
1,78,1.17,-0.586083710193634,0.14833559095859528,0.054493993520736694,-0.5086337327957153,-0.3967238664627075,-0.5791534185409546,-0.41427820920944214,0.004852239042520523,0.3885195255279541,-0.35953202843666077,-0.3804275393486023,-0.059379398822784424,-73.08978271484375,21.68291664123535,-41.87620544433594,-34.650787353515625,-95.84349822998047,-80.756591796875,0.09298589080572128,-0.06724393367767334,0.4665898084640503,0.026739120483398438,0.02784505859017372,0.2982730269432068
1,79,1.185,-0.44814133644104004,0.16633526980876923,0.05214483290910721,-0.5558311343193054,-0.3270852267742157,-0.409646213054657,-0.3167724609375,0.017575455829501152,0.3868589997291565,-0.39289391040802,-0.331202894449234,0.06043820083141327,-65.09674835205078,32.92003631591797,-54.941551208496094,-35.30023193359375,-80.06747436523438,-45.970428466796875,0.10710322111845016,-0.07728089392185211,0.4791682958602905,0.012155142612755299,0.027736661955714226,0.292245090007782
1,80,1.2,-0.31560230255126953,0.1685570627450943,-0.012592635117471218,-0.4658713936805725,-0.2667042315006256,-0.2993718683719635,-0.2230861335992813,0.01914595067501068,0.3410987854003906,-0.32930511236190796,-0.2885220944881439,0.13838651776313782,-60.316017150878906,40.8399772644043,-83.24098205566406,-19.826725006103516,-63.880760192871094,-33.286834716796875,0.11541976034641266,-0.08468049764633179,0.48821577429771423,0.002546408213675022,0.021004127338528633,0.2938176095485687
1,81,1.2149999999999999,-0.1690104752779007,0.15389452874660492,-0.10677581280469894,-0.30543649196624756,-0.2369074523448944,-0.25670063495635986,-0.11946646869182587,0.008781623095273972,0.27452462911605835,-0.21590034663677216,-0.2674599885940552,0.16854903101921082,-35.48064422607422,30.791893005371094,-86.6497802734375,-16.73973846435547,-46.67295837402344,-45.0369758605957,0.11040335148572922,-0.08689913898706436,0.4874104857444763,0.007220734376460314,0.015195914544165134,0.301374614238739
1,82,1.23,0.00369430985301733,0.10124512761831284,-0.17491985857486725,-0.23295608162879944,-0.23381556570529938,-0.2671715319156647,0.0026113539934158325,-0.02843404933810234,0.22635644674301147,-0.16466696560382843,-0.2652744650840759,0.1611475944519043,-1.009202003479004,15.486358642578125,-70.87701416015625,-32.60417938232422,-49.93622970581055,-63.49494934082031,0.11342374980449677,-0.09222596138715744,0.48987454175949097,0.004228826612234116,0.01270321849733591,0.30121803283691406
1,83,1.2449999999999999,0.1288978010416031,0.025248777121305466,-0.1661977618932724,-0.24949930608272552,-0.2454557716846466,-0.32687708735466003,0.09111249446868896,-0.08215269446372986,0.23252172768115997,-0.17636068165302277,-0.2735024392604828,0.11894422769546509,-14.862266540527344,15.217381477355957,-93.44287109375,-9.62829303741455,-61.38792037963867,-40.5172119140625,0.12336459755897522,-0.09953131526708603,0.4956250488758087,-0.005679471883922815,0.009958583861589432,0.2965448796749115
1,84,1.26,0.21008716523647308,-0.017490968108177185,-0.07789827138185501,-0.23433390259742737,-0.26886844635009766,-0.42651018500328064,0.14850187301635742,-0.11236363649368286,0.2949369549751282,-0.16564089059829712,-0.2900518774986267,0.04851773381233215,-12.104825019836426,10.732637405395508,-81.98436737060547,-4.254175186157227,-58.46907043457031,-56.455265045166016,0.12925417721271515,-0.10413756966590881,0.4984455704689026,-0.011379696428775787,0.006517360452562571,0.2939227819442749
1,85,1.275,0.25952908396720886,0.007285230327397585,0.07048570364713669,-0.11720430105924606,-0.2801654040813446,-0.5306764245033264,0.18345031142234802,-0.09485037624835968,0.399823397397995,-0.08284684270620346,-0.29803723096847534,-0.025113016366958618,2.0703277587890625,6.92293643951416,-36.60662841796875,-4.316793918609619,-60.635826110839844,-87.73766326904297,0.13628733158111572,-0.10919743031263351,0.5018209218978882,-0.018159475177526474,0.002587562659755349,0.29048794507980347
1,86,1.29,0.2158651202917099,0.06771529465913773,0.25578737258911133,0.020322013646364212,-0.2678735852241516,-0.6131964921951294,0.15258607268333435,-0.052134886384010315,0.5308054089546204,0.014364786446094513,-0.28934866189956665,-0.08344303071498871,-7.760917663574219,21.56751823425293,-5.788052558898926,13.409929275512695,-53.64668273925781,-98.20651245117188,0.1403128206729889,-0.11309707164764404,0.5034088492393494,-0.022016746923327446,-0.0013517203042283654,0.2895887494087219
1,87,1.305,0.13438016176223755,0.13866059482097626,0.44747892022132874,0.08267196267843246,-0.25857222080230713,-0.66305011510849,0.09498775005340576,-0.001986619085073471,0.6663041710853577,0.058437369763851166,-0.2827739119529724,-0.11868247389793396,-9.398306846618652,28.232433319091797,41.28282928466797,13.275047302246094,-54.230342864990234,-119.87754821777344,0.13872046768665314,-0.1151091679930687,0.5341785550117493,-0.023653516545891762,-0.003578259376809001,0.28976917266845703
1,88,1.3199999999999998,0.13925820589065552,0.2277676910161972,0.6215589642524719,0.1128976047039032,-0.2769838571548462,-0.6646925806999207,0.09843583405017853,0.06099947541952133,0.7893540859222412,0.07980261743068695,-0.29578831791877747,-0.11984346807003021,2.5409083366394043,37.94422149658203,-65.88077545166016,13.223823547363281,-56.71647644042969,-123.08961486816406,0.13416346907615662,-0.09314219653606415,0.5194410085678101,-0.023757977411150932,-0.004954029340296984,0.28836700320243835
1,89,1.335,0.21666505932807922,0.3119840919971466,0.7649762034416199,0.17205145955085754,-0.3001522421836853,-0.6360964179039001,0.1531515121459961,0.12052854895591736,0.8907297849655151,0.12161602079868317,-0.3121650815010071,-0.09963001310825348,8.038856506347656,-21.205615997314453,150.0,17.268356323242188,-64.42765045166016,-107.96601104736328,0.12790343165397644,-0.08936713635921478,0.5909188985824585,-0.02367454394698143,-0.010259179398417473,0.2902352511882782
1,90,1.3499999999999999,0.30663785338401794,0.36065760254859924,0.8446786403656006,0.22264543175697327,-0.3081388771533966,-0.6055753827095032,0.21674954891204834,0.15493379533290863,0.9470680356025696,0.15737879276275635,-0.3178105056285858,-0.0780559852719307,23.146181106567383,81.67894744873047,-150.0,20.33138656616211,-50.56208801269531,-124.49591827392578,0.12641796469688416,-0.05409642681479454,0.6120176911354065,-0.022908944636583328,-0.011220788583159447,0.29122620820999146
1,91,1.365,0.41153690218925476,0.3873840868473053,0.8191731572151184,0.17180907726287842,-0.30086708068847656,-0.5757498145103455,0.29089832305908203,0.17382563650608063,0.9290392994880676,0.1214446872472763,-0.31267037987709045,-0.056973543018102646,15.597373962402344,-71.3543701171875,150.0,16.230560302734375,-67.63468170166016,-98.14100646972656,0.12275911122560501,-0.030771922320127487,0.6663807034492493,-0.016501029953360558,-0.02023775316774845,0.30014824867248535
1,92,1.38,0.5077096819877625,0.4142508804798126,0.6880823969841003,0.030532123520970345,-0.2753317356109619,-0.5401915907859802,0.35887885093688965,0.19281665980815887,0.8363767266273499,0.02158188819885254,-0.2946205139160156,-0.03183893859386444,40.626468658447266,54.890438079833984,-150.0,-9.808215141296387,-36.02690505981445,-144.53964233398438,0.1292588859796524,0.00739221042022109,0.681456446647644,-0.010733897797763348,-0.02330092154443264,0.3084164261817932
1,93,1.395,0.5299140810966492,0.4357115626335144,0.46840012073516846,-0.12893721461296082,-0.24543491005897522,-0.4989268481731415,0.374574214220047,0.20798632502555847,0.6810925006866455,-0.09114035218954086,-0.2734876871109009,-0.002670586109161377,7.407075881958008,-69.39125061035156,150.0,-13.566022872924805,-52.04909133911133,-102.7620849609375,0.1350942850112915,0.023753367364406586,0.7302283644676208,-0.0006718686781823635,-0.03608829155564308,0.3210099935531616
1,94,1.41,0.4391307830810547,0.44675418734550476,0.1861790418624878,-0.29502370953559875,-0.21923133730888367,-0.47658830881118774,0.3104032874107361,0.21579191088676453,0.48160219192504883,-0.20853997766971588,-0.25496548414230347,0.013119619339704514,22.420469284057617,61.99615478515625,-150.0,-44.73991775512695,-17.81509017944336,-144.87954711914062,0.14996467530727386,0.05706604942679405,0.7397597432136536,0.005596710368990898,-0.03992908447980881,0.3286393880844116
1,95,1.425,0.24263878166675568,0.43790093064308167,-0.10561446845531464,-0.4160289466381073,-0.20191419124603271,-0.48022884130477905,0.17151126265525818,0.2095339000225067,0.2753455340862274,-0.29407355189323425,-0.2427247166633606,0.010546266101300716,-28.976276397705078,-73.7154541015625,101.04678344726562,-38.52056884765625,-42.079280853271484,-97.18445587158203,0.15198588371276855,0.0812394991517067,0.7422903776168823,0.018312886357307434,-0.05098836123943329,0.33957481384277344
1,96,1.44,0.04455481842160225,0.39326348900794983,-0.3644748628139496,-0.4583576023578644,-0.18691489100456238,-0.4686858654022217,0.03149394690990448,0.17798155546188354,0.09236791729927063,-0.3239939212799072,-0.23212234675884247,0.01870550960302353,4.237103462219238,16.548095703125,-150.0,-69.5724105834961,-13.013372421264648,-147.2107391357422,0.1542596071958542,0.11273514479398727,0.6841371059417725,0.025959786027669907,-0.05552737042307854,0.34363964200019836
1,97,1.4549999999999998,-0.02250388078391552,0.3250562846660614,-0.5811932682991028,-0.4993939995765686,-0.16792842745780945,-0.4138849675655365,-0.015907056629657745,0.1297687292098999,-0.06082125008106232,-0.35300084948539734,-0.21870160102844238,0.05744197964668274,-32.41366958618164,-83.8307876586914,150.0,-48.16463088989258,-30.89834976196289,-80.04979705810547,0.1378139853477478,0.11371471732854843,0.6687523126602173,0.041687481105327606,-0.06814199686050415,0.3536490499973297
1,98,1.47,-0.006742062978446484,0.25656673312187195,-0.7550608515739441,-0.5702720284461975,-0.1680789738893509,-0.3441658914089203,-0.00476568378508091,0.08135632425546646,-0.18372105062007904,-0.4031015634536743,-0.21880801022052765,0.10672348737716675,26.438322067260742,45.01863479614258,-150.0,-85.52871704101562,-3.232931137084961,-124.03916931152344,0.12750846147537231,0.12390221655368805,0.6186230778694153,0.05068840831518173,-0.07387121021747589,0.35713863372802734
1,99,1.4849999999999999,-0.02227824181318283,0.2109699696302414,-0.8830862045288086,-0.6060675978660583,-0.19821080565452576,-0.29433566331863403,-0.015747562050819397,0.04912586510181427,-0.27421677112579346,-0.42840397357940674,-0.2401069551706314,0.14194639027118683,-17.20210075378418,-81.2624282836914,141.80357360839844,-62.18415832519531,-29.938636779785156,-56.132198333740234,0.10171397775411606,0.11548709124326706,0.6001260280609131,0.07225997000932693,-0.09004031121730804,0.3712848424911499
1,100,1.5,-0.07688345015048981,0.17751319706439972,-0.9670071601867676,-0.5905731320381165,-0.2419268786907196,-0.26224926114082336,-0.054345712065696716,0.025476675480604172,-0.3335370421409607,-0.41745156049728394,-0.2710080146789551,0.16462692618370056,35.34387969970703,45.69606399536133,-150.0,-100.89186096191406,-1.9908905029296875,-126.49884033203125,0.09431540966033936,0.11688373237848282,0.5425064563751221,0.07988452166318893,-0.09691157937049866,0.3751949071884155
1,101,1.515,-0.1800687164068222,0.1100832000374794,-1.0,-0.591400682926178,-0.2793103754520416,-0.23960812389850616,-0.12728308141231537,-0.022186778485774994,-0.360146701335907,-0.418036550283432,-0.2974328398704529,0.18063101172447205,-37.17839813232422,-78.42183685302734,150.0,-57.93000793457031,-37.526458740234375,-46.28163528442383,0.0728374645113945,0.09525248408317566,0.5261754989624023,0.09709233790636063,-0.11212971061468124,0.3885566294193268
1,102,1.53,-0.33200252056121826,0.005452852696180344,-0.9870134592056274,-0.6066412329673767,-0.29980775713920593,-0.21856124699115753,-0.23467877507209778,-0.09614560753107071,-0.34767863154411316,-0.4288094639778137,-0.3119215965270996,0.1955081671476364,12.821151733398438,51.211875915527344,-150.0,-97.80687713623047,-8.099479675292969,-116.90643310546875,0.05948692187666893,0.08646371215581894,0.4725140333175659,0.10301859676837921,-0.12165649235248566,0.3936675190925598
1,103,1.545,-0.43989694118499756,-0.1252923160791397,-0.9266534447669983,-0.5434572100639343,-0.3019925355911255,-0.1799500435590744,-0.3109448552131653,-0.18856391310691833,-0.30501267313957214,-0.3841472864151001,-0.3134659230709076,0.2228008210659027,-40.85075378417969,-95.29064178466797,150.0,-56.037960052490234,-31.36920928955078,-47.00412368774414,0.03967545926570892,0.050417862832546234,0.46739593148231506,0.10804922878742218,-0.13700564205646515,0.4016443192958832
1,104,1.56,-0.44932252168655396,-0.2711730897426605,-0.8656222820281982,-0.3776800036430359,-0.29833823442459106,-0.12274104356765747,-0.31760740280151367,-0.2916809320449829,-0.261872261762619,-0.2669662833213806,-0.3108828365802765,0.26323947310447693,-2.1513710021972656,50.91388702392578,-150.0,-56.179988861083984,-2.751110076904297,-78.58738708496094,0.017899781465530396,0.01954476721584797,0.42621830105781555,0.10878927260637283,-0.15052379667758942,0.40815630555152893
1,105,1.575,-0.41260528564453125,-0.3989672064781189,-0.8348866701126099,-0.21536999940872192,-0.31205785274505615,-0.07745026051998138,-0.29165351390838623,-0.3820132613182068,-0.24014656245708466,-0.15223608911037445,-0.3205806612968445,0.2952536344528198,-12.752002716064453,-79.96737670898438,150.0,-29.343904495239258,-13.599903106689453,-45.14630889892578,-0.002736978232860565,-0.028744595125317574,0.45876914262771606,0.11089719831943512,-0.1744430661201477,0.41956615447998047
1,106,1.5899999999999999,-0.37505289912223816,-0.5077608823776245,-0.834540605545044,-0.13556377589702606,-0.34330448508262634,-0.07277470082044601,-0.2651093006134033,-0.45891499519348145,-0.23990193009376526,-0.09582439064979553,-0.3426676094532013,0.2985585927963257,0.13336753845214844,41.96800994873047,-150.0,-29.898265838623047,12.058162689208984,-81.03441619873047,-0.026643354445695877,-0.06191300228238106,0.4649607837200165,0.11614667624235153,-0.19603098928928375,0.43315765261650085
1,107,1.605,-0.3281927704811096,-0.5853551626205444,-0.8485560417175293,-0.07049144804477692,-0.3708043098449707,-0.08910981565713882,-0.23198582231998444,-0.5137631297111511,-0.2498088926076889,-0.04982747137546539,-0.3621060848236084,0.287011981010437,6.762914657592773,-88.77030944824219,56.975677490234375,-28.230667114257812,-1.5450820922851562,-76.54617309570312,-0.03930170089006424,-0.09340787678956985,0.48191776871681213,0.12250548601150513,-0.22336000204086304,0.4482157826423645
1,108,1.6199999999999999,-0.2080949991941452,-0.6136231422424316,-0.8576043844223022,0.020082594826817513,-0.36235442757606506,-0.09481319785118103,-0.14709369838237762,-0.5337445735931396,-0.2562047839164734,0.014195550233125687,-0.35613322257995605,0.2829805016517639,1.0724821090698242,-5.319328308105469,-150.0,-21.846664428710938,21.437824249267578,-98.44869995117188,-0.04396539926528931,-0.1157701313495636,0.4763936996459961,0.12508100271224976,-0.2436184138059616,0.4586673676967621
1,109,1.635,-0.0029782995115965605,-0.6349446177482605,-0.8255171775817871,0.11153575778007507,-0.3124869763851166,-0.07388237118721008,-0.002105236053466797,-0.5488158464431763,-0.23352360725402832,0.0788399875164032,-0.32088398933410645,0.29777562618255615,10.085290908813477,-70.84680938720703,-150.0,-9.45455265045166,11.398843765258789,-64.4670639038086,-0.04973316565155983,-0.12569761276245117,0.4775712788105011,0.13020357489585876,-0.2594020366668701,0.46293821930885315
1,110,1.65,0.18961718678474426,-0.6600211262702942,-0.7291433215141296,0.2213706523180008,-0.2300642728805542,-0.001448548398911953,0.1340325027704239,-0.5665413737297058,-0.16540104150772095,0.15647770464420319,-0.2626228332519531,0.3489760756492615,30.05849838256836,-78.439453125,-150.0,-4.089358806610107,21.637680053710938,-43.37471008300781,-0.05004167929291725,-0.13348908722400665,0.4788568913936615,0.12976962327957153,-0.26810216903686523,0.4596685469150543
1,111,1.665,0.2896420657634735,-0.6627830266952515,-0.6119325757026672,0.3353865444660187,-0.1294652670621872,0.12585987150669098,0.2047359198331833,-0.568493664264679,-0.08254961669445038,0.23707079887390137,-0.19151359796524048,0.4389650821685791,28.00720977783203,-80.12161254882812,-150.0,16.73638916015625,26.28195571899414,6.7724809646606445,-0.0530221164226532,-0.1429552435874939,0.477183073759079,0.1345459222793579,-0.27429285645484924,0.4557296335697174
1,112,1.68,0.33955463767051697,-0.6339747309684753,-0.5310893058776855,0.37614545226097107,-0.05595018342137337,0.28021320700645447,0.24001704156398773,-0.5481302738189697,-0.02540487051010132,0.26588156819343567,-0.13954885303974152,0.548071026802063,41.258419036865234,-69.96600341796875,-137.7487030029297,6.211382865905762,34.5654182434082,34.318878173828125,-0.055670954287052155,-0.15074048936367035,0.47599488496780396,0.13986170291900635,-0.273727148771286,0.4745258688926697
1,113,1.6949999999999998,0.3682319223880768,-0.5780541896820068,-0.5094026327133179,0.30770471692085266,-0.017271537333726883,0.43809887766838074,0.2602878212928772,-0.5086023807525635,-0.010075494647026062,0.21750366687774658,-0.1122085303068161,0.659673810005188,41.30095291137695,-64.35191345214844,-139.28651428222656,2.5000925064086914,26.183185577392578,-41.637054443359375,-0.05249139666557312,-0.15896038711071014,0.4778788387775421,0.13961853086948395,-0.2531265616416931,0.46386101841926575
1,114,1.71,0.3554264008998871,-0.5303817987442017,-0.5359350442886353,0.2225995659828186,0.031046312302350998,0.5880329012870789,0.2512361407279968,-0.47490474581718445,-0.028830118477344513,0.15734636783599854,-0.07805465906858444,0.7656559348106384,28.995059967041016,-53.60361862182617,-150.0,5.9973249435424805,-18.720458984375,150.0,-0.051764603704214096,-0.1678963601589203,0.47997668385505676,0.1392112523317337,-0.2536088526248932,0.55721515417099
1,115,1.7249999999999999,0.36972105503082275,-0.5249665975570679,-0.561297595500946,0.2260998636484146,0.11677230149507523,0.7050297856330872,0.2613404393196106,-0.47107696533203125,-0.04675784334540367,0.1598205864429474,-0.017458535730838776,0.8483561277389526,39.40447998046875,-44.73680877685547,-150.0,3.2020654678344727,85.75633239746094,-150.0,-0.048970118165016174,-0.17356066405773163,0.479281485080719,0.13787391781806946,-0.21955221891403198,0.5966010093688965
1,116,1.74,0.4483485817909241,-0.5396366119384766,-0.5456470251083374,0.2793135344982147,0.23379120230674744,0.7664369940757751,0.3169189691543579,-0.48144659399986267,-0.035695139318704605,0.19743511080741882,0.0652572512626648,0.891762375831604,38.594215393066406,-59.9775390625,-140.45205688476562,8.00739860534668,-59.15787887573242,150.0,-0.04944612830877304,-0.18003195524215698,0.47667545080184937,0.13822415471076965,-0.194102942943573,0.6675323843955994
1,117,1.755,0.5460028648376465,-0.545371413230896,-0.5044804811477661,0.31154853105545044,0.3714773654937744,0.7624201774597168,0.38594669103622437,-0.4855002760887146,-0.006596218794584274,0.220220685005188,0.16258186101913452,0.8889230489730835,55.407432556152344,-51.903568267822266,-139.64442443847656,10.3449125289917,77.3502197265625,-150.0,-0.05049750953912735,-0.18232974410057068,0.472200870513916,0.1419055163860321,-0.14371900260448456,0.693641185760498
1,118,1.77,0.6339725852012634,-0.5273025631904602,-0.4665159583091736,0.3254883885383606,0.5106769800186157,0.6682237386703491,0.4481288492679596,-0.4727281630039215,0.020239323377609253,0.2300741970539093,0.26097625494003296,0.8223394751548767,60.0197639465332,-61.70703887939453,-113.66854858398438,2.7492523193359375,-58.03522491455078,150.0,-0.047456592321395874,-0.18825213611125946,0.47277554869651794,0.14010809361934662,-0.1001296266913414,0.7494828104972839
1,119,1.785,0.6607047319412231,-0.46452054381370544,-0.43053990602493286,0.2890113890171051,0.6141524314880371,0.474071204662323,0.46702468395233154,-0.42835018038749695,0.045669298619031906,0.20429012179374695,0.33411872386932373,0.6851011514663696,56.81074523925781,-36.559722900390625,-137.25811767578125,15.340239524841309,62.92088317871094,-150.0,-0.04780014604330063,-0.191206157207489,0.47075358033180237,0.1443091481924057,-0.04022146388888359,0.7642659544944763
1,120,1.7999999999999998,0.5494042038917542,-0.37826642394065857,-0.4017694294452667,0.1864805370569229,0.6418561935424805,0.2159135639667511,0.3883509635925293,-0.3673807382583618,0.06600595265626907,0.1318153291940689,0.3537013828754425,0.502620279788971,55.98258972167969,-35.79160690307617,-101.64049530029297,-14.393324851989746,-65.1292495727539,144.96707153320312,-0.047483984380960464,-0.19710414111614227,0.4703404903411865,0.14333605766296387,0.006674114149063826,0.8073919415473938
1,121,1.815,0.37185052037239075,-0.30501899123191833,-0.38375982642173767,0.06647329032421112,0.583609402179718,-0.055385757237672806,0.2628456652164459,-0.31560519337654114,0.07873618602752686,0.04698720574378967,0.31252914667129517,0.3108501136302948,35.91478729248047,-10.932003021240234,-123.14647674560547,-1.5077781677246094,29.89145278930664,-150.0,-0.04770318791270256,-0.20110900700092316,0.4681367576122284,0.13780558109283447,0.06002224609255791,0.8114370703697205
1,122,1.8299999999999998,0.28427937626838684,-0.2680855691432953,-0.3633762300014496,-0.033357638865709305,0.46159759163856506,-0.31202420592308044,0.20094525814056396,-0.289498507976532,0.0931444987654686,-0.023579128086566925,0.22628407180309296,0.12944310903549194,32.319557189941406,-13.737344741821289,-94.81560516357422,-14.0248384475708,-89.10307312011719,43.544769287109375,-0.044566281139850616,-0.2075372040271759,0.46722012758255005,0.1234765350818634,0.0996716171503067,0.7675253748893738
1,123,1.845,0.3126413822174072,-0.25765731930732727,-0.331575870513916,-0.05017155036330223,0.3341035842895508,-0.5393176674842834,0.22099319100379944,-0.2821272015571594,0.1156228557229042,-0.03546418249607086,0.1361638903617859,-0.031221166253089905,24.9190731048584,-3.7318315505981445,-109.72543334960938,8.405073165893555,-25.215641021728516,-150.0,-0.039323579519987106,-0.21178597211837769,0.46651679277420044,0.10579051822423935,0.1362711489200592,0.6349315643310547
1,124,1.8599999999999999,0.39897146821022034,-0.23674175143241882,-0.27633848786354065,0.0445542149245739,0.2632187306880951,-0.7228842973709106,0.2820163369178772,-0.26734286546707153,0.15466783940792084,0.031493522226810455,0.08605833351612091,-0.16097673773765564,32.50572204589844,-7.70985746383667,-87.11947631835938,11.508116722106934,-93.25753021240234,150.0,-0.03601241111755371,-0.21743203699588776,0.46706661581993103,0.0918320044875145,0.13459892570972443,0.5667497515678406
1,125,1.875,0.4470694065093994,-0.21799330413341522,-0.20923829078674316,0.19637559354305267,0.25429657101631165,-0.8591558337211609,0.31601476669311523,-0.2540903687477112,0.20209817588329315,0.13880974054336548,0.0797516405582428,-0.2573014199733734,37.058990478515625,6.9975199699401855,-90.1454849243164,26.336685180664062,49.768402099609375,-150.0,-0.03647103160619736,-0.21981310844421387,0.4645175337791443,0.08649014681577682,0.1435704380273819,0.4595956802368164
1,126,1.89,0.39980021119117737,-0.234148308634758,-0.15010814368724823,0.2988201379776001,0.25962090492248535,-0.9536573886871338,0.28260213136672974,-0.2655096650123596,0.2438948154449463,0.2112235277891159,0.08351518958806992,-0.32410064339637756,43.033817291259766,-7.102890968322754,-48.34129333496094,13.004587173461914,-80.99532318115234,150.0,-0.042517684400081635,-0.22576390206813812,0.4611927568912506,0.0911862775683403,0.13147825002670288,0.39916273951530457
1,127,1.905,0.31580597162246704,-0.28105488419532776,-0.09542664885520935,0.2622547149658203,0.20788750052452087,-1.0,0.22323009371757507,-0.29866597056388855,0.28254687786102295,0.18537694215774536,0.046946991235017776,-0.3645055890083313,40.522254943847656,-1.2146692276000977,-54.144989013671875,4.4423441886901855,62.959312438964844,-150.0,-0.04421665892004967,-0.2322729229927063,0.46255916357040405,0.09225065261125565,0.13621819019317627,0.2947387397289276
1,128,1.92,0.2521573603153229,-0.3486855626106262,-0.04299001768231392,0.14240975677967072,0.06829115748405457,-1.0,0.17823953926563263,-0.34647127985954285,0.31961214542388916,0.10066353529691696,-0.05172783136367798,-0.37630417943000793,26.353548049926758,-10.498351097106934,-46.95730209350586,1.6451935768127441,-106.22036743164062,150.0,-0.03699830546975136,-0.2510203421115875,0.4730488955974579,0.07623682171106339,0.148376002907753,0.3704754710197449
1,129,1.9349999999999998,0.21442696452140808,-0.4269087016582489,-0.012316982261836529,0.07731207460165024,-0.12244132161140442,-1.0,0.15156950056552887,-0.4017639458179474,0.3412936329841614,0.054648689925670624,-0.18654866516590118,-0.36628860235214233,9.490503311157227,5.040424346923828,-84.0782470703125,25.94422721862793,-28.84878921508789,-150.0,-0.03873182833194733,-0.26837196946144104,0.48071977496147156,0.07286976277828217,0.14769040048122406,0.44732609391212463
1,130,1.95,0.18641549348831177,-0.509307861328125,-0.029486646875739098,0.09713055193424225,-0.2693006694316864,-0.9948222041130066,0.1317693591117859,-0.4600084722042084,0.32915711402893066,0.06865754723548889,-0.29035741090774536,-0.3531983494758606,30.511817932128906,-15.00743293762207,-56.875614166259766,-9.668416023254395,-118.7853775024414,-150.0,-0.031639110296964645,-0.2923773229122162,0.4952210485935211,0.06417479366064072,0.15933360159397125,0.31590479612350464
1,131,1.9649999999999999,0.15028448402881622,-0.567473292350769,-0.07310862094163895,0.11196836084127426,-0.29623663425445557,-0.9845302104949951,0.10622984915971756,-0.5011231899261475,0.29832255840301514,0.07914577424526215,-0.30939731001853943,-0.3459233045578003,-1.5558452606201172,-1.26519775390625,-113.74345397949219,22.896183013916016,-120.9345474243164,150.0,-0.02995598502457142,-0.31799769401550293,0.5096378922462463,0.06464644521474838,0.11408399045467377,0.338847279548645
1,132,1.98,0.10799374431371689,-0.5883636474609375,-0.09601294994354248,0.10343743115663528,-0.26085349917411804,-0.9802135229110718,0.07633628696203232,-0.5158897042274475,0.28213244676589966,0.07311561703681946,-0.28438645601272583,-0.34287208318710327,18.357872009277344,1.1617317199707031,-101.74671936035156,-9.294502258300781,64.48130798339844,-150.0,-0.029612747952342033,-0.33522510528564453,0.5209384560585022,0.06640520691871643,0.07975292205810547,0.35781434178352356
1,133,1.9949999999999999,0.10524850338697433,-0.6075852513313293,-0.09724874794483185,0.15334492921829224,-0.24936318397521973,-0.9784632325172424,0.0743957906961441,-0.5294766426086426,0.2812589108943939,0.10839314758777618,-0.2762644290924072,-0.3416348397731781,9.498435974121094,-16.325531005859375,-98.84324645996094,6.264028072357178,-75.8382797241211,44.65789794921875,-0.029902903363108635,-0.3553788363933563,0.5308881402015686,0.0656609758734703,0.07365475594997406,0.40413451194763184
1,134,2.01,0.17819085717201233,-0.6223942637443542,-0.0999174565076828,0.22126752138137817,-0.27704620361328125,-0.965000331401825,0.1259557008743286,-0.5399445295333862,0.27937251329421997,0.15640480816364288,-0.29583239555358887,-0.3321184813976288,20.975248336791992,-3.4436569213867188,-103.28536224365234,11.036495208740234,-42.60336685180664,-150.0,-0.032170798629522324,-0.3728674650192261,0.5396887063980103,0.06924989074468613,0.07275039702653885,0.3726263642311096
1,135,2.025,0.2925482392311096,-0.6187223196029663,-0.10244487971067429,0.19994917511940002,-0.3281020522117615,-0.9355932474136353,0.20679017901420593,-0.5373489856719971,0.2775859832763672,0.14133575558662415,-0.33192163705825806,-0.3113318383693695,30.796611785888672,-8.79701042175293,-101.43390655517578,2.137833595275879,-109.87620544433594,137.9295196533203,-0.03113478794693947,-0.3914300799369812,0.5491923689842224,0.06770141422748566,0.008304176852107048,0.501646876335144
1,136,2.04,0.3712203800678253,-0.6206172108650208,-0.08371346443891525,0.11977588385343552,-0.3746640682220459,-0.9135191440582275,0.26240023970603943,-0.5386884212493896,0.2908264398574829,0.08466459065675735,-0.36483439803123474,-0.29572856426239014,34.53776550292969,8.564729690551758,-107.28179168701172,6.616837978363037,88.69719696044922,-150.0,-0.03254702687263489,-0.4028898775577545,0.5545273423194885,0.06803088635206223,-0.03448958694934845,0.5610999464988708
1,137,2.0549999999999997,0.39344653487205505,-0.644733726978302,-0.017770467326045036,0.0615612268447876,-0.38990318775177,-0.9102007150650024,0.27811098098754883,-0.5557353496551514,0.33743879199028015,0.04351507127285004,-0.3756062984466553,-0.2933829426765442,40.580936431884766,-20.33273696899414,-70.69190216064453,-7.062197685241699,-60.23015594482422,-116.85035705566406,-0.03211738169193268,-0.4146232604980469,0.5573281645774841,0.06852169334888458,-0.04377836361527443,0.4853180944919586
1,138,2.07,0.4322044849395752,-0.6731452941894531,0.11283794045448303,0.030785441398620605,-0.3695610463619232,-0.9028640985488892,0.3055073618888855,-0.5758183002471924,0.4297604262828827,0.02176094800233841,-0.36122727394104004,-0.2881969213485718,37.03653335571289,-13.884061813354492,-42.695526123046875,-4.042661666870117,-28.54875946044922,-150.0,-0.024236373603343964,-0.4251194894313812,0.5596936345100403,0.06150755286216736,-0.05855116620659828,0.4957868456840515
1,139,2.085,0.49122777581214905,-0.6727584004402161,0.28151029348373413,-0.023572467267513275,-0.3581927418708801,-0.8631277084350586,0.347228467464447,-0.5755448341369629,0.548987865447998,-0.016662396490573883,-0.3531914949417114,-0.26010894775390625,30.41571807861328,-20.95108413696289,-11.781898498535156,3.3309316635131836,-42.21651077270508,-150.0,-0.014933872036635876,-0.43379950523376465,0.5580554604530334,0.056650709360837936,-0.07276158034801483,0.5059184432029724
1,140,2.1,0.4819522798061371,-0.611039936542511,0.44687768816947937,-0.07711941003799438,-0.394225537776947,-0.8014349341392517,0.34067201614379883,-0.5319186449050903,0.6658791899681091,-0.05451250448822975,-0.378661572933197,-0.21650093793869019,32.323509216308594,-4.837322235107422,45.35100173950195,-11.644886016845703,-34.945030212402344,-150.0,0.010282275266945362,-0.45108047127723694,0.5932577252388,0.044981230050325394,-0.08720812201499939,0.5117345452308655
1,141,2.1149999999999998,0.3582879900932312,-0.477336049079895,0.5987257957458496,-0.03642917424440384,-0.47269973158836365,-0.7563663721084595,0.2532588839530945,-0.4374089241027832,0.7732142806053162,-0.025750266388058662,-0.4341317117214203,-0.18464384973049164,-16.075956344604492,33.593231201171875,-118.09776306152344,10.961750030517578,-49.103416442871094,-150.0,0.03167276829481125,-0.43904638290405273,0.5527271628379822,0.03795386478304863,-0.09963154047727585,0.5164399147033691
1,142,2.13,0.18174640834331512,-0.3020639717578888,0.7325661778450012,0.10295141488313675,-0.5662673711776733,-0.7268940210342407,0.12846897542476654,-0.31351640820503235,0.8678204417228699,0.0727720707654953,-0.5002707839012146,-0.16381104290485382,27.719287872314453,-29.106237411499023,150.0,2.3550946712493896,-71.035400390625,-150.0,0.03123658522963524,-0.4441796541213989,0.6632570624351501,0.029677001759409904,-0.11112970858812332,0.5186167359352112
1,143,2.145,0.07876227796077728,-0.14220020174980164,0.8356432318687439,0.250929594039917,-0.6490839719772339,-0.6755543947219849,0.05567377805709839,-0.20051538944244385,0.9406813383102417,0.17737168073654175,-0.5588103532791138,-0.12752121686935425,-3.708052396774292,90.89070129394531,-150.0,33.44268035888672,-74.3086166381836,-150.0,0.027972064912319183,-0.4126906991004944,0.7218008041381836,0.028889192268252373,-0.11989718675613403,0.5233061909675598
1,144,2.16,0.10356359928846359,-0.017530176788568497,0.8886117339134216,0.29795050621032715,-0.6912903189659119,-0.6095958948135376,0.07320480048656464,-0.11239135265350342,0.9781225323677063,0.2106088101863861,-0.58864426612854,-0.08089791983366013,17.194026947021484,-47.27098083496094,150.0,14.99949836730957,-84.84307098388672,-150.0,0.02763279899954796,-0.3867324888706207,0.807895302772522,0.024752888828516006,-0.13424339890480042,0.527305006980896
1,145,2.175,0.18649132549762726,0.09322337806224823,0.8690468668937683,0.22464331984519958,-0.6732803583145142,-0.5581388473510742,0.13182295858860016,-0.03410428762435913,0.9642930030822754,0.15879102051258087,-0.5759137868881226,-0.044525064527988434,9.063931465148926,62.874752044677734,-150.0,25.54132843017578,-66.20899963378906,-150.0,0.026667458936572075,-0.3353424072265625,0.8499849438667297,0.025986915454268456,-0.1454010307788849,0.5340478420257568
1,146,2.19,0.2404664009809494,0.2032460868358612,0.7660211324691772,0.08876771479845047,-0.6097641587257385,-0.5192385911941528,0.16997569799423218,0.04366618022322655,0.8914684057235718,0.06274620443582535,-0.5310168266296387,-0.01702810451388359,22.019865036010742,-51.76158142089844,150.0,-3.823726177215576,-64.75906372070312,-150.0,0.03517553210258484,-0.2940298318862915,0.9224833250045776,0.01990557834506035,-0.15778811275959015,0.5383052229881287
1,147,2.205,0.22494074702262878,0.294727623462677,0.5758494138717651,-0.05715177208185196,-0.524107813835144,-0.4822428524494171,0.15900126099586487,0.10833065956830978,0.7570438981056213,-0.040398210287094116,-0.47046995162963867,0.009122652933001518,-4.133485794067383,46.2509651184082,-150.0,7.679004669189453,-44.84921646118164,-150.0,0.04437379911541939,-0.23324809968471527,0.955424427986145,0.014907753095030785,-0.16484063863754272,0.5421901941299438
1,148,2.2199999999999998,0.11274166405200958,0.32947394251823425,0.30791932344436646,-0.16547401249408722,-0.44251763820648193,-0.4365841746330261,0.07969239354133606,0.13289138674736023,0.5676553249359131,-0.11696669459342957,-0.4127972424030304,0.0413968451321125,-2.423905849456787,-62.04158020019531,49.616485595703125,-14.703656196594238,-41.760250091552734,-150.0,0.05488735809922218,-0.17697980999946594,0.9415777921676636,0.0039168004877865314,-0.17057816684246063,0.5409715175628662
1,149,2.235,-0.07711303979158401,0.31318625807762146,0.005958792753517628,-0.2015930563211441,-0.37231436371803284,-0.37624409794807434,-0.05450800061225891,0.12137830257415771,0.3542120158672333,-0.14249774813652039,-0.3631734848022461,0.08404875546693802,-28.192569732666016,-10.207096099853516,-150.0,2.0095443725585938,-33.04066467285156,-131.27072143554688,0.05185281112790108,-0.11945940554141998,0.8376054763793945,-0.0026565506123006344,-0.17365281283855438,0.5406373143196106
1,150,2.25,-0.2564149796962738,0.2667618989944458,-0.28127869963645935,-0.1289130300283432,-0.31493040919303894,-0.30461663007736206,-0.18124908208847046,0.08856285363435745,0.1511758267879486,-0.09112326055765152,-0.32261115312576294,0.13467921316623688,-12.345304489135742,-69.9415283203125,150.0,-7.633617401123047,-26.69057273864746,-123.55894470214844,0.030908849090337753,-0.09012342244386673,0.773565948009491,-0.0032488617580384016,-0.1811724603176117,0.5452836751937866
1,151,2.265,-0.3188493847846985,0.20927444100379944,-0.5289115309715271,0.0013048506807535887,-0.29123783111572266,-0.2361576110124588,-0.22538137435913086,0.0479273721575737,-0.023865491151809692,0.0009223446249961853,-0.3058638572692871,0.18307003378868103,7.667182922363281,19.919933319091797,-150.0,-1.9915814399719238,-8.632474899291992,-130.95858764648438,0.0068098497577011585,-0.0538303442299366,0.673679530620575,-0.0026923506520688534,-0.18300825357437134,0.5489104390144348
1,152,2.28,-0.2849879860877991,0.17754098773002625,-0.7176136374473572,0.05681748315691948,-0.30395394563674927,-0.1758759617805481,-0.20144614577293396,0.025496311485767365,-0.15725116431713104,0.04016191512346268,-0.31485235691070557,0.2256806194782257,3.9699668884277344,-79.79008483886719,150.0,4.289723873138428,-29.680614471435547,-100.35449981689453,-0.0169212706387043,-0.04442047327756882,0.6173363924026489,-0.0030215485021471977,-0.1899235099554062,0.5540809035301208
1,153,2.295,-0.23335526883602142,0.1739347130060196,-0.835034191608429,0.007750122342258692,-0.3281671404838562,-0.12405677884817123,-0.16494913399219513,0.022947194054722786,-0.24025088548660278,0.0054782391525805,-0.33196765184402466,0.2623094320297241,17.713424682617188,47.754493713378906,-150.0,0.6122304201126099,-13.332916259765625,-111.75038146972656,-0.04267233982682228,-0.0219507347792387,0.5202829241752625,0.002143002115190029,-0.19365882873535156,0.5627413988113403
1,154,2.31,-0.17704614996910095,0.15600287914276123,-0.8878548741340637,-0.0791274830698967,-0.348553329706192,-0.09883027523756027,-0.1251465529203415,0.010271924547851086,-0.2775875926017761,-0.055931925773620605,-0.34637778997421265,0.2801409959793091,21.022876739501953,-76.13911437988281,150.0,-16.022550582885742,-25.98528289794922,-105.1036605834961,-0.05222449079155922,-0.023617615923285484,0.4690701365470886,-0.004284292459487915,-0.20086434483528137,0.5665491223335266
1,155,2.3249999999999997,-0.1799868941307068,0.07883686572313309,-0.8814297318458557,-0.16319619119167328,-0.3645886480808258,-0.09610553830862045,-0.12722525000572205,-0.044273510575294495,-0.27304595708847046,-0.11535659432411194,-0.3577125072479248,0.2820670008659363,-3.5270252227783203,50.59734344482422,-150.0,2.14528751373291,-19.40840721130371,-94.84855651855469,-0.05343569070100784,-0.004810132086277008,0.40574967861175537,-0.011050596833229065,-0.20748406648635864,0.5706897377967834
1,156,2.34,-0.2730943560600281,-0.052292197942733765,-0.8036912083625793,-0.25195881724357605,-0.3695910573005676,-0.10168908536434174,-0.19303902983665466,-0.13696317374706268,-0.2180958241224289,-0.17809921503067017,-0.3612484931945801,0.278120219707489,-42.029747009277344,-150.0,-19.077117919921875,-16.040491104125977,-20.873016357421875,-99.09429168701172,-0.054014310240745544,-0.010632109828293324,0.40640828013420105,-0.013001998886466026,-0.21872389316558838,0.5759415626525879
1,157,2.355,-0.39832305908203125,-0.1960797756910324,-0.6552712321281433,-0.3525199592113495,-0.34916532039642334,-0.11388666927814484,-0.28155800700187683,-0.23860062658786774,-0.11318391561508179,-0.24918168783187866,-0.34681040048599243,0.2694982588291168,-17.225868225097656,3.8687667846679688,-150.0,-26.28662109375,-8.100166320800781,-110.04837799072266,-0.05851564556360245,-0.006891651079058647,0.4017884135246277,-0.010334989055991173,-0.2228306382894516,0.5810149312019348
1,158,2.37,-0.5180254578590393,-0.32044851779937744,-0.4687536954879761,-0.40074479579925537,-0.30865412950515747,-0.11217950284481049,-0.36617064476013184,-0.3265116810798645,0.018657557666301727,-0.28326982259750366,-0.31817471981048584,0.270704984664917,-28.51844024658203,-79.2020263671875,-85.10587310791016,-40.06895065307617,-16.82179832458496,-98.57808685302734,-0.054412685334682465,-0.006866783834993839,0.39528897404670715,-0.015208463184535503,-0.22622562944889069,0.5766620635986328
1,159,2.385,-0.5983425378799438,-0.3890048563480377,-0.29336440563201904,-0.3164699971675873,-0.2538667321205139,-0.10135162621736526,-0.42294344305992126,-0.37497130036354065,0.14263293147087097,-0.22369948029518127,-0.2794477939605713,0.2783587574958801,-56.82486343383789,-84.83619689941406,-65.25323486328125,-11.67932415008545,-16.591060638427734,-68.22893524169922,-0.05318702012300491,-0.00241140672005713,0.3904375433921814,-0.01749725453555584,-0.22598709166049957,0.5762439966201782
1,160,2.4,-0.5680713653564453,-0.3840121328830719,-0.18437239527702332,-0.12030133605003357,-0.1950867474079132,-0.11877181380987167,-0.40154603123664856,-0.37144213914871216,0.21967484056949615,-0.0850360095500946,-0.23789869248867035,0.26604515314102173,-40.290138244628906,-84.87922668457031,-33.12871551513672,-9.083526611328125,1.7665960788726807,-98.67829132080078,-0.04149198904633522,-0.009488736279308796,0.39942389726638794,-0.03154711425304413,-0.22476859390735626,0.5706369876861572
1,161,2.415,-0.3980540335178375,-0.33247795701026917,-0.15810582041740417,0.11967919766902924,-0.16274048388004303,-0.1657506227493286,-0.28136783838272095,-0.33501479029655457,0.23824158310890198,0.08459624648094177,-0.21503445506095886,0.23283779621124268,-52.23872375488281,-53.88774871826172,-92.63685607910156,42.877357482910156,-10.101995468139648,-74.60528564453125,-0.030763806775212288,-0.009539949707686901,0.405462384223938,-0.04340825602412224,-0.22246438264846802,0.5665034651756287
1,162,2.4299999999999997,-0.15373313426971436,-0.25597691535949707,-0.18492968380451202,0.3409940004348755,-0.16260090470314026,-0.20114299654960632,-0.10866755247116089,-0.28093940019607544,0.2192809134721756,0.24103447794914246,-0.2149357944726944,0.20782040059566498,-18.270084381103516,-55.58152389526367,-63.46865463256836,44.317535400390625,3.661712646484375,-98.90399932861328,-0.019963810220360756,-0.012501917779445648,0.4092896580696106,-0.05491003766655922,-0.22320161759853363,0.5603422522544861
1,163,2.445,0.047740235924720764,-0.1682424694299698,-0.2386583387851715,0.45333433151245117,-0.16613541543483734,-0.1872333139181137,0.03374558687210083,-0.21892358362674713,0.18130236864089966,0.32044318318367004,-0.21743419766426086,0.2176525741815567,-8.104557037353516,-45.16191482543945,-72.98989868164062,60.93915939331055,-1.6046379804611206,-82.57588958740234,-0.015675414353609085,-0.01003935094922781,0.4066108167171478,-0.059931639581918716,-0.22240430116653442,0.5561506152153015
1,164,2.46,0.16490955650806427,-0.10565988719463348,-0.3042445182800293,0.45111334323883057,-0.1456311047077179,-0.11024036258459091,0.1165677011013031,-0.17468656599521637,0.13494224846363068,0.31887325644493103,-0.20294055342674255,0.27207568287849426,10.682388305664062,-37.61811447143555,-67.59505462646484,51.64237976074219,3.6943776607513428,-71.7093276977539,-0.002740198280662298,-0.010010097175836563,0.4076230525970459,-0.07338371872901917,-0.2186867594718933,0.5442394614219666
1,165,2.475,0.22305326163768768,-0.10954710841178894,-0.35941100120544434,0.45525771379470825,-0.09410391747951508,0.029212763532996178,0.15766707062721252,-0.1774342805147171,0.09594735503196716,0.3218027353286743,-0.16651813685894012,0.3706492781639099,-0.9241867065429688,-37.83378982543945,-95.84443664550781,69.07472229003906,1.6675033569335938,-13.696540832519531,0.004467334598302841,-0.00826316513121128,0.40435054898262024,-0.08062555640935898,-0.21611593663692474,0.5354048013687134
1,166,2.4899999999999998,0.20019514858722687,-0.17670300602912903,-0.3915041983127594,0.511338472366333,-0.020039133727550507,0.21210820972919464,0.14150962233543396,-0.22490398585796356,0.07326199114322662,0.3614438772201538,-0.11416482925415039,0.4999304413795471,9.491455078125,-45.41975784301758,-85.24918365478516,60.107994079589844,19.003515243530273,7.828775405883789,0.012258441187441349,-0.012179484590888023,0.4032123386859894,-0.07586165517568588,-0.21036763489246368,0.5284693837165833
1,167,2.505,0.11258471012115479,-0.264698326587677,-0.4244915843009949,0.5845948457717896,0.06086781620979309,0.40667200088500977,0.07958144694566727,-0.28710418939590454,0.04994462430477142,0.41322576999664307,-0.05697508156299591,0.6374594569206238,-4.547764778137207,-47.99581527709961,-106.58013916015625,42.98253631591797,14.916509628295898,48.23823547363281,0.011068154126405716,-0.01575639098882675,0.3992578089237213,-0.046160414814949036,-0.2063458114862442,0.5622326135635376
1,168,2.52,0.04122891649603844,-0.3385230004787445,-0.4818611741065979,0.666825532913208,0.14080646634101868,0.5869852304458618,0.02914300560951233,-0.33928778767585754,0.009392451494932175,0.4713512063026428,-0.00046978890895843506,0.7649153470993042,6.975833415985107,-59.66523361206055,-104.38935089111328,11.969074249267578,41.598453521728516,-105.12459564208984,0.02465902641415596,-0.025809597223997116,0.4052799940109253,-0.020991351455450058,-0.17293161153793335,0.5161226391792297
1,169,2.5349999999999997,0.0628427192568779,-0.34926027059555054,-0.5446520447731018,0.69649738073349,0.23101603984832764,0.7388405203819275,0.04442090168595314,-0.3468775153160095,-0.03499183803796768,0.4923250377178192,0.06329558789730072,0.8722555637359619,-25.22052764892578,-49.64564514160156,-150.0,33.996246337890625,-46.46452713012695,150.0,0.03210873901844025,-0.028151245787739754,0.4030369520187378,-0.043997421860694885,-0.20307621359825134,0.6022086143493652
1,170,2.55,0.17996421456336975,-0.3101983964443207,-0.5739712715148926,0.6320604085922241,0.32381147146224976,0.8187276124954224,0.12720921635627747,-0.31926628947257996,-0.05571632459759712,0.44677719473838806,0.128888800740242,0.9287244081497192,8.391875267028809,-52.99285888671875,-126.45975494384766,86.61196899414062,150.0,-150.0,0.042405180633068085,-0.02542033977806568,0.3989925682544708,-0.049756452441215515,-0.1894041895866394,0.6315076351165771
1,171,2.565,0.2843695878982544,-0.2903425991535187,-0.5501986145973206,0.5710544586181641,0.3962212800979614,0.7755739688873291,0.20100903511047363,-0.3052310645580292,-0.038912445306777954,0.40365463495254517,0.18007229268550873,0.8982208967208862,0.5843105316162109,-68.10218811035156,-112.90408325195312,45.285606384277344,-26.202491760253906,150.0,0.047646068036556244,-0.026100240647792816,0.39395150542259216,-0.029096780344843864,-0.1646004319190979,0.6798325777053833
1,172,2.58,0.3139572739601135,-0.28501179814338684,-0.47445276379585266,0.5788151621818542,0.4534685015678406,0.6146303415298462,0.2219233363866806,-0.30146294832229614,0.014629118144512177,0.40914034843444824,0.2205379605293274,0.7844565510749817,17.811260223388672,-50.884605407714844,-103.56538391113281,15.538097381591797,75.26233673095703,-150.0,0.060028012841939926,-0.03112340345978737,0.3942805826663971,-0.0037337802350521088,-0.11299759149551392,0.6766048669815063
1,173,2.5949999999999998,0.29714757204055786,-0.2609274685382843,-0.36856740713119507,0.6303064823150635,0.4739679992198944,0.36500683426856995,0.21004125475883484,-0.28443872928619385,0.08947506546974182,0.4455374479293823,0.2350282073020935,0.608008086681366,-5.278215408325195,-44.2989501953125,-94.96974182128906,21.390640258789062,-66.5464859008789,150.0,0.0639781504869461,-0.037288032472133636,0.393039733171463,0.03324953094124794,-0.07445637881755829,0.7082687020301819
1,174,2.61,0.24808736145496368,-0.1952562779188156,-0.2664473056793213,0.6460065245628357,0.4177565574645996,0.06995201855897903,0.17536263167858124,-0.23801851272583008,0.16165950894355774,0.45663511753082275,0.19529466331005096,0.39944615960121155,13.25302505493164,-28.497180938720703,-71.22037506103516,-4.196998596191406,36.68795394897461,-150.0,0.07281894236803055,-0.04855512082576752,0.39720678329467773,0.06780073791742325,-0.028335846960544586,0.6997013092041016
1,175,2.625,0.2078295648097992,-0.0813530758023262,-0.18571192026138306,0.5484124422073364,0.28543299436569214,-0.2209450900554657,0.1469060778617859,-0.1575050950050354,0.2187279909849167,0.38764992356300354,0.10176068544387817,0.19382312893867493,-8.109014511108398,-1.6955032348632812,-69.34430694580078,-2.7544517517089844,-86.04837799072266,137.65475463867188,0.07580742985010147,-0.06164591759443283,0.40134647488594055,0.10324984788894653,-0.007933792658150196,0.7236166000366211
1,176,2.6399999999999997,0.15949644148349762,0.029410870745778084,-0.12406487762928009,0.41610074043273926,0.12493962794542313,-0.47849544882774353,0.11274140328168869,-0.07921068370342255,0.2623037099838257,0.2941243052482605,-0.011685393750667572,0.011771529912948608,5.073418617248535,20.987916946411133,-58.7485466003418,-24.823749542236328,13.62166976928711,-150.0,0.08314291387796402,-0.07237545400857925,0.40798959136009216,0.12732286751270294,0.013852320611476898,0.7079830169677734
1,177,2.655,0.08905421197414398,0.06430669128894806,-0.06487782299518585,0.3501429855823517,0.008913503028452396,-0.6877727508544922,0.06294871866703033,-0.05454428493976593,0.304140567779541,0.24750150740146637,-0.09369941800832748,-0.13615787029266357,-17.431743621826172,21.64305305480957,-53.781715393066406,-7.687496185302734,-89.7516860961914,52.48081970214844,0.09127017855644226,-0.0834975466132164,0.41529837250709534,0.1424708217382431,0.020920297130942345,0.656679630279541
1,178,2.67,0.09382545948028564,0.021390963345766068,0.008620585314929485,0.2910264730453491,-0.018300291150808334,-0.8453960418701172,0.06632131338119507,-0.08487962186336517,0.35609352588653564,0.20571450889110565,-0.11293571442365646,-0.24757516384124756,-12.719961166381836,19.99748420715332,-45.82890319824219,-9.568081855773926,-6.808305740356445,-150.0,0.10349737107753754,-0.0943540409207344,0.42534956336021423,0.14910580217838287,0.03131219744682312,0.5204366445541382
1,179,2.685,0.19760902225971222,-0.07125246524810791,0.10656744986772537,0.15803635120391846,0.022306250408291817,-0.9544016718864441,0.1396815925836563,-0.15036539733409882,0.4253280758857727,0.11170932650566101,-0.0842326432466507,-0.3246266841888428,-14.652664184570312,10.274635314941406,-33.53141403198242,-8.733558654785156,-63.16285705566406,150.0,0.11317134648561478,-0.11116973310709,0.43716782331466675,0.15160247683525085,0.009309601970016956,0.45313647389411926
1,180,2.6999999999999997,0.34793928265571594,-0.2096286416053772,0.20951244235038757,-0.016474541276693344,0.05111897364258766,-1.0,0.2459437996149063,-0.24817773699760437,0.4980956017971039,-0.01164516806602478,-0.06386613100767136,-0.3724018335342407,5.73684024810791,3.120077133178711,-22.393991470336914,-20.834266662597656,72.2431869506836,-150.0,0.12980718910694122,-0.13113810122013092,0.45449692010879517,0.1413569450378418,0.006339865271002054,0.33919987082481384
1,181,2.715,0.49574753642082214,-0.3609952926635742,0.27096328139305115,-0.18854354321956635,0.0008704381179995835,-1.0,0.35042330622673035,-0.3551725149154663,0.5415326356887817,-0.13327358663082123,-0.09938472509384155,-0.3981899321079254,-0.6914634704589844,-7.779136657714844,-27.391584396362305,-11.932723999023438,-65.93939971923828,150.0,0.14484241604804993,-0.15534569323062897,0.47173720598220825,0.12541639804840088,-0.03693301975727081,0.39993390440940857
1,182,2.73,0.5739195942878723,-0.4758460521697998,0.27977532148361206,-0.3560922145843506,-0.13056343793869019,-1.0,0.4056798815727234,-0.43635571002960205,0.5477614998817444,-0.2517067790031433,-0.19228984415531158,-0.408719539642334,18.20069122314453,-16.3465576171875,-25.45279884338379,-26.05091667175293,104.97364044189453,-150.0,0.16018177568912506,-0.1792396903038025,0.48985666036605835,0.10300853103399277,-0.059308528900146484,0.43880605697631836
1,183,2.745,0.5385808348655701,-0.5194056034088135,0.2561614215373993,-0.4542749226093292,-0.2758469581604004,-1.0,0.38070037961006165,-0.4671461582183838,0.531069815158844,-0.32110804319381714,-0.29498469829559326,-0.40912023186683655,2.9907894134521484,-18.448753356933594,-37.67122268676758,-15.490882873535156,-72.8735580444336,-43.86936950683594,0.1715417057275772,-0.2062099128961563,0.5074251890182495,0.08440704643726349,-0.060858387500047684,0.3712463974952698
1,184,2.76,0.41890037059783936,-0.47769442200660706,0.21993155777454376,-0.4531804025173187,-0.36818093061447144,-1.0,0.29610323905944824,-0.4376622438430786,0.5054604411125183,-0.32033437490463257,-0.3602517247200012,-0.3916749358177185,1.823420524597168,-18.939115524291992,-45.26769256591797,-38.86318588256836,-6.079654693603516,-150.0,0.1855071634054184,-0.22700205445289612,0.5238646864891052,0.07224475592374802,-0.0832086130976677,0.38701915740966797
1,185,2.775,0.26037371158599854,-0.3887385129928589,0.18373164534568787,-0.45775553584098816,-0.41294029355049133,-0.9707902073860168,0.18404734134674072,-0.3747830390930176,0.4798722267150879,-0.32356834411621094,-0.3918902575969696,-0.3362111449241638,-22.559843063354492,0.18750381469726562,-57.61480712890625,-27.380403518676758,-28.963119506835938,-150.0,0.19760802388191223,-0.24194088578224182,0.5335090160369873,0.06144670024514198,-0.09985141456127167,0.3957258462905884
1,186,2.79,0.09439601004123688,-0.305556058883667,0.14429952204227448,-0.49351152777671814,-0.4342864453792572,-0.8434204459190369,0.06672461330890656,-0.3159848153591156,0.451999306678772,-0.3488427698612213,-0.406978964805603,-0.24617870151996613,-26.55328369140625,2.6545209884643555,-37.962501525878906,-39.39759063720703,-41.29579544067383,-150.0,0.21043682098388672,-0.2512422502040863,0.5386461615562439,0.04957698658108711,-0.11000494658946991,0.3975122570991516
1,187,2.8049999999999997,-0.06436222791671753,-0.24395950138568878,0.09892825782299042,-0.5002230405807495,-0.4483039677143097,-0.7153261303901672,-0.04549498111009598,-0.27244478464126587,0.41992825269699097,-0.3535868525505066,-0.4168873727321625,-0.15563416481018066,-53.0890007019043,8.507007598876953,-52.67265701293945,-27.80923843383789,-48.32503890991211,-150.0,0.22126851975917816,-0.2546064257621765,0.538321852684021,0.03941206634044647,-0.11629827320575714,0.39401501417160034
1,188,2.82,-0.18125084042549133,-0.20529349148273468,0.06115684658288956,-0.5004923343658447,-0.4754376709461212,-0.614883303642273,-0.12811867892742157,-0.24511340260505676,0.393229216337204,-0.3537772297859192,-0.43606704473495483,-0.08463536202907562,-50.071903228759766,-0.5372613668441772,-30.66339874267578,-39.41716003417969,-61.9104118347168,-136.49546813964844,0.22952938079833984,-0.253599613904953,0.5334349870681763,0.03131667897105217,-0.11780735105276108,0.38852378726005554
1,189,2.835,-0.1739370971918106,-0.18740013241767883,0.0484219565987587,-0.5403111577033997,-0.5164341330528259,-0.5368051528930664,-0.12294889241456985,-0.23246534168720245,0.384227454662323,-0.38192346692085266,-0.4650457501411438,-0.029445171356201172,-54.64067077636719,2.4553356170654297,-30.646015167236328,-37.91010284423828,-69.24430847167969,-105.86825561523438,0.2359440177679062,-0.2537688910961151,0.5271258354187012,0.02503350004553795,-0.1224730908870697,0.38325056433677673
1,190,2.85,-0.03882206603884697,-0.18402880430221558,0.07674708962440491,-0.5591893196105957,-0.5559795498847961,-0.494009792804718,-0.027441702783107758,-0.23008227348327637,0.40424931049346924,-0.39526766538619995,-0.49299874901771545,0.0008050687611103058,-37.84785461425781,1.2061705589294434,-17.607791900634766,-44.649959564208984,-72.3423843383789,-102.02108001708984,0.24243256449699402,-0.25225135684013367,0.5222232937812805,0.01875108852982521,-0.12512630224227905,0.3798208236694336
1,191,2.8649999999999998,0.12029185146093369,-0.19088226556777954,0.16191129386425018,-0.4522342085838318,-0.5840339064598083,-0.5051345229148865,0.08502930402755737,-0.2349267154932022,0.46444833278656006,-0.3196655511856079,-0.5128291845321655,-0.00705852173268795,-30.516693115234375,2.324350357055664,-10.607826232910156,-29.5335636138916,-77.9635009765625,-101.95072174072266,0.24574297666549683,-0.25348642468452454,0.5171661376953125,0.015624958090484142,-0.1321665495634079,0.38110145926475525
1,192,2.88,0.23980657756328583,-0.1913539171218872,0.29598185420036316,-0.2833440601825714,-0.5973166823387146,-0.5593516230583191,0.16950929164886475,-0.23526009917259216,0.5592172145843506,-0.20028413832187653,-0.5222182273864746,-0.04538233205676079,-9.45841121673584,2.9163365364074707,26.341075897216797,-25.941085815429688,-70.61270141601562,-134.7100067138672,0.2454672008752823,-0.2544494867324829,0.5337561964988708,0.013640188612043858,-0.1391173154115677,0.38487476110458374
1,193,2.895,0.31685489416122437,-0.1566178798675537,0.4511163830757141,-0.20776930451393127,-0.5973301529884338,-0.6257116198539734,0.22397154569625854,-0.2107066512107849,0.6688753366470337,-0.14686347544193268,-0.5222277641296387,-0.09228944778442383,-2.0302417278289795,12.29040241241455,-48.98114013671875,-14.140828132629395,-68.00148010253906,-145.92843627929688,0.24549749493598938,-0.24524936079978943,0.5196068286895752,0.008931118063628674,-0.14686521887779236,0.38554540276527405
1,194,2.9099999999999997,0.29876694083213806,-0.07347181439399719,0.6033350229263306,-0.2282981276512146,-0.5908495783805847,-0.6667757630348206,0.21118591725826263,-0.1519341617822647,0.7764723300933838,-0.16137444972991943,-0.5176469087600708,-0.12131594866514206,-2.3754284381866455,-15.488412857055664,150.0,-14.655045509338379,-69.30437469482422,-148.22579956054688,0.2438456267118454,-0.25554001331329346,0.6059024333953857,0.0007744968752376735,-0.15180973708629608,0.3855791687965393
1,195,2.925,0.21299713850021362,0.023299263790249825,0.7368789911270142,-0.2415400743484497,-0.5944923162460327,-0.65097975730896,0.15055881440639496,-0.0835307240486145,0.8708690404891968,-0.17073462903499603,-0.5202218294143677,-0.11015046387910843,-6.1063714027404785,88.04859924316406,-150.0,-7.364212989807129,-68.13338470458984,-146.87783813476562,0.23716270923614502,-0.23559238016605377,0.6399322152137756,-0.005642951466143131,-0.15426331758499146,0.38362592458724976
1,196,2.94,0.19019900262355804,0.1013011559844017,0.8414180278778076,-0.18929722905158997,-0.5988349914550781,-0.5884748101234436,0.1344437599182129,-0.028394438326358795,0.9447633028030396,-0.13380633294582367,-0.5232914686203003,-0.06596830487251282,-0.4547586441040039,-49.58101272583008,150.0,-9.893060684204102,-76.52882385253906,-119.85400390625,0.22285673022270203,-0.2222776859998703,0.7035186290740967,-0.008581525646150112,-0.16397888958454132,0.38556885719299316
1,197,2.955,0.25817880034446716,0.20137526094913483,0.9011583924293518,-0.086107537150383,-0.586347222328186,-0.5221985578536987,0.1824958622455597,0.04234376922249794,0.9869912266731262,-0.06086583435535431,-0.5144643783569336,-0.019120365381240845,22.187576293945312,77.26774597167969,-150.0,-4.98744010925293,-52.14920425415039,-136.9008026123047,0.20942425727844238,-0.18694016337394714,0.7219057679176331,-0.009571603499352932,-0.17089112102985382,0.3883777856826782
1,198,2.9699999999999998,0.32058435678482056,0.3458203673362732,0.9004244208335876,-0.00947503186762333,-0.5721648931503296,-0.4705701768398285,0.22660773992538452,0.1444459855556488,0.986472487449646,-0.006697505712509155,-0.5044394731521606,0.017373550683259964,14.61257266998291,-46.337608337402344,150.0,0.6446690559387207,-62.70594787597656,-110.80375671386719,0.18897132575511932,-0.15456603467464447,0.7666177153587341,-0.0009441535803489387,-0.18497474491596222,0.3997623324394226
1,199,2.985,0.27747222781181335,0.4832606017589569,0.8395350575447083,-0.03540784493088722,-0.5653603076934814,-0.4290202856063843,0.1961335837841034,0.2415967434644699,0.9434322714805603,-0.025028333067893982,-0.49962958693504333,0.046743445098400116,37.615116119384766,67.84991455078125,-150.0,-21.521753311157227,-38.29401397705078,-150.0,0.18222270905971527,-0.10000040382146835,0.7692826986312866,0.0031056124716997147,-0.18904274702072144,0.40770938992500305
1,200,3.0,0.1332205981016159,0.5783692002296448,0.7218449711799622,-0.15433353185653687,-0.5575888156890869,-0.3909057676792145,0.09416809678077698,0.3088250756263733,0.8602420687675476,-0.10909195244312286,-0.494136244058609,0.07368502020835876,-16.29193878173828,-56.98768615722656,150.0,-13.694253921508789,-63.84333038330078,-107.07022857666016,0.16341783106327057,-0.05529547855257988,0.8003102540969849,0.017040783539414406,-0.20231996476650238,0.4236742854118347
1,201,3.0149999999999997,-0.018691791221499443,0.624516487121582,0.5428886413574219,-0.28859424591064453,-0.5440605282783508,-0.3497786223888397,-0.013212449848651886,0.3414446711540222,0.7337453365325928,-0.20399527251720428,-0.4845736622810364,0.1027560755610466,23.6182861328125,49.3573112487793,-150.0,-56.45688247680664,-29.659175872802734,-150.0,0.1499473601579666,0.0023601693101227283,0.7930287718772888,0.026610370725393295,-0.21060127019882202,0.43572455644607544
1,202,3.03,-0.12254665791988373,0.6006209850311279,0.3050685226917267,-0.3674921989440918,-0.5296105146408081,-0.316982239484787,-0.08662313222885132,0.324553906917572,0.5656402111053467,-0.2597649395465851,-0.47435957193374634,0.12593847513198853,-23.742538452148438,-70.28746795654297,150.0,-39.70352554321289,-43.81316375732422,-108.2935791015625,0.12235333025455475,0.04455799609422684,0.8179752826690674,0.04365886375308037,-0.22692784667015076,0.4528166651725769
1,203,3.045,-0.23395290970802307,0.513298511505127,0.029676837846636772,-0.36555397510528564,-0.5171794295310974,-0.3087952435016632,-0.1653715819120407,0.2628293037414551,0.3709773123264313,-0.25839489698410034,-0.4655725657939911,0.1317255198955536,22.394176483154297,15.147768020629883,-150.0,-69.35433959960938,-20.78234100341797,-150.0,0.09713706374168396,0.08959081768989563,0.8104321956634521,0.05718618258833885,-0.23498693108558655,0.466450572013855
1,204,3.06,-0.3847070038318634,0.4140009880065918,-0.24340207874774933,-0.2875656187534332,-0.5083556771278381,-0.32008200883865356,-0.271933376789093,0.192640021443367,0.1779492199420929,-0.2032681703567505,-0.45933541655540466,0.12374737113714218,-22.17757797241211,-81.12481689453125,82.6534423828125,-43.280609130859375,-34.11155700683594,-122.87007141113281,0.05871056392788887,0.11579227447509766,0.7853137850761414,0.07915408164262772,-0.25083717703819275,0.484014093875885
1,205,3.0749999999999997,-0.541755199432373,0.3434225022792816,-0.4725102484226227,-0.15493640303611755,-0.5012720823287964,-0.32732483744621277,-0.3829442262649536,0.14275102317333221,0.016002222895622253,-0.10951809585094452,-0.4543282985687256,0.11862772703170776,13.12078857421875,-5.383574485778809,-150.0,-59.26251983642578,-16.440196990966797,-150.0,0.03229507803916931,0.1440456509590149,0.6942278742790222,0.0873207077383995,-0.25605517625808716,0.4903915822505951
1,206,3.09,-0.6705602407455444,0.3070732057094574,-0.6379843950271606,-0.013839606195688248,-0.4992896616458893,-0.317271888256073,-0.47399115562438965,0.11705721914768219,-0.10096456110477448,-0.009782642126083374,-0.45292702317237854,0.12573373317718506,-38.08017349243164,-78.8824691772461,150.0,-13.605103492736816,-35.914100646972656,-106.63420867919922,-0.004122464451938868,0.140970841050148,0.6483542323112488,0.09698202461004257,-0.26820579171180725,0.49766236543655396
